;FLAVOR:Marlin
;TIME:764
;Filament used: 0.733728m
;Layer height: 0.2
;MINX:-9.274
;MINY:-9.299
;MINZ:0.1
;MAXX:9.327
;MAXY:9.284
;MAXZ:31.1
;TARGET_MACHINE.NAME:Unknown
;Generated with Cura_SteamEngine 5.7.0
M82 ;absolute extrusion mode
G21 ; millimeter units
G90 ; absolute coordinates
M82 ; E absolute
M140 S80.0
M104 S250.0
M190 S80.0
M109 S250.0
G28 ; home axis
M420 S1 ; enable mesh leveling
; Lower nozzle and move to start position
G1 Z150
G1 X-130 Y0 Z0.4 F3000
; Extrude about 40 mm by printing a 90 degree arc
G3 X0 Y-130 I130 Z0.3 E40 F2700
; Retract and move nozzle up
G92 E0
G1 E-1.5 F1800
G0 Z0.5
G1 E0 F300

G92 E0
G92 E0
G1 F2700 E-6.5
;LAYER_COUNT:156
;LAYER:0
M107
G1 F3000 Z0.7
G0 X-9.274 Y-.357 Z0.7
;TYPE:SKIRT
G1 F3000 Z0.1
G1 F2700 E0
G1 F2100 X-9.093 Y-1.921 E0.02356
G1 X-8.86 Y-2.799 E0.03716
G1 X-8.304 Y-4.178 E0.05941
G1 X-7.934 Y-4.837 E0.07073
G1 X-6.638 Y-6.506 E0.10235
G1 X-6.081 Y-7.029 E0.11379
G1 X-4.589 Y-8.075 E0.14106
G1 X-3.362 Y-8.668 E0.16146
G1 X-2.792 Y-8.867 E0.17049
G1 X-.57 Y-9.282 E0.20433
G1 X-.11 Y-9.299 E0.21122
G1 X1.849 Y-9.105 E0.24068
G1 X2.927 Y-8.822 E0.25736
G1 X3.722 Y-8.515 E0.27012
G1 X4.872 Y-7.9 E0.28963
G1 X6.419 Y-6.718 E0.31877
G1 X7.099 Y-6 E0.33357
G1 X7.689 Y-5.222 E0.34819
G1 X8.375 Y-4.023 E0.36886
G1 X8.814 Y-2.941 E0.38634
G1 X9.186 Y-1.624 E0.40682
G1 X9.327 Y0.173 E0.4338
G1 X9.2 Y1.334 E0.45128
G1 X8.69 Y3.286 E0.48148
G1 X8.324 Y4.126 E0.49519
G1 X7.651 Y5.27 E0.51506
G1 X6.829 Y6.296 E0.53473
G1 X5.901 Y7.18 E0.55392
G1 X4.904 Y7.943 E0.57271
G1 X2.87 Y8.886 E0.60626
G1 X1.469 Y9.174 E0.62767
G1 X-.468 Y9.284 E0.65671
G1 X-1.279 Y9.206 E0.6689
G1 X-2.529 Y8.936 E0.68804
G1 X-3.973 Y8.399 E0.7111
G1 X-5.083 Y7.812 E0.72989
G1 X-6.42 Y6.716 E0.75577
G1 X-7.305 Y5.755 E0.77532
G1 X-7.679 Y5.245 E0.78479
G1 X-8.434 Y3.885 E0.80807
G1 X-8.933 Y2.534 E0.82963
G1 X-9.194 Y1.289 E0.84867
G1 X-9.274 Y-.357 E0.87333
G0 F3000 X-8.874 Y-.376
G1 F2100 X-8.706 Y-1.818 E0.89506
G1 X-8.473 Y-2.696 E0.90865
G1 X-7.955 Y-3.982 E0.92941
G1 X-7.585 Y-4.641 E0.94072
G1 X-6.364 Y-6.214 E0.97052
G1 X-5.807 Y-6.737 E0.98196
G1 X-4.414 Y-7.715 E1.00743
G1 X-3.23 Y-8.29 E1.02713
G1 X-2.66 Y-8.489 E1.03617
G1 X-.555 Y-8.882 E1.06822
G1 X-0.095 Y-8.899 E1.07511
G1 X1.748 Y-8.718 E1.10282
G1 X2.784 Y-8.448 E1.11885
G1 X3.533 Y-8.162 E1.13085
G1 X4.683 Y-7.547 E1.15037
G1 X6.175 Y-6.401 E1.17852
G1 X6.78 Y-5.758 E1.19174
G1 X7.37 Y-4.98 E1.20635
G1 X8.005 Y-3.872 E1.22547
G1 X8.429 Y-2.832 E1.24228
G1 X8.79 Y-1.554 E1.26215
G1 X8.925 Y0.166 E1.28797
G1 X8.802 Y1.29 E1.3049
G1 X8.323 Y3.127 E1.33331
G1 X7.979 Y3.923 E1.34629
G1 X7.306 Y5.067 E1.36616
G1 X6.553 Y6.007 E1.38418
G1 X5.658 Y6.862 E1.40271
G1 X4.695 Y7.599 E1.42086
G1 X2.745 Y8.503 E1.45303
G1 X1.388 Y8.782 E1.47376
G1 X-.431 Y8.886 E1.50103
G1 X-1.196 Y8.815 E1.51253
G1 X-2.39 Y8.561 E1.5308
G1 X-3.786 Y8.045 E1.55308
G1 X-4.861 Y7.476 E1.57128
G1 X-6.126 Y6.444 E1.59572
G1 X-6.982 Y5.518 E1.61459
G1 X-7.356 Y5.008 E1.62406
G1 X-8.059 Y3.746 E1.64568
G1 X-8.558 Y2.395 E1.66723
G1 X-8.794 Y1.27 E1.68444
G1 X-8.874 Y-.376 E1.7091
G0 F3000 X-8.474 Y-.395
G1 F2100 X-8.319 Y-1.715 E1.72899
G1 X-8.086 Y-2.593 E1.74259
G1 X-7.606 Y-3.786 E1.76184
G1 X-7.236 Y-4.445 E1.77315
G1 X-6.09 Y-5.922 E1.80113
G1 X-5.533 Y-6.445 E1.81256
G1 X-4.185 Y-7.387 E1.83718
G1 X-3.098 Y-7.912 E1.85525
G1 X-2.528 Y-8.111 E1.86428
G1 X-.54 Y-8.482 E1.89455
G1 X-0.08 Y-8.499 E1.90144
G1 X1.648 Y-8.331 E1.92742
G1 X2.643 Y-8.074 E1.94281
G1 X3.344 Y-7.809 E1.95402
G1 X4.494 Y-7.194 E1.97354
G1 X5.884 Y-6.126 E1.99978
G1 X6.461 Y-5.516 E2.01234
G1 X7.051 Y-4.738 E2.02696
G1 X7.635 Y-3.72 E2.04452
G1 X8.044 Y-2.723 E2.06065
G1 X8.394 Y-1.484 E2.07992
G1 X8.523 Y0.159 E2.10459
G1 X8.404 Y1.247 E2.12097
G1 X7.956 Y2.968 E2.14759
G1 X7.612 Y3.764 E2.16057
G1 X6.962 Y4.863 E2.17968
G1 X6.276 Y5.718 E2.19608
G1 X5.415 Y6.544 E2.21394
G1 X4.486 Y7.255 E2.23145
G1 X2.62 Y8.12 E2.26223
G1 X1.307 Y8.39 E2.2823
G1 X-.395 Y8.488 E2.30781
G1 X-1.114 Y8.423 E2.31862
G1 X-2.252 Y8.185 E2.33602
G1 X-3.599 Y7.691 E2.35749
G1 X-4.64 Y7.14 E2.37512
G1 X-5.873 Y6.134 E2.39894
G1 X-6.659 Y5.281 E2.4163
G1 X-7.033 Y4.771 E2.42577
G1 X-7.709 Y3.552 E2.44663
G1 X-8.167 Y2.311 E2.46643
G1 X-8.394 Y1.251 E2.48265
G1 X-8.474 Y-.395 E2.50732
G0 F3000 X-8.074 Y-.414
G1 F2100 X-7.932 Y-1.612 E2.52537
G1 X-7.699 Y-2.49 E2.53897
G1 X-7.257 Y-3.59 E2.55671
G1 X-6.887 Y-4.249 E2.56802
G1 X-5.816 Y-5.63 E2.59418
G1 X-5.259 Y-6.153 E2.60562
G1 X-4.01 Y-7.027 E2.62843
G1 X-2.966 Y-7.534 E2.6458
G1 X-2.396 Y-7.733 E2.65484
G1 X-.525 Y-8.082 E2.68332
G1 X-0.065 Y-8.099 E2.69021
G1 X1.549 Y-7.943 E2.71448
G1 X2.503 Y-7.699 E2.72922
G1 X3.157 Y-7.455 E2.73967
G1 X4.251 Y-6.876 E2.7582
G1 X5.594 Y-5.85 E2.78349
G1 X6.142 Y-5.274 E2.79539
G1 X6.732 Y-4.496 E2.81
G1 X7.265 Y-3.567 E2.82603
G1 X7.659 Y-2.614 E2.84147
G1 X7.998 Y-1.414 E2.86013
G1 X8.121 Y0.152 E2.88364
G1 X8.006 Y1.203 E2.89947
G1 X7.589 Y2.809 E2.9243
G1 X7.245 Y3.605 E2.93728
G1 X6.649 Y4.614 E2.95482
G1 X5.999 Y5.43 E2.97043
G1 X5.172 Y6.226 E2.98761
G1 X4.277 Y6.911 E3.00448
G1 X2.495 Y7.737 E3.03388
G1 X1.226 Y7.998 E3.05327
G1 X-.361 Y8.089 E3.07706
G1 X-1.032 Y8.031 E3.08714
G1 X-2.17 Y7.793 E3.10454
G1 X-3.412 Y7.337 E3.12435
G1 X-4.419 Y6.804 E3.1414
G1 X-5.62 Y5.824 E3.1646
G1 X-6.336 Y5.044 E3.18045
G1 X-6.71 Y4.534 E3.18991
G1 X-7.334 Y3.412 E3.20913
G1 X-7.776 Y2.225 E3.22808
G1 X-7.994 Y1.232 E3.2433
G1 X-8.074 Y-.414 E3.26797
G0 F3000 X-7.677 Y-.367
G1 F2100 X-7.535 Y-1.565 E3.28602
G1 X-7.327 Y-2.342 E3.29806
G1 X-6.908 Y-3.394 E3.31501
G1 X-6.538 Y-4.053 E3.32632
G1 X-5.542 Y-5.338 E3.35065
G1 X-4.985 Y-5.861 E3.36209
G1 X-3.781 Y-6.699 E3.38405
G1 X-2.834 Y-7.156 E3.39978
G1 X-2.264 Y-7.355 E3.40882
G1 X-.51 Y-7.682 E3.43552
G1 X-0.05 Y-7.699 E3.44241
G1 X1.451 Y-7.555 E3.46498
G1 X2.363 Y-7.324 E3.47906
G1 X3.017 Y-7.08 E3.48951
G1 X4.009 Y-6.558 E3.50629
G1 X5.305 Y-5.573 E3.53065
G1 X5.823 Y-5.032 E3.54186
G1 X6.413 Y-4.254 E3.55648
G1 X6.895 Y-3.414 E3.57097
G1 X7.289 Y-2.461 E3.58641
G1 X7.602 Y-1.345 E3.60375
G1 X7.719 Y0.145 E3.62612
G1 X7.608 Y1.16 E3.64141
G1 X7.222 Y2.65 E3.66444
G1 X6.878 Y3.446 E3.67742
G1 X6.335 Y4.366 E3.69341
G1 X5.721 Y5.142 E3.70822
G1 X4.929 Y5.908 E3.72471
G1 X4.068 Y6.567 E3.74094
G1 X2.37 Y7.354 E3.76895
G1 X1.145 Y7.606 E3.78767
G1 X-.327 Y7.69 E3.80974
G1 X-.998 Y7.632 E3.81982
G1 X-2.087 Y7.402 E3.83648
G1 X-3.225 Y6.983 E3.85463
G1 X-4.198 Y6.468 E3.8711
G1 X-5.367 Y5.514 E3.89369
G1 X-6.013 Y4.807 E3.90802
G1 X-6.387 Y4.297 E3.91749
G1 X-6.959 Y3.272 E3.93505
G1 X-7.401 Y2.085 E3.95401
G1 X-7.595 Y1.211 E3.96741
G1 X-7.677 Y-.367 E3.99106
G0 F3000 X-7.28 Y-.321
G1 F2100 X-7.148 Y-1.463 E4.00827
G1 X-6.955 Y-2.194 E4.01958
G1 X-6.536 Y-3.246 E4.03653
G1 X-6.221 Y-3.809 E4.04619
G1 X-5.268 Y-5.046 E4.06956
G1 X-4.711 Y-5.569 E4.08099
G1 X-3.606 Y-6.339 E4.10115
G1 X-2.702 Y-6.778 E4.11619
G1 X-2.132 Y-6.977 E4.12523
G1 X-.495 Y-7.282 E4.15015
G1 X-0.035 Y-7.299 E4.15704
G1 X1.354 Y-7.167 E4.17793
G1 X2.223 Y-6.949 E4.19133
G1 X2.877 Y-6.705 E4.20178
G1 X3.768 Y-6.239 E4.21683
G1 X5.016 Y-5.296 E4.24024
G1 X5.534 Y-4.755 E4.25145
G1 X6.067 Y-4.054 E4.26463
G1 X6.525 Y-3.261 E4.27834
G1 X6.919 Y-2.308 E4.29377
G1 X7.206 Y-1.278 E4.30978
G1 X7.317 Y0.138 E4.33104
G1 X7.21 Y1.116 E4.34576
G1 X6.855 Y2.491 E4.36702
G1 X6.511 Y3.287 E4.37999
G1 X6.02 Y4.119 E4.39445
G1 X5.442 Y4.855 E4.40846
G1 X4.686 Y5.59 E4.42424
G1 X3.859 Y6.223 E4.43983
G1 X2.245 Y6.971 E4.46645
G1 X1.064 Y7.214 E4.4845
G1 X-.293 Y7.291 E4.50484
G1 X-.964 Y7.233 E4.51492
G1 X-2.003 Y7.011 E4.53083
G1 X-3.038 Y6.629 E4.54734
G1 X-3.976 Y6.133 E4.56322
G1 X-5.072 Y5.243 E4.58435
G1 X-5.69 Y4.57 E4.59803
G1 X-6.064 Y4.06 E4.60749
G1 X-6.584 Y3.132 E4.62341
G1 X-7.026 Y1.945 E4.64237
G1 X-7.204 Y1.126 E4.65492
G1 X-7.28 Y-.321 E4.6766
G0 F3000 X-6.883 Y-.275
G1 F2100 X-6.751 Y-1.417 E4.69381
G1 X-6.583 Y-2.047 E4.70357
G1 X-6.185 Y-3.053 E4.71976
G1 X-5.903 Y-3.566 E4.72852
G1 X-4.994 Y-4.754 E4.75091
G1 X-4.437 Y-5.277 E4.76235
G1 X-3.43 Y-5.98 E4.78073
G1 X-2.57 Y-6.4 E4.79505
G1 X-2 Y-6.599 E4.80409
G1 X-.48 Y-6.882 E4.82723
G1 X-0.02 Y-6.899 E4.83412
G1 X1.258 Y-6.779 E4.85333
G1 X2.083 Y-6.574 E4.86605
G1 X2.737 Y-6.33 E4.8765
G1 X3.528 Y-5.919 E4.88984
G1 X4.727 Y-5.019 E4.91228
G1 X5.245 Y-4.478 E4.92349
G1 X5.748 Y-3.813 E4.93597
G1 X6.155 Y-3.108 E4.94816
G1 X6.549 Y-2.155 E4.96359
G1 X6.81 Y-1.208 E4.97829
G1 X6.915 Y0.131 E4.99839
G1 X6.812 Y1.072 E5.01256
G1 X6.468 Y2.39 E5.03295
G1 X6.145 Y3.126 E5.04498
G1 X5.704 Y3.873 E5.05796
G1 X5.162 Y4.569 E5.07117
G1 X4.443 Y5.272 E5.08622
G1 X3.65 Y5.879 E5.10116
G1 X2.12 Y6.588 E5.1264
G1 X0.983 Y6.822 E5.14378
G1 X-.259 Y6.892 E5.1624
G1 X-.93 Y6.834 E5.17248
G1 X-1.866 Y6.635 E5.1868
G1 X-2.851 Y6.275 E5.20249
G1 X-3.754 Y5.797 E5.21779
G1 X-4.82 Y4.932 E5.23833
G1 X-5.367 Y4.333 E5.25047
G1 X-5.741 Y3.823 E5.25994
G1 X-6.21 Y2.991 E5.27423
G1 X-6.635 Y1.86 E5.29232
G1 X-6.813 Y1.041 E5.30486
G1 X-6.883 Y-.275 E5.32459
G0 F3000 X-6.486 Y-.23
G1 F2100 X-6.364 Y-1.316 E5.34094
G1 X-6.211 Y-1.901 E5.34999
G1 X-5.834 Y-2.86 E5.36542
G1 X-5.552 Y-3.373 E5.37418
G1 X-4.72 Y-4.462 E5.39469
G1 X-4.163 Y-4.985 E5.40613
G1 X-3.254 Y-5.621 E5.42273
G1 X-2.438 Y-6.022 E5.43634
G1 X-1.868 Y-6.221 E5.44537
G1 X-.465 Y-6.482 E5.46673
G1 X-0.005 Y-6.499 E5.47362
G1 X1.163 Y-6.39 E5.49118
G1 X1.943 Y-6.199 E5.5032
G1 X2.597 Y-5.955 E5.51365
G1 X3.289 Y-5.598 E5.5253
G1 X4.438 Y-4.742 E5.54675
G1 X4.956 Y-4.201 E5.55796
G1 X5.428 Y-3.573 E5.56971
G1 X5.786 Y-2.954 E5.58042
G1 X6.163 Y-2.049 E5.59509
G1 X6.414 Y-1.138 E5.60923
G1 X6.513 Y0.124 E5.62818
G1 X6.414 Y1.029 E5.64181
G1 X6.101 Y2.231 E5.6604
G1 X5.8 Y2.924 E5.6717
G1 X5.388 Y3.628 E5.68391
G1 X4.881 Y4.284 E5.69632
G1 X4.2 Y4.954 E5.71062
G1 X3.441 Y5.535 E5.72493
G1 X1.995 Y6.205 E5.74878
G1 X0.902 Y6.43 E5.76548
G1 X-.225 Y6.493 E5.78238
G1 X-.896 Y6.435 E5.79246
G1 X-1.73 Y6.259 E5.80521
G1 X-2.664 Y5.921 E5.82008
G1 X-3.535 Y5.46 E5.83483
G1 X-4.525 Y4.661 E5.85387
G1 X-5.044 Y4.096 E5.86535
G1 X-5.418 Y3.586 E5.87482
G1 X-5.836 Y2.849 E5.8875
G1 X-6.244 Y1.775 E5.9047
G1 X-6.422 Y0.956 E5.91724
G1 X-6.486 Y-.23 E5.93502
G0 F3000 X-6.088 Y-.187
G1 F2100 X-5.976 Y-1.217 E5.95052
G1 X-5.838 Y-1.756 E5.95885
G1 X-5.483 Y-2.667 E5.97349
G1 X-5.201 Y-3.18 E5.98225
G1 X-4.446 Y-4.17 E6.00088
G1 X-3.889 Y-4.693 E6.01232
G1 X-3.026 Y-5.292 E6.02804
G1 X-2.306 Y-5.644 E6.04004
G1 X-1.736 Y-5.843 E6.04907
G1 X-.45 Y-6.082 E6.06865
G1 X0.01 Y-6.099 E6.07554
G1 X1.069 Y-6.001 E6.09146
G1 X1.804 Y-5.824 E6.10277
G1 X2.416 Y-5.598 E6.11254
G1 X3.051 Y-5.276 E6.12319
G1 X4.149 Y-4.465 E6.14362
G1 X4.667 Y-3.924 E6.15483
G1 X5.083 Y-3.371 E6.16519
G1 X5.417 Y-2.799 E6.1751
G1 X5.777 Y-1.943 E6.189
G1 X6.018 Y-1.068 E6.20259
G1 X6.111 Y0.117 E6.22038
G1 X6.016 Y0.986 E6.23346
G1 X5.734 Y2.073 E6.25027
G1 X5.454 Y2.723 E6.26086
G1 X5.07 Y3.385 E6.27232
G1 X4.599 Y4 E6.28391
G1 X3.957 Y4.636 E6.29744
G1 X3.232 Y5.191 E6.3111
G1 X1.87 Y5.822 E6.33357
G1 X0.821 Y6.038 E6.3496
G1 X-.191 Y6.094 E6.36477
G1 X-.862 Y6.036 E6.37485
G1 X-1.595 Y5.882 E6.38606
G1 X-2.477 Y5.567 E6.40008
G1 X-3.316 Y5.123 E6.41428
G1 X-4.231 Y4.389 E6.43184
G1 X-4.721 Y3.859 E6.44264
G1 X-5.095 Y3.349 E6.45211
G1 X-5.487 Y2.653 E6.46406
G1 X-5.853 Y1.69 E6.47948
G1 X-6.031 Y0.871 E6.49203
G1 X-6.088 Y-.187 E6.50789
G0 F3000 X-5.69 Y-.145
G1 F2100 X-5.588 Y-1.12 E6.52256
G1 X-5.465 Y-1.612 E6.53015
G1 X-5.132 Y-2.474 E6.54398
G1 X-4.85 Y-2.987 E6.55274
G1 X-4.129 Y-3.926 E6.57046
G1 X-3.659 Y-4.365 E6.58009
G1 X-2.849 Y-4.933 E6.59489
G1 X-2.174 Y-5.266 E6.60616
G1 X-1.604 Y-5.465 E6.61519
G1 X-.435 Y-5.682 E6.63299
G1 X0.025 Y-5.699 E6.63988
G1 X0.977 Y-5.612 E6.65419
G1 X1.667 Y-5.448 E6.6648
G1 X2.235 Y-5.241 E6.67385
G1 X2.87 Y-4.919 E6.68451
G1 X3.861 Y-4.188 E6.70294
G1 X4.348 Y-3.682 E6.71345
G1 X4.739 Y-3.167 E6.72313
G1 X5.049 Y-2.643 E6.73224
G1 X5.391 Y-1.837 E6.74534
G1 X5.622 Y-.998 E6.75837
G1 X5.709 Y0.11 E6.775
G1 X5.618 Y0.943 E6.78755
G1 X5.366 Y1.916 E6.80259
G1 X5.107 Y2.524 E6.81248
G1 X4.752 Y3.142 E6.82315
G1 X4.281 Y3.757 E6.83474
G1 X3.714 Y4.318 E6.84668
G1 X3.023 Y4.847 E6.8597
G1 X1.745 Y5.439 E6.88078
G1 X0.74 Y5.646 E6.89614
G1 X-.158 Y5.695 E6.9096
G1 X-.782 Y5.644 E6.91897
G1 X-1.462 Y5.505 E6.92936
G1 X-2.29 Y5.213 E6.9425
G1 X-3.097 Y4.786 E6.95617
G1 X-3.937 Y4.117 E6.97224
G1 X-4.427 Y3.587 E6.98304
G1 X-4.746 Y3.153 E6.9911
G1 X-5.138 Y2.457 E7.00306
G1 X-5.462 Y1.605 E7.0167
G1 X-5.64 Y0.786 E7.02925
G1 X-5.69 Y-.145 E7.0432
G0 F3000 X-5.292 Y-.105
G1 F2100 X-5.199 Y-1.025 E7.05704
G1 X-5.091 Y-1.469 E7.06388
G1 X-4.781 Y-2.281 E7.07689
G1 X-4.499 Y-2.794 E7.08565
G1 X-3.854 Y-3.635 E7.10151
G1 X-3.429 Y-4.037 E7.11027
G1 X-2.619 Y-4.605 E7.12508
G1 X-2.042 Y-4.888 E7.1347
G1 X-1.472 Y-5.087 E7.14373
G1 X-.42 Y-5.282 E7.15975
G1 X0.04 Y-5.299 E7.16663
G1 X0.886 Y-5.222 E7.17935
G1 X1.53 Y-5.072 E7.18925
G1 X2.098 Y-4.865 E7.19829
G1 X2.688 Y-4.563 E7.20821
G1 X3.574 Y-3.91 E7.22469
G1 X4.029 Y-3.44 E7.23448
G1 X4.42 Y-2.925 E7.24416
G1 X4.681 Y-2.485 E7.25181
G1 X5.005 Y-1.731 E7.2641
G1 X5.226 Y-.928 E7.27656
G1 X5.307 Y0.103 E7.29204
G1 X5.22 Y0.9 E7.30404
G1 X4.997 Y1.761 E7.31735
G1 X4.76 Y2.325 E7.32651
G1 X4.405 Y2.943 E7.33718
G1 X3.998 Y3.474 E7.34719
G1 X3.471 Y4 E7.35833
G1 X2.814 Y4.503 E7.37072
G1 X1.62 Y5.056 E7.39041
G1 X0.659 Y5.254 E7.4051
G1 X-.125 Y5.296 E7.41685
G1 X-.749 Y5.245 E7.42622
G1 X-1.331 Y5.127 E7.43511
G1 X-2.103 Y4.859 E7.44734
G1 X-2.878 Y4.449 E7.46046
G1 X-3.644 Y3.845 E7.47506
G1 X-4.106 Y3.348 E7.48522
G1 X-4.397 Y2.957 E7.49251
G1 X-4.789 Y2.261 E7.50447
G1 X-5.071 Y1.52 E7.51633
G1 X-5.249 Y0.701 E7.52888
G1 X-5.292 Y-.105 E7.54096
G0 F3000 X-4.894 Y-0.066
G1 F2100 X-4.81 Y-.93 E7.55395
G1 X-4.702 Y-1.374 E7.56079
G1 X-4.43 Y-2.088 E7.57223
G1 X-4.148 Y-2.601 E7.58099
G1 X-3.577 Y-3.346 E7.59504
G1 X-3.199 Y-3.709 E7.60288
G1 X-2.389 Y-4.277 E7.61769
G1 X-1.91 Y-4.51 E7.62566
G1 X-1.34 Y-4.709 E7.6347
G1 X-.405 Y-4.882 E7.64893
G1 X0.055 Y-4.899 E7.65582
G1 X0.797 Y-4.832 E7.66697
G1 X1.395 Y-4.695 E7.67615
G1 X1.919 Y-4.507 E7.68448
G1 X2.452 Y-4.24 E7.69341
G1 X3.288 Y-3.63 E7.70889
G1 X3.711 Y-3.197 E7.71795
G1 X4.077 Y-2.718 E7.72698
G1 X4.314 Y-2.325 E7.73385
G1 X4.619 Y-1.625 E7.74527
G1 X4.83 Y-.858 E7.75718
G1 X4.905 Y0.096 E7.7715
G1 X4.822 Y0.857 E7.78296
G1 X4.627 Y1.608 E7.79457
G1 X4.412 Y2.127 E7.80298
G1 X4.086 Y2.701 E7.81286
G1 X3.714 Y3.192 E7.82208
G1 X3.228 Y3.682 E7.83241
G1 X2.605 Y4.159 E7.84415
G1 X1.495 Y4.673 E7.86246
G1 X0.578 Y4.862 E7.87648
G1 X-0.094 Y4.897 E7.88655
G1 X-.672 Y4.852 E7.89522
G1 X-1.202 Y4.748 E7.90331
G1 X-1.916 Y4.505 E7.9146
G1 X-2.691 Y4.095 E7.92772
G1 X-3.352 Y3.571 E7.94034
G1 X-3.785 Y3.109 E7.94982
G1 X-4.076 Y2.718 E7.95712
G1 X-4.416 Y2.116 E7.96746
G1 X-4.68 Y1.435 E7.9784
G1 X-4.858 Y0.616 E7.99094
G1 X-4.894 Y-0.066 E8.00116
G0 F3000 X-4.496 Y-0.029
G1 F2100 X-4.421 Y-.835 E8.01328
G1 X-4.313 Y-1.279 E8.02012
G1 X-4.079 Y-1.895 E8.02998
G1 X-3.797 Y-2.408 E8.03874
G1 X-3.3 Y-3.057 E8.05098
G1 X-2.922 Y-3.42 E8.05882
G1 X-2.212 Y-3.918 E8.0718
G1 X-1.778 Y-4.132 E8.07904
G1 X-1.208 Y-4.331 E8.08808
G1 X-.39 Y-4.482 E8.10053
G1 X0.07 Y-4.499 E8.10742
G1 X0.709 Y-4.442 E8.11702
G1 X1.26 Y-4.318 E8.12547
G1 X1.784 Y-4.13 E8.1338
G1 X2.271 Y-3.883 E8.14198
G1 X3.003 Y-3.349 E8.15554
G1 X3.394 Y-2.953 E8.16387
G1 X3.734 Y-2.511 E8.17221
G1 X3.971 Y-2.118 E8.17908
G1 X4.233 Y-1.519 E8.18887
G1 X4.434 Y-.788 E8.20022
G1 X4.503 Y0.089 E8.21338
G1 X4.424 Y0.814 E8.2243
G1 X4.257 Y1.455 E8.23421
G1 X4.042 Y1.974 E8.24262
G1 X3.766 Y2.461 E8.251
G1 X3.428 Y2.912 E8.25943
G1 X2.985 Y3.364 E8.26891
G1 X2.396 Y3.815 E8.28001
G1 X1.368 Y4.291 E8.29696
G1 X0.555 Y4.463 E8.3094
G1 X-0.065 Y4.498 E8.3187
G1 X-.595 Y4.459 E8.32665
G1 X-1.125 Y4.355 E8.33473
G1 X-1.732 Y4.15 E8.34432
G1 X-2.444 Y3.78 E8.35633
G1 X-3.061 Y3.296 E8.36807
G1 X-3.464 Y2.87 E8.37685
G1 X-3.755 Y2.479 E8.38414
G1 X-4.044 Y1.969 E8.39292
G1 X-4.29 Y1.348 E8.40291
G1 X-4.459 Y0.592 E8.41451
G1 X-4.496 Y-0.029 E8.42382
