;FLAVOR:Marlin
;TIME:4650
;Filament used: 7.2915m
;Layer height: 0.2
;MINX:-45.242
;MINY:-19.742
;MINZ:0.1
;MAXX:45.699
;MAXY:30.201
;MAXZ:19.9
;TARGET_MACHINE.NAME:Unknown
;Generated with Cura_SteamEngine 5.7.0
M82 ;absolute extrusion mode
G21 ; millimeter units
G90 ; absolute coordinates
M82 ; E absolute
M140 S60.0
M104 S250.0
M190 S60.0
M109 S240.0
G28 ; home axis
M420 S1 ; enable mesh leveling
; Lower nozzle and move to start position
G1 Z150
G1 X-130 Y0 Z0.4 F3000
; Extrude about 40 mm by printing a 90 degree arc
G3 X0 Y-130 I130 Z0.3 E40 F2700
; Retract and move nozzle up
G92 E0
G1 E-1.5 F1800
G0 Z0.5
G1 E0 F300

G92 E0
G92 E0
G1 F2700 E-6.5
;LAYER_COUNT:100
;LAYER:0
M107
G1 F3000 Z0.7
G0 X3.774 Y-9.95 Z0.7
;TYPE:SKIRT
G1 F3000 Z0.1
G1 F2700 E0
G1 F2100 X6.365 Y-9.105 E0.04532
G1 X8.992 Y-8.33 E0.09087
G1 X11.611 Y-7.637 E0.13592
G1 X14.313 Y-7.004 E0.18207
G1 X17.005 Y-6.453 E0.22777
G1 X19.692 Y-5.981 E0.27314
G1 X22.386 Y-5.586 E0.31842
G1 X25.12 Y-5.264 E0.3642
G1 X27.825 Y-5.023 E0.40936
G1 X30.579 Y-4.855 E0.45525
G1 X33.292 Y-4.768 E0.50039
G1 X35.113 Y-4.751 E0.53067
G1 X41.837 Y-4.752 E0.64249
G1 X42.535 Y-4.742 E0.6541
G1 X43.038 Y-4.695 E0.6625
G1 X43.528 Y-4.569 E0.67092
G1 X43.992 Y-4.367 E0.67933
G1 X44.418 Y-4.095 E0.68774
G1 X44.796 Y-3.76 E0.69614
G1 X45.116 Y-3.369 E0.70454
G1 X45.371 Y-2.932 E0.71296
G1 X45.554 Y-2.461 E0.72136
G1 X45.661 Y-1.967 E0.72976
G1 X45.697 Y-1.339 E0.74023
G1 X45.699 Y11.878 E0.96003
G1 X45.689 Y12.589 E0.97185
G1 X45.642 Y13.092 E0.98025
G1 X45.516 Y13.582 E0.98867
G1 X45.315 Y14.046 E0.99707
G1 X45.043 Y14.472 E1.00548
G1 X44.678 Y14.878 E1.01456
G1 X43.031 Y16.423 E1.05211
G1 X41.032 Y18.394 E1.0988
G1 X40.051 Y19.391 E1.12206
G1 X39.313 Y19.954 E1.1375
G1 X37.132 Y21.666 E1.18361
G1 X35.002 Y23.439 E1.22969
G1 X32.979 Y25.221 E1.27453
G1 X30.944 Y27.117 E1.32078
G1 X29.331 Y28.687 E1.35821
G1 X28.942 Y29.01 E1.36662
G1 X28.507 Y29.268 E1.37503
G1 X28.013 Y29.461 E1.38385
G1 X27.188 Y29.706 E1.39817
G1 X25.767 Y30.093 E1.42266
G1 X25.27 Y30.186 E1.43107
G1 X24.765 Y30.201 E1.43947
G1 X24.049 Y30.083 E1.45154
G1 X22.577 Y29.663 E1.47699
G1 X21.908 Y29.458 E1.48863
G1 X21.243 Y29.167 E1.5007
G1 X20.592 Y28.79 E1.51321
G1 X18.183 Y27.441 E1.55913
G1 X15.725 Y26.154 E1.60527
G1 X13.274 Y24.958 E1.65062
G1 X10.792 Y23.832 E1.69595
G1 X8.245 Y22.763 E1.74188
G1 X5.693 Y21.776 E1.78739
G1 X3.121 Y20.864 E1.83277
G1 X0.528 Y20.025 E1.87809
G1 X-2.109 Y19.255 E1.92378
G1 X-4.772 Y18.558 E1.96955
G1 X-7.407 Y17.947 E2.01454
G1 X-10.146 Y17.394 E2.061
G1 X-12.808 Y16.934 E2.10593
G1 X-15.498 Y16.547 E2.15113
G1 X-18.243 Y16.23 E2.19708
G1 X-20.939 Y15.998 E2.24208
G1 X-23.701 Y15.836 E2.28809
G1 X-26.842 Y15.75 E2.34034
G1 X-27.88 Y15.737 E2.35761
G1 X-28.49 Y15.714 E2.36776
G1 X-29.525 Y15.625 E2.38504
G1 X-30.464 Y15.492 E2.40081
G1 X-31.469 Y15.292 E2.41785
G1 X-32.269 Y15.089 E2.43157
G1 X-33.158 Y14.815 E2.44704
G1 X-33.836 Y14.571 E2.45903
G1 X-34.79 Y14.175 E2.4762
G1 X-35.616 Y13.777 E2.49145
G1 X-36.187 Y13.471 E2.50223
G1 X-37.123 Y12.905 E2.52042
G1 X-37.775 Y12.464 E2.53351
G1 X-38.351 Y12.037 E2.54543
G1 X-39.23 Y11.311 E2.56439
G1 X-39.85 Y10.738 E2.57843
G1 X-40.493 Y10.082 E2.59371
G1 X-41.034 Y9.473 E2.60725
G1 X-41.682 Y8.662 E2.62452
G1 X-42.173 Y7.974 E2.63857
G1 X-42.652 Y7.232 E2.65326
G1 X-43.086 Y6.479 E2.66771
G1 X-43.41 Y5.854 E2.67942
G1 X-43.855 Y4.879 E2.69724
G1 X-44.146 Y4.141 E2.71044
G1 X-44.461 Y3.211 E2.72676
G1 X-44.703 Y2.348 E2.74167
G1 X-44.864 Y1.646 E2.75365
G1 X-45.053 Y0.597 E2.77137
G1 X-45.149 Y-.175 E2.78431
G1 X-45.224 Y-1.159 E2.80072
G1 X-45.242 Y-1.796 E2.81132
G1 X-45.218 Y-2.944 E2.83042
G1 X-45.145 Y-3.866 E2.8458
G1 X-45.054 Y-4.586 E2.85786
G1 X-44.906 Y-5.443 E2.87233
G1 X-44.673 Y-6.46 E2.88968
G1 X-44.423 Y-7.331 E2.90475
G1 X-44.187 Y-8.028 E2.91699
G1 X-43.802 Y-9.004 E2.93443
G1 X-43.38 Y-9.911 E2.95107
G1 X-42.958 Y-10.71 E2.9661
G1 X-42.602 Y-11.315 E2.97777
G1 X-42.078 Y-12.117 E2.9937
G1 X-41.674 Y-12.675 E3.00516
G1 X-41.03 Y-13.48 E3.0223
G1 X-40.515 Y-14.061 E3.03521
G1 X-39.993 Y-14.601 E3.0477
G1 X-39.292 Y-15.257 E3.06367
G1 X-38.428 Y-15.981 E3.08242
G1 X-37.865 Y-16.403 E3.09412
G1 X-37.081 Y-16.935 E3.10987
G1 X-36.269 Y-17.425 E3.12565
G1 X-35.411 Y-17.882 E3.14181
G1 X-34.617 Y-18.253 E3.15639
G1 X-33.716 Y-18.618 E3.17255
G1 X-32.824 Y-18.926 E3.18825
G1 X-32.015 Y-19.159 E3.20225
G1 X-31.222 Y-19.349 E3.21581
G1 X-30.428 Y-19.5 E3.22925
G1 X-29.44 Y-19.638 E3.24584
G1 X-28.589 Y-19.711 E3.26004
G1 X-27.756 Y-19.742 E3.27391
G1 X-26.738 Y-19.726 E3.29084
G1 X-25.993 Y-19.679 E3.30325
G1 X-25.113 Y-19.582 E3.31797
G1 X-24.349 Y-19.461 E3.33084
G1 X-23.305 Y-19.24 E3.34858
G1 X-21.12 Y-18.655 E3.3862
G1 X-18.483 Y-17.996 E3.4314
G1 X-15.765 Y-17.398 E3.47768
G1 X-13.121 Y-16.894 E3.52245
G1 X-11.974 Y-16.697 E3.5418
G1 X-11.319 Y-16.521 E3.55308
G1 X-10.828 Y-16.321 E3.5619
G1 X-10.284 Y-16.044 E3.57205
G1 X-8.845 Y-15.286 E3.5991
G1 X-6.384 Y-14.077 E3.64469
G1 X-3.886 Y-12.937 E3.69036
G1 X-1.381 Y-11.877 E3.73559
G1 X1.222 Y-10.863 E3.78205
G1 X3.774 Y-9.95 E3.82712
G1 F2700 E-2.67288
G0 F3000 X21.359 Y20.674
G1 F2700 E3.82712
G1 F2100 X22.857 Y19.092 E3.86336
G1 X24.926 Y18.512 E3.89909
G1 X26.995 Y19.092 E3.93482
G1 X28.493 Y20.674 E3.97105
G1 X29.073 Y22.661 E4.00548
G1 X28.494 Y24.731 E4.04122
G1 X26.997 Y26.228 E4.07643
G1 X24.927 Y26.807 E4.11218
G1 X22.94 Y26.226 E4.1466
G1 X21.36 Y24.646 E4.18376
G1 X20.779 Y22.66 E4.21817
G1 X21.359 Y20.674 E4.25258
G0 F3000 X21.716 Y20.879
G1 F2100 X23.072 Y19.447 E4.28538
G1 X24.926 Y18.927 E4.3174
G1 X26.78 Y19.447 E4.34942
G1 X28.136 Y20.879 E4.38222
G1 X28.657 Y22.664 E4.41314
G1 X28.137 Y24.522 E4.44523
G1 X26.788 Y25.871 E4.47695
G1 X24.93 Y26.391 E4.50904
G1 X23.151 Y25.871 E4.53986
G1 X21.715 Y24.435 E4.57364
G1 X21.196 Y22.66 E4.60439
G1 X21.716 Y20.879 E4.63525
G0 F3000 X22.073 Y21.084
G1 F2100 X23.286 Y19.802 E4.6646
G1 X24.926 Y19.343 E4.69292
G1 X26.566 Y19.802 E4.72124
G1 X27.779 Y21.084 E4.75059
G1 X28.241 Y22.667 E4.77801
G1 X27.781 Y24.312 E4.80642
G1 X26.578 Y25.515 E4.83471
G1 X24.933 Y25.975 E4.86312
G1 X23.362 Y25.516 E4.89034
G1 X22.071 Y24.225 E4.9207
G1 X21.613 Y22.659 E4.94783
G1 X22.073 Y21.084 E4.97512
G0 F3000 X22.43 Y21.289
G1 F2100 X23.502 Y20.157 E5.00104
G1 X24.926 Y19.758 E5.02564
G1 X26.35 Y20.157 E5.05023
G1 X27.422 Y21.289 E5.07616
G1 X27.825 Y22.67 E5.10008
G1 X27.424 Y24.103 E5.12483
G1 X26.369 Y25.158 E5.14964
G1 X24.936 Y25.559 E5.17439
G1 X23.572 Y25.16 E5.19802
G1 X22.426 Y24.014 E5.22497
G1 X22.03 Y22.659 E5.24845
G1 X22.43 Y21.289 E5.27218
G0 F3000 X22.787 Y21.493
G1 F2100 X23.716 Y20.513 E5.29464
G1 X24.926 Y20.173 E5.31554
G1 X26.136 Y20.513 E5.33644
G1 X27.065 Y21.493 E5.3589
G1 X27.409 Y22.672 E5.37932
G1 X27.067 Y23.894 E5.40043
G1 X26.16 Y24.801 E5.42176
G1 X24.939 Y25.143 E5.44285
G1 X23.783 Y24.805 E5.46287
G1 X22.781 Y23.803 E5.48644
G1 X22.447 Y22.66 E5.50624
G1 X22.787 Y21.493 E5.52646
G0 F3000 X23.144 Y21.697
G1 F2100 X23.93 Y20.868 E5.54546
G1 X24.926 Y20.589 E5.56266
G1 X25.922 Y20.868 E5.57986
G1 X26.708 Y21.697 E5.59886
G1 X26.993 Y22.673 E5.61576
G1 X26.709 Y23.686 E5.63326
G1 X25.952 Y24.443 E5.65106
G1 X24.94 Y24.726 E5.66854
G1 X23.994 Y24.45 E5.68493
G1 X23.136 Y23.592 E5.70511
G1 X22.863 Y22.66 E5.72126
G1 X23.144 Y21.697 E5.73794
G0 F3000 X23.501 Y21.903
G1 F2100 X24.145 Y21.223 E5.75351
G1 X24.926 Y21.004 E5.767
G1 X25.707 Y21.223 E5.78049
G1 X26.351 Y21.903 E5.79607
G1 X26.577 Y22.676 E5.80946
G1 X26.352 Y23.479 E5.82333
G1 X25.745 Y24.086 E5.8376
G1 X24.943 Y24.311 E5.85146
G1 X24.202 Y24.094 E5.8643
G1 X23.492 Y23.384 E5.88099
G1 X23.28 Y22.659 E5.89356
G1 X23.501 Y21.903 E5.90665
G0 F3000 X23.858 Y22.107
G1 F2100 X24.358 Y21.579 E5.91875
G1 X24.926 Y21.42 E5.92856
G1 X25.494 Y21.579 E5.93837
G1 X25.994 Y22.107 E5.95046
G1 X26.161 Y22.679 E5.96037
G1 X25.996 Y23.269 E5.97056
G1 X25.535 Y23.73 E5.9814
G1 X24.946 Y23.895 E5.99157
G1 X24.413 Y23.739 E6.00081
G1 X23.846 Y23.172 E6.01414
G1 X23.696 Y22.661 E6.023
G1 X23.858 Y22.107 E6.0326
G0 F3000 X24.215 Y22.313
G1 F2100 X24.573 Y21.934 E6.04127
G1 X24.926 Y21.835 E6.04736
G1 X25.279 Y21.934 E6.05346
G1 X25.637 Y22.312 E6.06212
G1 X25.745 Y22.682 E6.06853
G1 X25.639 Y23.06 E6.07506
G1 X25.326 Y23.373 E6.08242
G1 X24.949 Y23.479 E6.08893
G1 X24.624 Y23.384 E6.09456
G1 X24.201 Y22.961 E6.10451
G1 X24.113 Y22.66 E6.10973
G1 X24.215 Y22.313 E6.11574
G0 F3000 X24.572 Y22.517
G1 F2100 X24.787 Y22.29 E6.12094
G1 X24.926 Y22.251 E6.12334
G1 X25.065 Y22.29 E6.12574
G1 X25.28 Y22.517 E6.13094
G1 X25.329 Y22.684 E6.13384
G1 X25.282 Y22.851 E6.13672
G1 X25.117 Y23.016 E6.1406
G1 X24.95 Y23.063 E6.14349
G1 X24.836 Y23.03 E6.14546
G1 X24.556 Y22.75 E6.15204
G1 X24.53 Y22.66 E6.1536
G1 X24.572 Y22.517 E6.15608
G1 F2700 E-0.34392
;MESH:?????? ????????????????????.stl
G0 F3000 X24.572 Y16.578
G0 X16.9 Y14.224
G0 X16.728 Y12.548
;TYPE:WALL-INNER
G1 F2700 E6.15608
G1 F2100 X16.728 Y14.396 E6.18681
G1 X35.328 Y14.396 E6.49613
G1 X35.328 Y12.548 E6.52687
G1 X35.368 Y12.089 E6.53453
G1 X35.581 Y11.428 E6.54608
G1 X35.846 Y10.989 E6.5546
G1 X36.207 Y10.599 E6.56344
G1 X36.678 Y10.268 E6.57302
G1 X37.218 Y10.046 E6.58272
G1 X37.67 Y9.948 E6.59042
G1 X39.896 Y9.948 E6.62743
G1 X39.896 Y1.049 E6.77543
G1 X-19.84 Y1.055 E7.76884
G1 X-20.122 Y1.678 E7.78021
G1 X-20.673 Y2.642 E7.79868
G1 X-21.498 Y3.667 E7.82056
G1 X-22.17 Y4.285 E7.83574
G1 X-23.062 Y4.96 E7.85434
G1 X-24.253 Y5.591 E7.87676
G1 X-25.516 Y6.014 E7.89891
G1 X-26.839 Y6.229 E7.9212
G1 X-28.22 Y6.222 E7.94417
G1 X-29.513 Y6.011 E7.96595
G1 X-30.79 Y5.567 E7.98844
G1 X-31.847 Y5.006 E8.00834
G1 X-32.486 Y4.576 E8.02115
G1 X-33.469 Y3.701 E8.04303
G1 X-34.303 Y2.672 E8.06506
G1 X-34.973 Y1.512 E8.08734
G1 X-35.439 Y0.249 E8.10972
G1 X-35.705 Y-1.062 E8.13197
G1 X-35.747 Y-2.405 E8.15431
G1 X-35.579 Y-3.708 E8.17616
G1 X-35.182 Y-5.025 E8.19904
G1 X-34.592 Y-6.229 E8.22134
G1 X-33.83 Y-7.306 E8.24328
G1 X-32.965 Y-8.185 E8.26378
G1 X-32.34 Y-8.686 E8.27711
G1 X-31.312 Y-9.321 E8.2972
G1 X-30.064 Y-9.849 E8.31973
G1 X-28.765 Y-10.162 E8.34196
G1 X-27.42 Y-10.257 E8.36438
G1 X-26.104 Y-10.138 E8.38635
G1 X-24.836 Y-9.817 E8.40811
G1 X-23.566 Y-9.262 E8.43115
G1 X-22.454 Y-8.542 E8.45318
G1 X-21.515 Y-7.678 E8.47441
G1 X-20.962 Y-7.056 E8.48825
G1 X-14.69 Y-7.054 E8.59255
G1 X-14.687 Y-10.95 E8.65734
G1 X-18.36 Y-10.955 E8.71842
G1 X-18.874 Y-11.008 E8.72702
G1 X-19.522 Y-11.172 E8.73813
G1 X-20.19 Y-11.482 E8.75038
G1 X-21.029 Y-12.045 E8.76718
G1 X-21.557 Y-12.368 E8.77748
G1 X-22.065 Y-12.642 E8.78707
G1 X-22.584 Y-12.892 E8.79665
G1 X-23.159 Y-13.134 E8.80703
G1 X-23.717 Y-13.335 E8.81689
G1 X-24.292 Y-13.509 E8.82688
G1 X-24.881 Y-13.659 E8.83699
G1 X-25.51 Y-13.784 E8.84765
G1 X-26.05 Y-13.86 E8.85672
G1 X-26.648 Y-13.917 E8.86671
G1 X-27.316 Y-13.946 E8.87783
G1 X-27.91 Y-13.941 E8.88771
G1 X-28.439 Y-13.912 E8.89652
G1 X-28.996 Y-13.853 E8.90584
G1 X-29.638 Y-13.755 E8.91664
G1 X-30.221 Y-13.635 E8.92654
G1 X-30.798 Y-13.485 E8.93645
G1 X-31.365 Y-13.304 E8.94635
G1 X-31.994 Y-13.071 E8.9575
G1 X-32.578 Y-12.815 E8.96811
G1 X-33.073 Y-12.571 E8.97728
G1 X-33.595 Y-12.276 E8.98726
G1 X-34.102 Y-11.96 E8.99719
G1 X-34.797 Y-11.472 E9.01131
G1 X-35.522 Y-10.855 E9.02715
G1 X-35.953 Y-10.445 E9.03704
G1 X-36.366 Y-10.007 E9.04705
G1 X-36.782 Y-9.526 E9.05763
G1 X-37.123 Y-9.082 E9.06694
G1 X-37.43 Y-8.643 E9.07584
G1 X-37.753 Y-8.131 E9.08591
G1 X-38.049 Y-7.61 E9.09588
G1 X-38.343 Y-7.021 E9.10682
G1 X-38.578 Y-6.475 E9.11671
G1 X-38.789 Y-5.909 E9.12675
G1 X-38.971 Y-5.338 E9.13672
G1 X-39.126 Y-4.758 E9.1467
G1 X-39.251 Y-4.169 E9.15672
G1 X-39.352 Y-3.545 E9.16723
G1 X-39.407 Y-3.003 E9.17629
G1 X-39.441 Y-2.329 E9.18751
G1 X-39.447 Y-1.792 E9.19644
G1 X-39.421 Y-1.203 E9.20625
G1 X-39.365 Y-.603 E9.21627
G1 X-39.279 Y-0.007 E9.22628
G1 X-39.167 Y0.579 E9.23621
G1 X-39.022 Y1.163 E9.24621
G1 X-38.867 Y1.686 E9.25528
G1 X-38.644 Y2.315 E9.26638
G1 X-38.421 Y2.842 E9.2759
G1 X-38.162 Y3.392 E9.28601
G1 X-37.88 Y3.914 E9.29588
G1 X-37.568 Y4.431 E9.30592
G1 X-37.238 Y4.922 E9.31576
G1 X-36.875 Y5.404 E9.32579
G1 X-36.517 Y5.837 E9.33513
G1 X-36.087 Y6.303 E9.34568
G1 X-35.658 Y6.725 E9.35569
G1 X-35.205 Y7.129 E9.36578
G1 X-34.744 Y7.501 E9.37563
G1 X-34.234 Y7.869 E9.38609
G1 X-33.766 Y8.173 E9.39537
G1 X-33.243 Y8.473 E9.4054
G1 X-32.709 Y8.751 E9.41541
G1 X-32.165 Y8.997 E9.42534
G1 X-31.608 Y9.217 E9.4353
G1 X-31.068 Y9.4 E9.44478
G1 X-30.46 Y9.573 E9.45529
G1 X-29.877 Y9.707 E9.46524
G1 X-29.24 Y9.819 E9.476
G1 X-28.698 Y9.888 E9.48508
G1 X-28.098 Y9.93 E9.49508
G1 X-27.439 Y9.948 E9.50605
G1 X14.325 Y9.948 E10.20059
G1 X14.981 Y10.091 E10.21175
G1 X15.601 Y10.384 E10.22316
G1 X16.072 Y10.821 E10.23384
G1 X16.349 Y11.195 E10.24158
G1 X16.594 Y11.721 E10.25123
G1 X16.688 Y12.089 E10.25755
G1 X16.728 Y12.548 E10.26521
G0 F3000 X16.114 Y11.6
G1 F2100 X16.294 Y12.16 E10.27499
G1 X16.328 Y12.548 E10.28147
G1 X16.328 Y14.796 E10.31885
G1 X35.728 Y14.796 E10.64148
G1 X35.728 Y12.548 E10.67886
G1 X35.762 Y12.16 E10.68534
G1 X35.942 Y11.6 E10.69512
G1 X36.166 Y11.229 E10.70233
G1 X36.471 Y10.899 E10.7098
G1 X36.87 Y10.618 E10.71791
G1 X37.327 Y10.431 E10.72613
G1 X37.928 Y10.348 E10.73622
G1 X40.296 Y10.348 E10.7756
G1 X40.296 Y0.649 E10.93689
G1 X-20.114 Y0.655 E11.94151
G1 X-20.398 Y1.353 E11.95404
G1 X-21.004 Y2.414 E11.97436
G1 X-21.79 Y3.393 E11.99524
G1 X-22.412 Y3.966 E12.00931
G1 X-23.277 Y4.622 E12.02736
G1 X-24.404 Y5.219 E12.04857
G1 X-25.602 Y5.621 E12.06959
G1 X-26.87 Y5.829 E12.09095
G1 X-28.182 Y5.823 E12.11277
G1 X-29.44 Y5.613 E12.13398
G1 X-30.624 Y5.202 E12.15483
G1 X-31.641 Y4.663 E12.17397
G1 X-32.24 Y4.261 E12.18596
G1 X-33.177 Y3.427 E12.20682
G1 X-33.966 Y2.455 E12.22764
G1 X-34.601 Y1.358 E12.24872
G1 X-35.058 Y0.129 E12.27053
G1 X-35.307 Y-1.127 E12.29182
G1 X-35.347 Y-2.395 E12.31292
G1 X-35.181 Y-3.621 E12.33349
G1 X-34.83 Y-4.832 E12.35446
G1 X-34.283 Y-5.966 E12.3754
G1 X-33.556 Y-7.007 E12.39652
G1 X-32.741 Y-7.842 E12.41592
G1 X-32.108 Y-8.358 E12.4295
G1 X-31.131 Y-8.964 E12.44862
G1 X-29.943 Y-9.467 E12.47007
G1 X-28.7 Y-9.766 E12.49134
G1 X-27.441 Y-9.855 E12.51233
G1 X-26.15 Y-9.742 E12.53388
G1 X-24.947 Y-9.43 E12.55454
G1 X-23.757 Y-8.909 E12.57615
G1 X-22.701 Y-8.226 E12.59706
G1 X-21.8 Y-7.397 E12.61742
G1 X-21.421 Y-6.971 E12.62691
G1 X-21.183 Y-6.656 E12.63347
G1 X-14.291 Y-6.653 E12.74809
G1 X-14.287 Y-11.349 E12.82618
G1 X-18.359 Y-11.355 E12.8939
G1 X-18.794 Y-11.4 E12.90117
G1 X-19.364 Y-11.531 E12.9109
G1 X-19.976 Y-11.816 E12.92212
G1 X-20.813 Y-12.381 E12.93892
G1 X-21.358 Y-12.715 E12.94955
G1 X-21.883 Y-12.999 E12.95947
G1 X-22.42 Y-13.256 E12.96937
G1 X-23.013 Y-13.506 E12.98008
G1 X-23.591 Y-13.715 E12.9903
G1 X-24.185 Y-13.895 E13.00062
G1 X-24.793 Y-14.049 E13.01105
G1 X-25.443 Y-14.178 E13.02207
G1 X-26.003 Y-14.258 E13.03148
G1 X-26.621 Y-14.316 E13.0418
G1 X-27.31 Y-14.347 E13.05327
G1 X-27.873 Y-14.342 E13.06263
G1 X-28.471 Y-14.31 E13.07259
G1 X-29.047 Y-14.249 E13.08223
G1 X-29.708 Y-14.149 E13.09334
G1 X-30.312 Y-14.024 E13.1036
G1 X-30.909 Y-13.869 E13.11386
G1 X-31.495 Y-13.682 E13.12409
G1 X-32.144 Y-13.442 E13.13559
G1 X-32.71 Y-13.195 E13.14586
G1 X-33.26 Y-12.925 E13.15605
G1 X-33.799 Y-12.62 E13.16635
G1 X-34.323 Y-12.293 E13.17662
G1 X-34.83 Y-11.937 E13.18693
G1 X-35.239 Y-11.621 E13.19552
G1 X-35.79 Y-11.152 E13.20755
G1 X-36.237 Y-10.727 E13.21781
G1 X-36.663 Y-10.275 E13.22814
G1 X-37.092 Y-9.779 E13.23905
G1 X-37.445 Y-9.318 E13.2487
G1 X-37.763 Y-8.865 E13.25791
G1 X-38.097 Y-8.337 E13.2683
G1 X-38.402 Y-7.798 E13.2786
G1 X-38.706 Y-7.189 E13.28992
G1 X-38.949 Y-6.624 E13.30014
G1 X-39.167 Y-6.04 E13.31051
G1 X-39.355 Y-5.45 E13.32081
G1 X-39.515 Y-4.851 E13.33112
G1 X-39.644 Y-4.243 E13.34146
G1 X-39.749 Y-3.597 E13.35234
G1 X-39.805 Y-3.034 E13.36175
G1 X-39.84 Y-2.403 E13.37226
G1 X-39.847 Y-1.785 E13.38254
G1 X-39.82 Y-1.176 E13.39267
G1 X-39.762 Y-.556 E13.40303
G1 X-39.674 Y0.06 E13.41338
G1 X-39.558 Y0.665 E13.42362
G1 X-39.408 Y1.268 E13.43396
G1 X-39.233 Y1.858 E13.44419
