;FLAVOR:Marlin
;TIME:1268
;Filament used: 2.10274m
;Layer height: 0.2
;MINX:-20.587
;MINY:-20.543
;MINZ:0.1
;MAXX:20.587
;MAXY:22.265
;MAXZ:10.5
;TARGET_MACHINE.NAME:Unknown
;Generated with Cura_SteamEngine 5.7.0
M82 ;absolute extrusion mode
G21 ; millimeter units
G90 ; absolute coordinates
M82 ; E absolute
M140 S60.0
M104 S240.0
M190 S60.0
M109 S220.0
G28 ; home axis
M420 S1 ; enable mesh leveling
; Lower nozzle and move to start position
G1 Z150
G1 X-130 Y0 Z0.4 F3000
; Extrude about 40 mm by printing a 90 degree arc
G3 X0 Y-130 I130 Z0.3 E40 F2700
; Retract and move nozzle up
G92 E0
G1 E-1.5 F1800
G0 Z0.5
G1 E0 F300

G92 E0
G92 E0
G1 F2700 E-6.5
;LAYER_COUNT:53
;LAYER:0
M107
G1 F3000 Z0.7
G0 X-4.797 Y-18.343 Z0.7
;TYPE:SKIRT
G1 F3000 Z0.1
G1 F2700 E0
G1 F2100 X-2.172 Y-19.045 E0.04519
G1 X0.487 Y-19.838 E0.09133
G1 X2.185 Y-20.374 E0.12094
G1 X2.791 Y-20.513 E0.13128
G1 X3.794 Y-20.543 E0.14797
G1 X4.406 Y-20.513 E0.15816
G1 X5.648 Y-20.204 E0.17944
G1 X6.268 Y-20.034 E0.19014
G1 X6.995 Y-19.752 E0.2031
G1 X7.511 Y-19.464 E0.21293
G1 X8.044 Y-19.099 E0.22367
G1 X8.488 Y-18.733 E0.23324
G1 X9.433 Y-17.796 E0.25537
G1 X10.367 Y-16.844 E0.27755
G1 X13.349 Y-14.011 E0.34595
G1 X14.045 Y-13.376 E0.36162
G1 X14.951 Y-12.475 E0.38287
G1 X15.865 Y-11.453 E0.40567
G1 X16.423 Y-10.734 E0.42081
G1 X17.042 Y-9.873 E0.43844
G1 X17.58 Y-9.034 E0.45502
G1 X18.282 Y-7.802 E0.4786
G1 X18.581 Y-7.194 E0.48987
G1 X18.871 Y-6.549 E0.50163
G1 X19.241 Y-5.647 E0.51784
G1 X19.75 Y-4.163 E0.54393
G1 X20.034 Y-3.065 E0.56279
G1 X20.152 Y-2.533 E0.57185
G1 X20.308 Y-1.699 E0.58596
G1 X20.41 Y-1.022 E0.59735
G1 X20.493 Y-.307 E0.60932
G1 X20.538 Y0.248 E0.61858
G1 X20.576 Y0.989 E0.63092
G1 X20.587 Y1.556 E0.64035
G1 X20.569 Y2.67 E0.65888
G1 X20.491 Y3.677 E0.67567
G1 X20.371 Y4.655 E0.69206
G1 X20.289 Y5.167 E0.70068
G1 X20.053 Y6.349 E0.72073
G1 X19.762 Y7.453 E0.73972
G1 X19.457 Y8.424 E0.75664
G1 X19.256 Y8.962 E0.76619
G1 X18.685 Y10.336 E0.79094
G1 X18.362 Y10.99 E0.80307
G1 X17.881 Y11.879 E0.81988
G1 X17.367 Y12.738 E0.83652
G1 X16.809 Y13.56 E0.85305
G1 X16.063 Y14.564 E0.87385
G1 X15.433 Y15.312 E0.89011
G1 X14.71 Y16.083 E0.90769
G1 X14.2 Y16.581 E0.91954
G1 X13.211 Y17.467 E0.94162
G1 X12.131 Y18.317 E0.96448
G1 X11.51 Y18.752 E0.97709
G1 X10.87 Y19.163 E0.98974
G1 X10.136 Y19.599 E1.00393
G1 X9.495 Y19.948 E1.01607
G1 X8.98 Y20.204 E1.02564
G1 X8.228 Y20.549 E1.0394
G1 X7.583 Y20.818 E1.05102
G1 X6.895 Y21.077 E1.06324
G1 X6.391 Y21.247 E1.07209
G1 X5.46 Y21.529 E1.08827
G1 X4.679 Y21.732 E1.10169
G1 X3.459 Y21.978 E1.12238
G1 X2.736 Y22.094 E1.13456
G1 X1.668 Y22.196 E1.1524
G1 X0.705 Y22.253 E1.16844
G1 X0.18 Y22.265 E1.17718
G1 X-.515 Y22.258 E1.18874
G1 X-1.791 Y22.203 E1.20998
G1 X-2.534 Y22.117 E1.22241
G1 X-3.055 Y22.04 E1.23117
G1 X-4.128 Y21.846 E1.24931
G1 X-4.844 Y21.689 E1.2615
G1 X-5.381 Y21.55 E1.27072
G1 X-5.937 Y21.391 E1.28034
G1 X-7.027 Y21.036 E1.2994
G1 X-8.13 Y20.592 E1.31917
G1 X-8.791 Y20.295 E1.33123
G1 X-9.34 Y20.027 E1.34139
G1 X-9.859 Y19.753 E1.35115
G1 X-10.721 Y19.255 E1.3677
G1 X-11.853 Y18.512 E1.39022
G1 X-12.871 Y17.746 E1.41141
G1 X-13.399 Y17.308 E1.42281
G1 X-13.887 Y16.874 E1.43367
G1 X-14.438 Y16.353 E1.44629
G1 X-14.878 Y15.906 E1.45672
G1 X-15.619 Y15.091 E1.47503
G1 X-16.489 Y14.012 E1.49808
G1 X-17.116 Y13.114 E1.5163
G1 X-17.674 Y12.247 E1.53344
G1 X-18.05 Y11.582 E1.54615
G1 X-18.476 Y10.753 E1.56165
G1 X-18.883 Y9.879 E1.57768
G1 X-19.252 Y8.973 E1.59395
G1 X-19.572 Y8.063 E1.60999
G1 X-19.724 Y7.575 E1.61849
G1 X-20.015 Y6.512 E1.63682
G1 X-20.331 Y4.968 E1.66303
G1 X-20.513 Y3.494 E1.68773
G1 X-20.563 Y2.699 E1.70098
G1 X-20.587 Y1.91 E1.7141
G1 X-20.585 Y1.308 E1.72411
G1 X-20.562 Y0.652 E1.73503
G1 X-20.508 Y-.144 E1.7483
G1 X-20.454 Y-.673 E1.75714
G1 X-20.287 Y-1.873 E1.77729
G1 X-20.075 Y-2.888 E1.79453
G1 X-19.934 Y-3.466 E1.80443
G1 X-19.701 Y-4.301 E1.81884
G1 X-19.538 Y-4.81 E1.82773
G1 X-19.188 Y-5.79 E1.84504
G1 X-18.757 Y-6.81 E1.86345
G1 X-18.335 Y-7.699 E1.87982
G1 X-18.101 Y-8.143 E1.88816
G1 X-17.539 Y-9.107 E1.90672
G1 X-16.978 Y-9.97 E1.92384
G1 X-16.644 Y-10.442 E1.93345
G1 X-16.294 Y-10.908 E1.94315
G1 X-15.704 Y-11.636 E1.95873
G1 X-15.294 Y-12.106 E1.9691
G1 X-14.904 Y-12.525 E1.97862
G1 X-14.31 Y-13.12 E1.9926
G1 X-13.78 Y-13.617 E2.00469
G1 X-13.268 Y-14.064 E2.01599
G1 X-12.851 Y-14.406 E2.02496
G1 X-11.935 Y-15.105 E2.04412
G1 X-10.649 Y-15.943 E2.06965
G1 X-9.822 Y-16.414 E2.08547
G1 X-8.999 Y-16.848 E2.10095
G1 X-7.893 Y-17.335 E2.12104
G1 X-7.237 Y-17.595 E2.13278
G1 X-6.672 Y-17.798 E2.14276
G1 X-5.923 Y-18.039 E2.15585
G1 X-5.32 Y-18.211 E2.16627
G1 X-4.797 Y-18.343 E2.17525
G1 F2700 E-4.32475
G0 F3000 X0.123 Y-7.635
G1 F2700 E2.17525
G1 F2100 X0.094 Y-7.636 E2.17573
G1 X-1.199 Y-7.558 E2.19727
G1 X-1.227 Y-7.554 E2.19774
G1 X-2.302 Y-7.333 E2.21599
G1 X-2.321 Y-7.328 E2.21632
G1 X-3.37 Y-7.005 E2.23457
G1 X-3.397 Y-6.995 E2.23505
G1 X-4.374 Y-6.53 E2.25304
G1 X-4.391 Y-6.521 E2.25336
G1 X-5.143 Y-6.072 E2.26793
G1 X-5.159 Y-6.061 E2.26825
G1 X-5.869 Y-5.538 E2.28292
G1 X-5.884 Y-5.526 E2.28324
G1 X-6.53 Y-4.945 E2.29769
G1 X-6.543 Y-4.932 E2.29799
G1 X-7.131 Y-4.294 E2.31242
G1 X-7.143 Y-4.279 E2.31274
G1 X-7.668 Y-3.586 E2.3272
G1 X-7.679 Y-3.57 E2.32752
G1 X-8.258 Y-2.63 E2.34588
G1 X-8.272 Y-2.604 E2.34637
G1 X-8.699 Y-1.614 E2.3643
G1 X-8.705 Y-1.596 E2.36462
G1 X-8.978 Y-.751 E2.37938
G1 X-8.983 Y-.733 E2.37969
G1 X-9.214 Y0.328 E2.39775
G1 X-9.218 Y0.356 E2.39822
G1 X-9.299 Y1.448 E2.41643
G1 X-9.3 Y1.468 E2.41677
G1 X-9.276 Y2.341 E2.43129
G1 X-9.275 Y2.36 E2.43161
G1 X-9.171 Y3.215 E2.44593
G1 X-9.167 Y3.233 E2.44624
G1 X-8.981 Y4.09 E2.46082
G1 X-8.976 Y4.109 E2.46115
G1 X-8.643 Y5.144 E2.47923
G1 X-8.633 Y5.171 E2.47971
G1 X-8.152 Y6.155 E2.49792
G1 X-8.142 Y6.172 E2.49825
G1 X-7.686 Y6.914 E2.51273
G1 X-7.676 Y6.929 E2.51303
G1 X-7.017 Y7.802 E2.53122
G1 X-6.997 Y7.824 E2.53172
G1 X-6.217 Y8.593 E2.54993
G1 X-6.203 Y8.606 E2.55025
G1 X-5.525 Y9.159 E2.5648
G1 X-5.51 Y9.17 E2.56511
G1 X-4.787 Y9.652 E2.57956
G1 X-4.771 Y9.662 E2.57987
G1 X-4.012 Y10.069 E2.5942
G1 X-3.994 Y10.078 E2.59453
G1 X-3.179 Y10.419 E2.60922
G1 X-3.161 Y10.425 E2.60954
G1 X-2.325 Y10.684 E2.62409
G1 X-2.306 Y10.689 E2.62442
G1 X-1.243 Y10.908 E2.64247
G1 X-1.215 Y10.912 E2.64294
G1 X-.132 Y10.978 E2.66098
G1 X-.113 Y10.978 E2.6613
G1 X0.769 Y10.947 E2.67598
G1 X0.788 Y10.945 E2.67629
G1 X1.861 Y10.802 E2.6943
G1 X1.889 Y10.797 E2.69477
G1 X2.948 Y10.499 E2.71306
G1 X2.966 Y10.492 E2.71338
G1 X3.779 Y10.176 E2.72789
G1 X3.797 Y10.169 E2.72821
G1 X4.765 Y9.68 E2.74625
G1 X4.79 Y9.665 E2.74673
G1 X5.688 Y9.036 E2.76496
G1 X5.703 Y9.024 E2.76528
G1 X6.534 Y8.317 E2.78343
G1 X6.555 Y8.297 E2.78391
G1 X7.273 Y7.475 E2.80206
G1 X7.284 Y7.46 E2.80237
G1 X7.799 Y6.745 E2.81702
G1 X7.81 Y6.729 E2.81735
G1 X8.245 Y5.985 E2.83168
G1 X8.254 Y5.968 E2.832
G1 X8.622 Y5.168 E2.84664
G1 X8.629 Y5.15 E2.84696
G1 X8.916 Y4.328 E2.86144
G1 X8.921 Y4.31 E2.86175
G1 X9.129 Y3.46 E2.87631
G1 X9.133 Y3.441 E2.87663
G1 X9.256 Y2.591 E2.89091
G1 X9.258 Y2.572 E2.89123
G1 X9.3 Y1.691 E2.9059
G1 X9.3 Y1.671 E2.90623
G1 X9.247 Y0.585 E2.92431
G1 X9.243 Y0.557 E2.92478
G1 X8.997 Y-.731 E2.94659
G1 X8.99 Y-.759 E2.94707
G1 X8.631 Y-1.788 E2.96519
G1 X8.624 Y-1.806 E2.96551
G1 X8.259 Y-2.599 E2.98003
G1 X8.25 Y-2.615 E2.98034
G1 X7.806 Y-3.379 E2.99503
G1 X7.795 Y-3.396 E2.99537
G1 X7.292 Y-4.096 E3.0097
G1 X7.281 Y-4.111 E3.01001
G1 X6.564 Y-4.931 E3.02813
G1 X6.543 Y-4.951 E3.02861
G1 X5.703 Y-5.669 E3.04699
G1 X5.688 Y-5.681 E3.04731
G1 X4.974 Y-6.181 E3.0618
G1 X4.958 Y-6.191 E3.06212
G1 X4.208 Y-6.618 E3.07647
G1 X4.19 Y-6.627 E3.0768
G1 X3.392 Y-6.982 E3.09133
G1 X3.375 Y-6.989 E3.09163
G1 X2.339 Y-7.337 E3.10981
G1 X2.311 Y-7.344 E3.11029
G1 X1.241 Y-7.54 E3.12838
G1 X1.222 Y-7.542 E3.1287
G1 X0.123 Y-7.635 E3.14704
G0 F3000 X0.157 Y-8.034
G1 F2100 X0.07 Y-8.035 E3.14849
G1 X-1.223 Y-7.957 E3.17003
G1 X-1.308 Y-7.946 E3.17145
G1 X-2.383 Y-7.725 E3.1897
G1 X-2.439 Y-7.71 E3.19067
G1 X-3.488 Y-7.387 E3.20892
G1 X-3.569 Y-7.356 E3.21036
G1 X-4.546 Y-6.891 E3.22836
G1 X-4.596 Y-6.864 E3.2293
G1 X-5.348 Y-6.415 E3.24387
G1 X-5.396 Y-6.383 E3.24483
G1 X-6.106 Y-5.86 E3.25949
G1 X-6.151 Y-5.823 E3.26046
G1 X-6.797 Y-5.242 E3.27491
G1 X-6.837 Y-5.203 E3.27584
G1 X-7.425 Y-4.565 E3.29027
G1 X-7.462 Y-4.52 E3.29124
G1 X-7.987 Y-3.827 E3.30569
G1 X-8.02 Y-3.78 E3.30665
G1 X-8.599 Y-2.84 E3.32501
G1 X-8.639 Y-2.763 E3.32645
G1 X-9.066 Y-1.773 E3.34438
G1 X-9.086 Y-1.719 E3.34534
G1 X-9.359 Y-.874 E3.36011
G1 X-9.374 Y-.818 E3.36107
G1 X-9.605 Y0.243 E3.37913
G1 X-9.617 Y0.327 E3.38054
G1 X-9.698 Y1.419 E3.39875
G1 X-9.7 Y1.479 E3.39975
G1 X-9.676 Y2.352 E3.41427
G1 X-9.672 Y2.408 E3.41521
G1 X-9.568 Y3.263 E3.42953
G1 X-9.558 Y3.318 E3.43046
G1 X-9.372 Y4.175 E3.44504
G1 X-9.357 Y4.232 E3.44602
G1 X-9.024 Y5.267 E3.4641
G1 X-8.992 Y5.346 E3.46552
G1 X-8.511 Y6.33 E3.48374
G1 X-8.483 Y6.381 E3.4847
G1 X-8.027 Y7.123 E3.49919
G1 X-7.995 Y7.17 E3.50013
G1 X-7.336 Y8.043 E3.51832
G1 X-7.278 Y8.109 E3.51978
G1 X-6.498 Y8.878 E3.538
G1 X-6.456 Y8.916 E3.53894
G1 X-5.778 Y9.469 E3.55349
G1 X-5.732 Y9.503 E3.55444
G1 X-5.009 Y9.985 E3.56889
G1 X-4.96 Y10.015 E3.56985
G1 X-4.201 Y10.422 E3.58417
G1 X-4.149 Y10.447 E3.58513
G1 X-3.334 Y10.788 E3.59982
G1 X-3.28 Y10.807 E3.60077
G1 X-2.444 Y11.066 E3.61533
G1 X-2.387 Y11.081 E3.61631
G1 X-1.324 Y11.3 E3.63436
G1 X-1.239 Y11.311 E3.63578
G1 X-.156 Y11.377 E3.65383
G1 X-0.099 Y11.378 E3.65478
G1 X0.783 Y11.347 E3.66945
G1 X0.841 Y11.342 E3.67042
G1 X1.914 Y11.199 E3.68842
G1 X1.998 Y11.182 E3.68985
G1 X3.057 Y10.884 E3.70814
G1 X3.111 Y10.865 E3.70909
G1 X3.924 Y10.549 E3.7236
G1 X3.978 Y10.526 E3.72458
G1 X4.946 Y10.037 E3.74261
G1 X5.019 Y9.992 E3.74404
G1 X5.917 Y9.363 E3.76227
G1 X5.962 Y9.329 E3.76321
G1 X6.793 Y8.622 E3.78135
G1 X6.856 Y8.56 E3.78282
G1 X7.574 Y7.738 E3.80097
G1 X7.609 Y7.694 E3.80191
G1 X8.124 Y6.979 E3.81656
G1 X8.155 Y6.931 E3.81751
G1 X8.59 Y6.187 E3.83184
G1 X8.617 Y6.135 E3.83282
G1 X8.985 Y5.335 E3.84746
G1 X9.006 Y5.282 E3.84841
G1 X9.293 Y4.46 E3.86289
G1 X9.31 Y4.405 E3.86385
G1 X9.518 Y3.555 E3.8784
G1 X9.529 Y3.498 E3.87937
G1 X9.652 Y2.648 E3.89365
G1 X9.657 Y2.591 E3.8946
G1 X9.699 Y1.71 E3.90927
G1 X9.699 Y1.652 E3.91023
G1 X9.646 Y0.566 E3.92831
G1 X9.636 Y0.482 E3.92972
G1 X9.39 Y-.806 E3.95153
G1 X9.368 Y-.891 E3.95299
G1 X9.009 Y-1.92 E3.97111
G1 X8.987 Y-1.973 E3.97207
G1 X8.622 Y-2.766 E3.98658
G1 X8.596 Y-2.816 E3.98752
G1 X8.152 Y-3.58 E4.00222
G1 X8.12 Y-3.629 E4.00319
G1 X7.617 Y-4.329 E4.01752
G1 X7.582 Y-4.374 E4.01847
G1 X6.865 Y-5.194 E4.03659
G1 X6.803 Y-5.255 E4.03803
G1 X5.963 Y-5.973 E4.05641
G1 X5.917 Y-6.008 E4.05737
G1 X5.203 Y-6.508 E4.07187
G1 X5.156 Y-6.538 E4.07279
G1 X4.406 Y-6.965 E4.08715
G1 X4.353 Y-6.992 E4.08814
G1 X3.555 Y-7.347 E4.10266
G1 X3.502 Y-7.368 E4.10361
G1 X2.466 Y-7.716 E4.12178
G1 X2.383 Y-7.737 E4.12321
G1 X1.313 Y-7.933 E4.1413
G1 X1.256 Y-7.941 E4.14225
G1 X0.157 Y-8.034 E4.1606
G0 F3000 X0.19 Y-8.432
G1 F2100 X0.046 Y-8.434 E4.16299
G1 X-1.247 Y-8.356 E4.18453
G1 X-1.388 Y-8.338 E4.1869
G1 X-2.463 Y-8.117 E4.20515
G1 X-2.556 Y-8.093 E4.20675
G1 X-3.605 Y-7.77 E4.225
G1 X-3.741 Y-7.717 E4.22743
G1 X-4.718 Y-7.252 E4.24542
G1 X-4.801 Y-7.208 E4.24698
G1 X-5.553 Y-6.759 E4.26155
G1 X-5.633 Y-6.705 E4.26315
G1 X-6.343 Y-6.182 E4.27782
G1 X-6.419 Y-6.121 E4.27944
G1 X-7.065 Y-5.54 E4.29389
G1 X-7.131 Y-5.474 E4.29544
G1 X-7.719 Y-4.836 E4.30987
G1 X-7.781 Y-4.762 E4.31147
G1 X-8.306 Y-4.069 E4.32593
G1 X-8.36 Y-3.989 E4.32754
G1 X-8.939 Y-3.049 E4.3459
G1 X-9.006 Y-2.921 E4.3483
G1 X-9.433 Y-1.931 E4.36623
G1 X-9.467 Y-1.842 E4.36781
G1 X-9.74 Y-.997 E4.38258
G1 X-9.765 Y-.903 E4.3842
G1 X-9.996 Y0.158 E4.40226
G1 X-10.016 Y0.297 E4.40459
G1 X-10.097 Y1.389 E4.4228
G1 X-10.1 Y1.49 E4.42448
G1 X-10.076 Y2.363 E4.43901
G1 X-10.069 Y2.457 E4.44057
G1 X-9.965 Y3.312 E4.4549
G1 X-9.949 Y3.403 E4.45643
G1 X-9.763 Y4.26 E4.47102
G1 X-9.738 Y4.354 E4.47263
G1 X-9.405 Y5.389 E4.49072
G1 X-9.351 Y5.522 E4.4931
G1 X-8.87 Y6.506 E4.51132
G1 X-8.824 Y6.591 E4.51292
G1 X-8.368 Y7.333 E4.52741
G1 X-8.314 Y7.411 E4.52899
G1 X-7.655 Y8.284 E4.54718
G1 X-7.559 Y8.394 E4.5496
G1 X-6.779 Y9.163 E4.56782
G1 X-6.709 Y9.226 E4.56939
G1 X-6.031 Y9.779 E4.58394
G1 X-5.954 Y9.836 E4.58553
G1 X-5.231 Y10.318 E4.59998
G1 X-5.149 Y10.367 E4.60157
G1 X-4.39 Y10.774 E4.61589
G1 X-4.303 Y10.816 E4.6175
G1 X-3.488 Y11.157 E4.63219
G1 X-3.398 Y11.189 E4.63378
G1 X-2.562 Y11.448 E4.64833
G1 X-2.468 Y11.472 E4.64995
G1 X-1.405 Y11.691 E4.66799
G1 X-1.264 Y11.71 E4.67036
G1 X-.181 Y11.776 E4.6884
G1 X-0.085 Y11.777 E4.69
G1 X0.797 Y11.746 E4.70468
G1 X0.894 Y11.738 E4.7063
G1 X1.967 Y11.595 E4.7243
G1 X2.106 Y11.567 E4.72666
G1 X3.165 Y11.269 E4.74495
G1 X3.256 Y11.238 E4.74655
G1 X4.069 Y10.922 E4.76106
G1 X4.158 Y10.883 E4.76267
G1 X5.126 Y10.394 E4.78071
G1 X5.249 Y10.32 E4.78309
G1 X6.147 Y9.691 E4.80133
G1 X6.221 Y9.634 E4.80288
G1 X7.052 Y8.927 E4.82102
G1 X7.157 Y8.823 E4.82348
G1 X7.875 Y8.001 E4.84163
G1 X7.933 Y7.927 E4.8432
G1 X8.448 Y7.212 E4.85785
G1 X8.5 Y7.133 E4.85942
G1 X8.935 Y6.389 E4.87376
G1 X8.98 Y6.302 E4.87538
G1 X9.348 Y5.502 E4.89003
G1 X9.384 Y5.414 E4.89161
G1 X9.671 Y4.592 E4.90609
G1 X9.698 Y4.5 E4.90768
G1 X9.906 Y3.65 E4.92224
G1 X9.925 Y3.555 E4.92385
G1 X10.048 Y2.705 E4.93813
G1 X10.057 Y2.61 E4.93972
G1 X10.099 Y1.729 E4.95438
G1 X10.099 Y1.632 E4.956
G1 X10.046 Y0.546 E4.97408
G1 X10.029 Y0.407 E4.97641
G1 X9.783 Y-.881 E4.99821
G1 X9.745 Y-1.022 E5.00064
G1 X9.386 Y-2.051 E5.01877
G1 X9.35 Y-2.14 E5.02036
G1 X8.985 Y-2.933 E5.03488
G1 X8.942 Y-3.017 E5.03645
G1 X8.498 Y-3.781 E5.05115
G1 X8.445 Y-3.863 E5.05277
G1 X7.942 Y-4.563 E5.0671
G1 X7.883 Y-4.637 E5.06868
G1 X7.166 Y-5.457 E5.08679
G1 X7.063 Y-5.559 E5.0892
G1 X6.223 Y-6.277 E5.10758
G1 X6.147 Y-6.336 E5.10918
G1 X5.433 Y-6.836 E5.12368
G1 X5.354 Y-6.886 E5.12523
G1 X4.604 Y-7.313 E5.13958
G1 X4.515 Y-7.358 E5.14124
G1 X3.717 Y-7.713 E5.15577
G1 X3.629 Y-7.747 E5.15734
G1 X2.593 Y-8.095 E5.17551
G1 X2.455 Y-8.131 E5.17788
G1 X1.385 Y-8.327 E5.19597
G1 X1.289 Y-8.339 E5.19758
G1 X0.19 Y-8.432 E5.21592
G0 F3000 X0.224 Y-8.831
G1 F2100 X0.022 Y-8.833 E5.21928
G1 X-1.271 Y-8.755 E5.24082
G1 X-1.469 Y-8.729 E5.24415
G1 X-2.544 Y-8.508 E5.2624
G1 X-2.674 Y-8.475 E5.26463
G1 X-3.723 Y-8.152 E5.28288
G1 X-3.913 Y-8.078 E5.28627
G1 X-4.89 Y-7.613 E5.30426
G1 X-5.006 Y-7.551 E5.30645
G1 X-5.758 Y-7.102 E5.32102
G1 X-5.87 Y-7.027 E5.32326
G1 X-6.58 Y-6.504 E5.33792
G1 X-6.686 Y-6.418 E5.34019
G1 X-7.332 Y-5.837 E5.35464
G1 X-7.425 Y-5.745 E5.35682
G1 X-8.013 Y-5.107 E5.37125
G1 X-8.1 Y-5.003 E5.3735
G1 X-8.625 Y-4.31 E5.38796
G1 X-8.701 Y-4.199 E5.3902
G1 X-9.28 Y-3.259 E5.40856
G1 X-9.374 Y-3.079 E5.41193
G1 X-9.801 Y-2.089 E5.42986
G1 X-9.847 Y-1.965 E5.43206
G1 X-10.12 Y-1.12 E5.44683
G1 X-10.156 Y-.988 E5.44911
G1 X-10.387 Y0.073 E5.46716
G1 X-10.415 Y0.267 E5.47042
G1 X-10.496 Y1.359 E5.48863
G1 X-10.499 Y1.501 E5.491
G1 X-10.475 Y2.374 E5.50552
G1 X-10.466 Y2.505 E5.5077
G1 X-10.362 Y3.36 E5.52203
G1 X-10.34 Y3.488 E5.52419
G1 X-10.154 Y4.345 E5.53877
G1 X-10.119 Y4.477 E5.54104
G1 X-9.786 Y5.512 E5.55912
G1 X-9.711 Y5.698 E5.56246
G1 X-9.23 Y6.682 E5.58067
G1 X-9.165 Y6.8 E5.58291
G1 X-8.709 Y7.542 E5.5974
G1 X-8.633 Y7.652 E5.59962
G1 X-7.974 Y8.525 E5.61781
G1 X-7.84 Y8.679 E5.6212
G1 X-7.06 Y9.448 E5.63942
G1 X-6.962 Y9.536 E5.64161
G1 X-6.284 Y10.089 E5.65616
G1 X-6.176 Y10.169 E5.6584
G1 X-5.453 Y10.651 E5.67285
G1 X-5.338 Y10.72 E5.67508
G1 X-4.579 Y11.127 E5.6894
G1 X-4.457 Y11.185 E5.69165
G1 X-3.642 Y11.526 E5.70634
G1 X-3.516 Y11.571 E5.70856
G1 X-2.68 Y11.83 E5.72312
G1 X-2.548 Y11.864 E5.72538
G1 X-1.485 Y12.083 E5.74343
G1 X-1.288 Y12.109 E5.74674
G1 X-.205 Y12.175 E5.76478
G1 X-0.071 Y12.177 E5.76701
G1 X0.811 Y12.146 E5.78169
G1 X0.947 Y12.135 E5.78396
G1 X2.02 Y11.992 E5.80196
G1 X2.214 Y11.952 E5.80525
G1 X3.273 Y11.654 E5.82355
G1 X3.401 Y11.611 E5.82579
G1 X4.214 Y11.295 E5.8403
G1 X4.338 Y11.24 E5.84255
G1 X5.306 Y10.751 E5.86059
G1 X5.478 Y10.648 E5.86392
