;FLAVOR:Marlin
;TIME:2369
;Filament used: 3.76335m
;Layer height: 0.2
;MINX:-37.95
;MINY:-10.25
;MINZ:0.1
;MAXX:37.501
;MAXY:10.25
;MAXZ:14.9
;TARGET_MACHINE.NAME:Unknown
;Generated with Cura_SteamEngine 5.7.0
M82 ;absolute extrusion mode
G21 ; millimeter units
G90 ; absolute coordinates
M82 ; E absolute
M140 S60.0
M104 S250.0
M190 S60.0
M109 S240.0
G28 ; home axis
M420 S1 ; enable mesh leveling
; Lower nozzle and move to start position
G1 Z150
G1 X-130 Y0 Z0.4 F3000
; Extrude about 40 mm by printing a 90 degree arc
G3 X0 Y-130 I130 Z0.3 E40 F2700
; Retract and move nozzle up
G92 E0
G1 E-1.5 F1800
G0 Z0.5
G1 E0 F300

G92 E0
G92 E0
G1 F2700 E-6.5
;LAYER_COUNT:75
;LAYER:0
M107
G1 F3000 Z0.7
G0 X1.057 Y-7.896 Z0.7
;TYPE:SKIRT
G1 F3000 Z0.1
G1 F2700 E0
G1 F2100 X-1.617 Y-8.574 E0.04588
G1 X-4.229 Y-9.315 E0.09103
G1 X-5.682 Y-9.774 E0.11637
G1 X-7.017 Y-10.181 E0.13958
G1 X-7.638 Y-10.239 E0.14995
G1 X-8.343 Y-10.249 E0.16168
G1 X-34.71 Y-10.25 E0.60016
G1 X-35.17 Y-10.212 E0.60784
G1 X-35.664 Y-10.105 E0.61624
G1 X-36.135 Y-9.922 E0.62465
G1 X-36.571 Y-9.666 E0.63305
G1 X-36.962 Y-9.345 E0.64147
G1 X-37.297 Y-8.967 E0.64987
G1 X-37.568 Y-8.54 E0.65828
G1 X-37.769 Y-8.076 E0.66669
G1 X-37.894 Y-7.586 E0.6751
G1 X-37.941 Y-7.083 E0.6835
G1 X-37.95 Y-6.394 E0.69496
G1 X-37.949 Y6.795 E0.91429
G1 X-37.913 Y7.465 E0.92545
G1 X-37.806 Y7.959 E0.93385
G1 X-37.623 Y8.43 E0.94226
G1 X-37.368 Y8.867 E0.95067
G1 X-37.048 Y9.258 E0.95907
G1 X-36.67 Y9.593 E0.96747
G1 X-36.244 Y9.865 E0.97588
G1 X-35.78 Y10.067 E0.98429
G1 X-35.29 Y10.193 E0.99271
G1 X-34.787 Y10.24 E1.00111
G1 X-34.089 Y10.25 E1.01272
G1 X33.084 Y10.25 E2.12981
G1 X33.817 Y10.24 E2.142
G1 X34.45 Y10.168 E2.1526
G1 X35.122 Y9.965 E2.16427
G1 X35.853 Y9.587 E2.17796
G1 X36.252 Y9.276 E2.18637
G1 X36.596 Y8.905 E2.19478
G1 X36.92 Y8.472 E2.20378
G1 X37.158 Y8.026 E2.21218
G1 X37.324 Y7.549 E2.22058
G1 X37.444 Y7.043 E2.22923
G1 X37.491 Y6.54 E2.23763
G1 X37.501 Y5.792 E2.25007
G1 X37.5 Y0.071 E2.34521
G1 X37.491 Y-.669 E2.35752
G1 X37.401 Y-1.38 E2.36944
G1 X37.157 Y-2.257 E2.38458
G1 X36.933 Y-2.711 E2.393
G1 X36.654 Y-3.18 E2.40207
G1 X36.196 Y-3.777 E2.41458
G1 X35.816 Y-4.11 E2.42299
G1 X35.235 Y-4.543 E2.43504
G1 X34.521 Y-4.902 E2.44833
G1 X33.646 Y-5.165 E2.46352
G1 X32.937 Y-5.24 E2.47538
G1 X32.23 Y-5.25 E2.48714
G1 X23.533 Y-5.25 E2.63177
G1 X20.02 Y-5.314 E2.6902
G1 X17.268 Y-5.453 E2.73602
G1 X14.559 Y-5.667 E2.78122
G1 X11.822 Y-5.961 E2.82699
G1 X9.095 Y-6.333 E2.87276
G1 X6.402 Y-6.778 E2.91816
G1 X3.748 Y-7.293 E2.96312
G1 X1.057 Y-7.896 E3.00898
G1 F2700 E-3.49102
;MESH:?????? ????????????????????.stl
G0 F3000 X1.055 Y-1.631
G0 X-5.876 Y0.552
;TYPE:WALL-INNER
G1 F2700 E3.00898
G1 F2100 X-6.524 Y0.47 E3.01984
G1 X-7.278 Y0.252 E3.03289
G1 X-7.922 Y-0.09 E3.04502
G1 X-8.392 Y-.413 E3.0545
G1 X-9.076 Y-1.185 E3.07165
G1 X-9.278 Y-1.508 E3.07799
G1 X-9.549 Y-2.122 E3.08915
G1 X-9.734 Y-2.734 E3.09978
G1 X-9.796 Y-3.36 E3.11024
G1 X-9.798 Y-4.448 E3.12834
G1 X-32.148 Y-4.448 E3.50002
G1 X-32.148 Y4.448 E3.64796
G1 X31.7 Y4.448 E4.70976
G1 X31.7 Y0.552 E4.77455
G1 X-5.876 Y0.552 E5.39944
G0 F3000 X-6.424 Y0.083
G1 F2100 X-7.127 Y-.118 E5.4116
G1 X-7.724 Y-.437 E5.42286
G1 X-8.122 Y-.711 E5.43089
G1 X-8.759 Y-1.432 E5.44689
G1 X-8.927 Y-1.701 E5.45217
G1 X-9.18 Y-2.275 E5.4626
G1 X-9.355 Y-2.939 E5.47402
G1 X-9.396 Y-3.361 E5.48107
G1 X-9.398 Y-4.848 E5.5058
G1 X-32.548 Y-4.848 E5.89078
G1 X-32.548 Y4.848 E6.05203
G1 X32.1 Y4.848 E7.12713
G1 X32.1 Y0.152 E7.20522
G1 X-5.876 Y0.152 E7.83677
G1 X-6.424 Y0.083 E7.84595
G0 F3000 X-6.976 Y-.489
G1 F2100 X-7.526 Y-.784 E7.85633
G1 X-7.852 Y-1.009 E7.86292
G1 X-8.438 Y-1.672 E7.87763
G1 X-8.577 Y-1.895 E7.882
G1 X-8.893 Y-2.618 E7.89513
G1 X-8.996 Y-3.361 E7.9076
G1 X-8.998 Y-5.248 E7.93898
G1 X-32.948 Y-5.248 E8.33727
G1 X-32.948 Y5.248 E8.51182
G1 X32.5 Y5.248 E9.60022
G1 X32.5 Y-.248 E9.69162
G1 X-5.876 Y-.248 E10.32982
G1 X-6.325 Y-.304 E10.33734
G1 X-6.976 Y-.489 E10.3486
G0 F3000 X-7.518 Y-1.236
G1 F2100 X-8.184 Y-1.988 E10.3653
G1 X-8.505 Y-2.729 E10.37873
G1 X-8.596 Y-3.362 E10.38937
G1 X-8.599 Y-5.648 E10.42738
G1 X-33.348 Y-5.648 E10.83896
G1 X-33.348 Y5.648 E11.02682
G1 X32.9 Y5.648 E12.12852
G1 X32.9 Y-.448 E12.2299
G1 X32.873 Y-.552 E12.23169
G1 X32.748 Y-.648 E12.23431
G1 X-5.876 Y-.648 E12.87663
G1 X-6.225 Y-.692 E12.88248
G1 X-6.825 Y-.859 E12.89284
G1 X-7.518 Y-1.236 E12.90596
G0 F3000 X-7.268 Y-1.555
G1 F2100 X-7.82 Y-2.19 E12.91995
G1 X-8.072 Y-2.736 E12.92995
G1 X-8.196 Y-3.362 E12.94056
G1 X-8.199 Y-6.048 E12.98523
G1 X-33.748 Y-6.048 E13.41011
G1 X-33.748 Y6.048 E13.61127
G1 X33.3 Y6.048 E14.72628
G1 X33.3 Y-.499 E14.83516
G1 X33.192 Y-.804 E14.84054
G1 X32.986 Y-.983 E14.84508
G1 X32.793 Y-1.048 E14.84846
G1 X-6.013 Y-1.048 E15.49381
G1 X-6.674 Y-1.23 E15.50521
G1 X-7.268 Y-1.555 E15.51647
G0 F3000 X-7.526 Y-2.458
G1 F2100 X-7.737 Y-3.004 E15.52621
G1 X-7.796 Y-3.363 E15.53226
G1 X-7.799 Y-6.448 E15.58356
G1 X-34.148 Y-6.448 E16.02175
G1 X-34.148 Y6.448 E16.23621
G1 X33.7 Y6.447 E17.36452
G1 X33.7 Y-.551 E17.4809
G1 X33.616 Y-.872 E17.48642
G1 X33.504 Y-1.063 E17.4901
G1 X33.198 Y-1.329 E17.49684
G1 X32.831 Y-1.448 E17.50326
G1 X-5.959 Y-1.448 E18.14834
G1 X-6.523 Y-1.6 E18.15805
G1 X-7.082 Y-1.95 E18.16902
G1 X-7.526 Y-2.458 E18.18024
G0 F3000 X-7.176 Y-2.667
;TYPE:WALL-OUTER
G1 F2100 X-7.345 Y-3.081 E18.18656
G1 X-7.393 Y-3.325 E18.19008
G1 X-7.4 Y-6.597 E18.23633
G1 X-7.58 Y-6.802 E18.24019
G1 X-7.717 Y-6.847 E18.24223
G1 X-34.548 Y-6.848 E18.6215
G1 X-34.548 Y6.848 E18.8151
G1 X33.846 Y6.847 E19.78188
G1 X34.045 Y6.675 E19.7856
G1 X34.1 Y6.469 E19.78862
G1 X34.1 Y-.602 E19.88857
G1 X33.989 Y-1.026 E19.89476
G1 X33.816 Y-1.322 E19.89961
G1 X33.41 Y-1.675 E19.90722
G1 X33.083 Y-1.807 E19.9122
G1 X32.869 Y-1.848 E19.91528
G1 X-5.926 Y-1.854 E20.46367
G1 X-6.372 Y-1.97 E20.47018
G1 X-6.759 Y-2.193 E20.4765
G1 X-7.176 Y-2.667 E20.48542
G0 F3000 X-7.251 Y-2.852
G0 X-7.898 Y-2.581
G0 X-9.365 Y-1.458
G0 X-9.586 Y-1.321
;TYPE:SKIN
G1 F2100 X-9.37 Y-.977 E20.49218
G1 X-8.654 Y-.167 E20.51016
G1 X-8.114 Y0.213 E20.52114
G1 X-7.426 Y0.577 E20.53408
G1 X-6.594 Y0.823 E20.54851
G1 X-5.898 Y0.911 E20.56018
G1 X31.34 Y0.912 E21.17945
G1 X31.34 Y4.088 E21.23226
G1 X-31.788 Y4.088 E22.28209
G1 X-31.788 Y-4.088 E22.41805
G1 X-10.156 Y-4.088 E22.77779
G1 X-10.156 Y-3.343 E22.79018
G1 X-10.08 Y-2.633 E22.80206
G1 X-9.888 Y-2.001 E22.81304
G1 X-9.586 Y-1.321 E22.82542
G1 F2700 E16.32542
G0 F3000 X-9.365 Y-1.458
G0 X-9.969 Y-4.276
G0 X-31.976 Y-4.276
G0 X-32.048 Y3.485
G0 X-31.588 Y3.485
G1 F2700 E22.82542
G1 F2100 X-31.185 Y3.888 E22.83489
G0 F3000 X-30.619 Y3.888
G1 F2100 X-31.588 Y2.919 E22.85768
G0 F3000 X-31.588 Y2.353
G1 F2100 X-30.053 Y3.888 E22.89378
G0 F3000 X-29.488 Y3.888
G1 F2100 X-31.588 Y1.788 E22.94317
G0 F3000 X-31.588 Y1.222
G1 F2100 X-28.922 Y3.888 E23.00587
G0 F3000 X-28.356 Y3.888
G1 F2100 X-31.588 Y0.656 E23.08189
G0 F3000 X-31.588 Y0.091
G1 F2100 X-27.791 Y3.888 E23.17119
G0 F3000 X-27.225 Y3.888
G1 F2100 X-31.588 Y-.475 E23.2738
G0 F3000 X-31.588 Y-1.041
G1 F2100 X-26.659 Y3.888 E23.38972
G0 F3000 X-26.094 Y3.888
G1 F2100 X-31.588 Y-1.607 E23.51894
G0 F3000 X-31.588 Y-2.172
G1 F2100 X-25.528 Y3.888 E23.66146
G0 F3000 X-24.962 Y3.888
G1 F2100 X-31.588 Y-2.738 E23.8173
G0 F3000 X-31.588 Y-3.304
G1 F2100 X-24.397 Y3.888 E23.98643
G0 F3000 X-23.831 Y3.888
G1 F2100 X-31.588 Y-3.869 E24.16886
G0 F3000 X-31.041 Y-3.888
G1 F2100 X-23.265 Y3.888 E24.35174
G0 F3000 X-22.7 Y3.888
G1 F2100 X-30.475 Y-3.888 E24.53461
G0 F3000 X-29.909 Y-3.888
G1 F2100 X-22.134 Y3.888 E24.71748
G0 F3000 X-21.568 Y3.888
G1 F2100 X-29.344 Y-3.888 E24.90036
G0 F3000 X-28.778 Y-3.888
G1 F2100 X-21.002 Y3.888 E25.08324
G0 F3000 X-20.437 Y3.888
G1 F2100 X-28.212 Y-3.888 E25.2661
G0 F3000 X-27.646 Y-3.888
G1 F2100 X-19.871 Y3.888 E25.44897
G0 F3000 X-19.305 Y3.888
G1 F2100 X-27.081 Y-3.888 E25.63185
G0 F3000 X-26.515 Y-3.888
G1 F2100 X-18.74 Y3.888 E25.81472
G0 F3000 X-18.174 Y3.888
G1 F2100 X-25.949 Y-3.888 E25.99759
G0 F3000 X-25.384 Y-3.888
G1 F2100 X-17.608 Y3.888 E26.18047
G0 F3000 X-17.043 Y3.888
G1 F2100 X-24.818 Y-3.888 E26.36334
G0 F3000 X-24.252 Y-3.888
G1 F2100 X-16.477 Y3.888 E26.5462
G0 F3000 X-15.911 Y3.888
G1 F2100 X-23.687 Y-3.888 E26.72908
G0 F3000 X-23.121 Y-3.888
G1 F2100 X-15.346 Y3.888 E26.91195
G0 F3000 X-14.78 Y3.888
G1 F2100 X-22.555 Y-3.888 E27.09482
G0 F3000 X-21.99 Y-3.888
G1 F2100 X-14.214 Y3.888 E27.2777
G0 F3000 X-13.649 Y3.888
G1 F2100 X-21.424 Y-3.888 E27.46057
G0 F3000 X-20.858 Y-3.888
G1 F2100 X-13.083 Y3.888 E27.64343
G0 F3000 X-12.517 Y3.888
G1 F2100 X-20.293 Y-3.888 E27.82631
G0 F3000 X-19.727 Y-3.888
G1 F2100 X-11.952 Y3.888 E28.00918
G0 F3000 X-11.386 Y3.888
G1 F2100 X-19.161 Y-3.888 E28.19205
G0 F3000 X-18.595 Y-3.888
G1 F2100 X-10.82 Y3.888 E28.37492
G0 F3000 X-10.254 Y3.888
G1 F2100 X-18.03 Y-3.888 E28.5578
G0 F3000 X-17.464 Y-3.888
G1 F2100 X-9.689 Y3.888 E28.74066
G0 F3000 X-9.123 Y3.888
G1 F2100 X-16.898 Y-3.888 E28.92353
G0 F3000 X-16.333 Y-3.888
G1 F2100 X-8.557 Y3.888 E29.10641
G0 F3000 X-7.992 Y3.888
G1 F2100 X-15.767 Y-3.888 E29.28928
G0 F3000 X-15.201 Y-3.888
G1 F2100 X-7.426 Y3.888 E29.47215
G0 F3000 X-6.86 Y3.888
G1 F2100 X-14.636 Y-3.888 E29.65503
G0 F3000 X-14.07 Y-3.888
G1 F2100 X-6.295 Y3.888 E29.83789
G0 F3000 X-5.729 Y3.888
G1 F2100 X-13.504 Y-3.888 E30.02076
G0 F3000 X-12.939 Y-3.888
G1 F2100 X-5.163 Y3.888 E30.20364
G0 F3000 X-4.598 Y3.888
G1 F2100 X-7.971 Y0.515 E30.28297
G1 X-8.041 Y0.445
G0 F3000 X-7.841 Y0.067
G0 X-6.878 Y0.472
G0 X-7.006 Y0.914
G1 F2100 X-4.032 Y3.888 E30.35291
G0 F3000 X-3.466 Y3.888
G1 F2100 X-6.294 Y1.06 E30.41942
G0 F3000 X-5.679 Y1.109
G1 F2100 X-2.901 Y3.888 E30.48477
G0 F3000 X-2.335 Y3.888
G1 F2100 X-5.113 Y1.109 E30.55012
G0 F3000 X-4.547 Y1.109
G1 F2100 X-1.769 Y3.888 E30.61546
G0 F3000 X-1.203 Y3.888
G1 F2100 X-3.982 Y1.109 E30.68082
G0 F3000 X-3.416 Y1.109
G1 F2100 X-.638 Y3.888 E30.74617
G0 F3000 X-0.072 Y3.888
G1 F2100 X-2.85 Y1.109 E30.81151
G0 F3000 X-2.285 Y1.109
G1 F2100 X0.494 Y3.888 E30.87687
G0 F3000 X1.059 Y3.888
G1 F2100 X-1.719 Y1.109 E30.94222
G0 F3000 X-1.153 Y1.109
G1 F2100 X1.625 Y3.888 E31.00756
G0 F3000 X2.191 Y3.888
G1 F2100 X-.588 Y1.109 E31.07292
G0 F3000 X-0.022 Y1.109
G1 F2100 X2.756 Y3.888 E31.13827
G0 F3000 X3.322 Y3.888
G1 F2100 X0.544 Y1.109 E31.20361
G0 F3000 X1.109 Y1.109
G1 F2100 X3.888 Y3.888 E31.26897
G0 F3000 X4.453 Y3.888
G1 F2100 X1.676 Y1.11 E31.33429
G0 F3000 X2.242 Y1.11
G1 F2100 X5.019 Y3.888 E31.39961
G0 F3000 X5.585 Y3.888
G1 F2100 X2.807 Y1.11 E31.46495
G0 F3000 X3.373 Y1.11
G1 F2100 X6.15 Y3.888 E31.53027
G0 F3000 X6.716 Y3.888
G1 F2100 X3.939 Y1.11 E31.59559
G0 F3000 X4.504 Y1.11
G1 F2100 X7.282 Y3.888 E31.66093
G0 F3000 X7.847 Y3.888
G1 F2100 X5.07 Y1.11 E31.72625
G0 F3000 X5.636 Y1.11
G1 F2100 X8.413 Y3.888 E31.79157
G0 F3000 X8.979 Y3.888
G1 F2100 X6.201 Y1.11 E31.85691
G0 F3000 X6.767 Y1.11
G1 F2100 X9.545 Y3.888 E31.92224
G0 F3000 X10.11 Y3.888
G1 F2100 X7.333 Y1.11 E31.98756
G0 F3000 X7.898 Y1.11
G1 F2100 X10.676 Y3.888 E32.0529
G0 F3000 X11.242 Y3.888
G1 F2100 X8.464 Y1.11 E32.11823
G0 F3000 X9.03 Y1.111
G1 F2100 X11.807 Y3.888 E32.18354
G0 F3000 X12.373 Y3.888
G1 F2100 X9.596 Y1.111 E32.24885
G0 F3000 X10.162 Y1.111
G1 F2100 X12.939 Y3.888 E32.31417
G0 F3000 X13.504 Y3.888
G1 F2100 X10.728 Y1.111 E32.37946
G0 F3000 X11.293 Y1.111
G1 F2100 X14.07 Y3.888 E32.44478
G0 F3000 X14.636 Y3.888
G1 F2100 X11.859 Y1.111 E32.51009
G0 F3000 X12.425 Y1.111
G1 F2100 X15.201 Y3.888 E32.57539
G0 F3000 X15.767 Y3.888
G1 F2100 X12.99 Y1.111 E32.6407
G0 F3000 X13.556 Y1.111
G1 F2100 X16.333 Y3.888 E32.70601
G0 F3000 X16.898 Y3.888
G1 F2100 X14.122 Y1.111 E32.77131
G0 F3000 X14.687 Y1.111
G1 F2100 X17.464 Y3.888 E32.83662
G0 F3000 X18.03 Y3.888
G1 F2100 X15.253 Y1.111 E32.90193
G0 F3000 X15.819 Y1.111
G1 F2100 X18.595 Y3.888 E32.96723
G0 F3000 X19.161 Y3.888
G1 F2100 X16.385 Y1.112 E33.03251
G0 F3000 X16.951 Y1.112
G1 F2100 X19.727 Y3.888 E33.0978
G0 F3000 X20.293 Y3.888
G1 F2100 X17.516 Y1.112 E33.1631
G0 F3000 X18.082 Y1.112
G1 F2100 X20.858 Y3.888 E33.22839
G0 F3000 X21.424 Y3.888
G1 F2100 X18.648 Y1.112 E33.29367
G0 F3000 X19.214 Y1.112
G1 F2100 X21.99 Y3.888 E33.35896
G0 F3000 X22.555 Y3.888
G1 F2100 X19.779 Y1.112 E33.42425
G0 F3000 X20.345 Y1.112
G1 F2100 X23.121 Y3.888 E33.48954
G0 F3000 X23.687 Y3.888
G1 F2100 X20.911 Y1.112 E33.55482
G0 F3000 X21.476 Y1.112
G1 F2100 X24.252 Y3.888 E33.62011
G0 F3000 X24.818 Y3.888
G1 F2100 X22.042 Y1.112 E33.6854
G0 F3000 X22.608 Y1.112
G1 F2100 X25.384 Y3.888 E33.75069
G0 F3000 X25.949 Y3.888
G1 F2100 X23.173 Y1.112 E33.81597
G0 F3000 X23.74 Y1.112
G1 F2100 X26.515 Y3.888 E33.88125
G0 F3000 X27.081 Y3.888
G1 F2100 X24.305 Y1.112 E33.94654
G0 F3000 X24.871 Y1.112
G1 F2100 X27.646 Y3.888 E34.01181
G0 F3000 X28.212 Y3.888
G1 F2100 X25.437 Y1.112 E34.07709
G0 F3000 X26.002 Y1.112
G1 F2100 X28.778 Y3.888 E34.14237
G0 F3000 X29.344 Y3.888
G1 F2100 X26.568 Y1.112 E34.20766
G0 F3000 X27.134 Y1.112
M104 S240
G1 F2100 X29.909 Y3.888 E34.27294
G0 F3000 X30.475 Y3.888
G1 F2100 X27.699 Y1.112 E34.33822
G0 F3000 X28.265 Y1.112
G1 F2100 X31.041 Y3.888 E34.40351
G0 F3000 X31.14 Y3.422
G1 F2100 X28.831 Y1.112 E34.45783
G0 F3000 X29.397 Y1.112
G1 F2100 X31.14 Y2.856 E34.49883
G0 F3000 X31.14 Y2.29
G1 F2100 X29.962 Y1.112 E34.52654
G0 F3000 X30.528 Y1.112
G1 F2100 X31.14 Y1.725 E34.54094
G1 X31.21 Y1.795
G1 F2700 E28.04094
G0 F3000 X31.6 Y1.795
G0 X31.528 Y0.724
G0 X19.896 Y0.746
G0 X-9.385 Y-1.505
G0 X-9.805 Y-1.32
G1 F2700 E34.54094
G1 F2100 X-12.373 Y-3.888 E34.60134
G0 F3000 X-11.807 Y-3.888
G1 F2100 X-10.173 Y-2.254 E34.63977
G0 F3000 X-10.318 Y-2.964
G1 F2100 X-11.242 Y-3.888 E34.6615
G0 F3000 X-10.676 Y-3.888
G1 F2100 X-10.355 Y-3.567 E34.66905
G0 F3000 X-9.596 Y-3.567
G1 F2700 E28.16905
;MESH:NONMESH
G0 F3000 X-9.596 Y-3.567 Z0.3
G0 X-5.884 Y0.4
;TIME_ELAPSED:68.012297
;LAYER:1
M106 S255
;TYPE:WALL-INNER
;MESH:?????? ????????????????????.stl
G1 F2700 E34.66905
G1 F2600 X-6.334 Y0.362 E34.68407
G1 X-6.883 Y0.226 E34.70288
G1 X-7.459 Y-0.004 E34.72351
G1 X-8.218 Y-.456 E34.75289
G1 X-8.923 Y-1.215 E34.78734
G1 X-9.305 Y-1.898 E34.81337
G1 X-9.44 Y-2.27 E34.82653
G1 X-9.648 Y-3.099 E34.85496
G1 X-9.648 Y-4.6 E34.90488
G1 X-32.148 Y-4.6 E35.65324
G1 X-32.148 Y4.6 E35.95923
G1 X31.848 Y4.6 E38.08775
G1 X31.848 Y0.4 E38.22744
G1 X-5.884 Y0.4 E39.48241
G0 F4000 X-6.093 Y0.00
G1 F2600 X-6.78 Y-.161 E39.50588
G1 X-7.268 Y-.355 E39.52335
G1 X-7.957 Y-.762 E39.54996
G1 X-8.532 Y-1.379 E39.57801
G1 X-8.907 Y-1.974 E39.60141
G1 X-9.055 Y-2.378 E39.61572
G1 X-9.248 Y-3.14 E39.64186
G1 X-9.248 Y-5 E39.70372
G1 X-32.548 Y-5 E40.47869
G1 X-32.548 Y5 E40.81129
G1 X32.248 Y5 E42.96641
G1 X32.248 Y0.00 E43.13271
G1 X-6.093 Y0.00 E44.40794
G0 F4000 X-6.678 Y-.548
G1 F2600 X-7.077 Y-.707 E44.42222
G1 X-7.695 Y-1.07 E44.44606
G1 X-8.214 Y-1.622 E44.47126
G1 X-8.626 Y-2.312 E44.49799
G1 X-8.848 Y-3.182 E44.52785
G1 X-8.848 Y-5.4 E44.60163
G1 X-32.948 Y-5.4 E45.4032
G1 X-32.948 Y5.4 E45.7624
G1 X32.648 Y5.4 E47.94414
G1 X32.645 Y-.4 E48.13705
G1 X-6.092 Y-.4 E49.42544
G1 X-6.678 Y-.548 E49.44555
G0 F4000 X-7.438 Y-1.379
G1 F2600 X-7.896 Y-1.865 E49.46776
G1 X-8.249 Y-2.456 E49.49065
G1 X-8.448 Y-3.22 E49.51691
G1 X-8.448 Y-5.8 E49.60272
G1 X-33.348 Y-5.8 E50.4309
G1 X-33.348 Y5.8 E50.81672
G1 X33.048 Y5.8 E53.02506
G1 X33.048 Y-.566 E53.23679
G1 X32.904 Y-.747 E53.24448
G1 X32.759 Y-.8 E53.24962
G1 X-6.02 Y-.8 E54.53941
G1 X-6.575 Y-.934 E54.5584
G1 X-6.886 Y-1.058 E54.56954
G1 X-7.438 Y-1.379 E54.59078
G0 F4000 X-7.137 Y-1.663
G1 F2600 X-7.579 Y-2.108 E54.61164
G1 X-7.874 Y-2.605 E54.63086
G1 X-8.048 Y-3.263 E54.6535
G1 X-8.048 Y-6.2 E54.75118
G1 X-33.748 Y-6.2 E55.60597
G1 X-33.748 Y6.2 E56.0184
G1 X33.448 Y6.2 E58.25334
G1 X33.448 Y-.429 E58.47382
G1 X33.416 Y-.683 E58.48234
G1 X33.294 Y-.923 E58.49129
G1 X33.082 Y-1.108 E58.50065
G1 X32.798 Y-1.2 E58.51058
G1 X-6.003 Y-1.2 E59.80111
G1 X-6.695 Y-1.409 E59.82515
G1 X-7.137 Y-1.663 E59.84211
G0 F4000 X-6.895 Y-1.982
G1 F2600 X-7.261 Y-2.351 E59.85939
G1 X-7.483 Y-2.724 E59.87383
G1 X-7.642 Y-3.284 E59.89319
