;FLAVOR:Marlin
;TIME:3102
;Filament used: 4.47689m
;Layer height: 0.2
;MINX:-59.524
;MINY:-95.622
;MINZ:0.1
;MAXX:93.494
;MAXY:75.854
;MAXZ:19.5
;TARGET_MACHINE.NAME:Unknown
;Generated with Cura_SteamEngine 5.7.0
M82 ;absolute extrusion mode
G21 ; millimeter units
G90 ; absolute coordinates
M82 ; E absolute
M140 S60.0
M104 S250.0
M190 S60.0
M109 S220.0
G28 ; home axis
M420 S1 ; enable mesh leveling
; Lower nozzle and move to start position
G1 Z150
G1 X-130 Y0 Z0.4 F3000
; Extrude about 40 mm by printing a 90 degree arc
G3 X0 Y-130 I130 Z0.3 E40 F2700
; Retract and move nozzle up
G92 E0
G1 E-1.5 F1800
G0 Z0.5
G1 E0 F300

G92 E0
G92 E0
G1 F2700 E-6.5
;LAYER_COUNT:50
;LAYER:0
M107
G1 F3000 Z0.7
G0 X44.851 Y60.528 Z0.7
;TYPE:SKIRT
G1 F3000 Z0.1
G1 F2700 E0
G1 F2100 X45.513 Y60.151 E0.01267
G1 X45.991 Y59.972 E0.02116
G1 X46.627 Y59.791 E0.03215
G1 X58.804 Y56.532 E0.24179
G1 X59.647 Y56.322 E0.25623
G1 X62.668 Y55.7 E0.30753
G1 X65.327 Y55.07 E0.35297
G1 X67.965 Y54.365 E0.39838
G1 X70.637 Y53.569 E0.44475
G1 X72.761 Y52.876 E0.4819
G1 X73.897 Y52.494 E0.50183
G1 X74.441 Y52.339 E0.51124
G1 X86.61 Y49.083 E0.72073
G1 X87.303 Y48.907 E0.73262
G1 X88.005 Y48.794 E0.74444
G1 X88.853 Y48.785 E0.75855
G1 X89.715 Y48.96 E0.77317
G1 X90.624 Y49.356 E0.78966
G1 X91.232 Y49.776 E0.80195
G1 X91.722 Y50.245 E0.81323
G1 X92.25 Y50.92 E0.82748
G1 X92.596 Y51.61 E0.84032
G1 X92.998 Y52.991 E0.86424
G1 X93.377 Y54.438 E0.88911
G1 X93.494 Y55.15 E0.90111
G1 X93.486 Y55.799 E0.91191
G1 X93.334 Y56.612 E0.92566
G1 X93.187 Y57.096 E0.93407
G1 X92.825 Y57.794 E0.94715
G1 X92.403 Y58.369 E0.95901
G1 X91.82 Y58.999 E0.97329
G1 X81.663 Y69.622 E1.2177
G1 X80.83 Y70.433 E1.23704
G1 X80.41 Y70.812 E1.24645
G1 X79.868 Y71.271 E1.25826
G1 X79.338 Y71.691 E1.2695
G1 X78.726 Y72.141 E1.28214
G1 X78.204 Y72.497 E1.29264
G1 X77.689 Y72.828 E1.30282
G1 X77.054 Y73.203 E1.31509
G1 X76.353 Y73.585 E1.32836
G1 X75.813 Y73.855 E1.33841
G1 X75.163 Y74.153 E1.3503
G1 X74.519 Y74.421 E1.3619
G1 X73.922 Y74.648 E1.37252
G1 X73.187 Y74.898 E1.38543
G1 X72.687 Y75.051 E1.39412
G1 X71.877 Y75.267 E1.40807
G1 X71.231 Y75.416 E1.41909
G1 X70.561 Y75.546 E1.43044
G1 X69.528 Y75.709 E1.44783
G1 X68.482 Y75.802 E1.4653
G1 X67.887 Y75.836 E1.47521
G1 X67.083 Y75.854 E1.48858
G1 X66.44 Y75.845 E1.49928
G1 X65.749 Y75.812 E1.51078
G1 X64.985 Y75.749 E1.52353
G1 X64.345 Y75.674 E1.53424
G1 X63.711 Y75.577 E1.54491
G1 X62.994 Y75.444 E1.55704
G1 X62.255 Y75.281 E1.56962
G1 X61.39 Y75.056 E1.58449
G1 X47.207 Y70.911 E1.83022
G1 X46.623 Y70.732 E1.84037
G1 X45.912 Y70.44 E1.85316
G1 X45.468 Y70.198 E1.86157
G1 X44.962 Y69.811 E1.87216
G1 X44.595 Y69.463 E1.88057
G1 X44.23 Y68.982 E1.89061
G1 X43.903 Y68.395 E1.90179
G1 X43.624 Y67.664 E1.9148
G1 X43.178 Y66.024 E1.94306
G1 X43.012 Y65.367 E1.95433
G1 X42.898 Y64.644 E1.9665
G1 X42.892 Y63.787 E1.98076
G1 X43.017 Y63.136 E1.99178
G1 X43.204 Y62.596 E2.00128
G1 X43.415 Y62.137 E2.00968
G1 X43.891 Y61.44 E2.02372
G1 X44.218 Y61.054 E2.03213
G1 X44.851 Y60.528 E2.04582
G1 F2700 E-4.45418
;MESH:???????????? 1.stl
G0 F3000 X47.042 Y63.426
G0 X48.95 Y65.169
;TYPE:WALL-INNER
G1 F2700 E2.04582
G1 F2100 X49.01 Y65.393 E2.04968
G1 X63.294 Y69.572 E2.29718
G1 X64.194 Y69.787 E2.31257
G1 X64.952 Y69.914 E2.32535
G1 X65.903 Y70.02 E2.34126
G1 X66.879 Y70.064 E2.35751
G1 X67.411 Y70.059 E2.36636
G1 X68.351 Y70.006 E2.38201
G1 X69.606 Y69.846 E2.40305
G1 X70.732 Y69.583 E2.42228
G1 X71.434 Y69.385 E2.43441
G1 X72.217 Y69.106 E2.44824
G1 X73.119 Y68.724 E2.46453
G1 X73.987 Y68.286 E2.48069
G1 X74.82 Y67.793 E2.49679
G1 X75.262 Y67.495 E2.50566
G1 X75.864 Y67.064 E2.51797
G1 X76.654 Y66.409 E2.53504
G1 X77.143 Y65.947 E2.54622
G1 X77.519 Y65.567 E2.55511
G1 X87.551 Y55.067 E2.79662
G1 X87.491 Y54.848 E2.80039
G1 X76.36 Y57.826 E2.99201
G1 X75.922 Y59.128 E3.01486
G1 X75.426 Y60.233 E3.035
G1 X74.697 Y61.342 E3.05707
G1 X74.431 Y61.68 E3.06422
G1 X73.497 Y62.68 E3.08698
G1 X72.536 Y63.429 E3.10724
G1 X71.642 Y63.985 E3.12475
G1 X70.77 Y64.41 E3.14088
G1 X69.547 Y64.851 E3.1625
G1 X68.05 Y65.132 E3.18783
G1 X66.772 Y65.163 E3.20909
G1 X65.519 Y65.065 E3.22999
G1 X64.294 Y64.76 E3.25099
G1 X63.064 Y64.32 E3.27271
G1 X61.934 Y63.688 E3.29424
G1 X61.125 Y63.108 E3.3108
G1 X60.336 Y62.425 E3.32815
G1 X60.099 Y62.185 E3.33376
G1 X48.95 Y65.169 E3.52569
G0 F3000 X48.682 Y65.713
G1 F2100 X63.181 Y69.956 E3.77693
G1 X63.862 Y70.118 E3.78857
G1 X64.361 Y70.22 E3.79704
G1 X64.895 Y70.31 E3.80604
G1 X66.09 Y70.442 E3.82604
G1 X66.875 Y70.464 E3.8391
G1 X67.378 Y70.46 E3.84746
G1 X68.222 Y70.425 E3.86151
G1 X69.362 Y70.282 E3.88062
G1 X69.896 Y70.188 E3.88963
G1 X70.386 Y70.081 E3.89797
G1 X70.874 Y69.958 E3.90634
G1 X71.555 Y69.766 E3.91811
G1 X72.36 Y69.48 E3.93232
G1 X73.136 Y69.163 E3.94626
G1 X74.178 Y68.638 E3.96566
G1 X74.845 Y68.257 E3.97843
G1 X75.46 Y67.846 E3.99074
G1 X76.143 Y67.356 E4.00471
G1 X77.057 Y66.578 E4.02468
G1 X77.423 Y66.233 E4.03304
G1 X77.808 Y65.843 E4.04215
G1 X87.995 Y55.18 E4.2874
G1 X87.773 Y54.359 E4.30154
G1 X75.995 Y57.509 E4.50429
G1 X75.889 Y57.97 E4.51216
G1 X75.552 Y58.976 E4.5298
G1 X75.077 Y60.036 E4.54912
G1 X74.263 Y61.274 E4.57376
G1 X73.233 Y62.378 E4.59887
G1 X72.304 Y63.103 E4.61847
G1 X71.407 Y63.657 E4.636
G1 X70.577 Y64.061 E4.65135
G1 X69.437 Y64.465 E4.67146
G1 X68.015 Y64.733 E4.69553
G1 X66.791 Y64.76 E4.71589
G1 X65.581 Y64.669 E4.73607
G1 X64.406 Y64.376 E4.75621
G1 X63.227 Y63.953 E4.77704
G1 X62.145 Y63.348 E4.79765
G1 X61.371 Y62.793 E4.81349
G1 X60.598 Y62.123 E4.8305
G1 X60.236 Y61.734 E4.83934
G1 X48.461 Y64.886 E5.04205
G1 X48.682 Y65.713 E5.05629
G0 F3000 X48.354 Y66.034
G1 F2100 X63.1 Y70.349 E5.3118
G1 X63.776 Y70.509 E5.32335
G1 X64.288 Y70.613 E5.33204
G1 X64.838 Y70.706 E5.34132
G1 X65.837 Y70.817 E5.35803
G1 X66.349 Y70.849 E5.36656
G1 X66.871 Y70.864 E5.37525
G1 X67.388 Y70.86 E5.38385
G1 X68.268 Y70.823 E5.39849
G1 X69.423 Y70.677 E5.41785
G1 X69.973 Y70.581 E5.42714
G1 X70.705 Y70.421 E5.4396
G1 X71.677 Y70.148 E5.45639
G1 X72.726 Y69.771 E5.47493
G1 X73.641 Y69.368 E5.49155
G1 X74.368 Y68.989 E5.50519
G1 X74.818 Y68.735 E5.51378
G1 X75.253 Y68.465 E5.5223
G1 X75.687 Y68.175 E5.53098
G1 X76.358 Y67.695 E5.5447
G1 X76.929 Y67.221 E5.55704
G1 X77.326 Y66.874 E5.56581
G1 X77.702 Y66.519 E5.57441
G1 X78.097 Y66.12 E5.58374
G1 X88.44 Y55.293 E5.83275
G1 X88.055 Y53.869 E5.85728
G1 X75.648 Y57.188 E6.07087
G1 X75.509 Y57.845 E6.08204
G1 X75.182 Y58.824 E6.0992
G1 X74.724 Y59.845 E6.11781
G1 X73.946 Y61.026 E6.14133
G1 X72.962 Y62.083 E6.16534
G1 X72.029 Y62.807 E6.18498
G1 X71.222 Y63.302 E6.20073
G1 X70.448 Y63.677 E6.21503
G1 X69.337 Y64.077 E6.23467
G1 X67.972 Y64.334 E6.25777
G1 X66.802 Y64.36 E6.27723
G1 X65.678 Y64.276 E6.29597
G1 X64.518 Y63.992 E6.31583
G1 X63.396 Y63.588 E6.33566
G1 X62.363 Y63.012 E6.35533
G1 X61.618 Y62.478 E6.37058
G1 X60.861 Y61.822 E6.38724
G1 X60.379 Y61.282 E6.39927
G1 X47.972 Y64.603 E6.61287
G1 X48.354 Y66.034 E6.6375
G0 F3000 X48.026 Y66.355
G1 F2100 X63.006 Y70.738 E6.89706
G1 X63.69 Y70.9 E6.90875
G1 X64.216 Y71.007 E6.91768
G1 X64.781 Y71.102 E6.9272
G1 X65.804 Y71.216 E6.94432
G1 X66.331 Y71.249 E6.9531
G1 X66.867 Y71.264 E6.96202
G1 X67.398 Y71.26 E6.97085
G1 X68.299 Y71.222 E6.98585
G1 X69.485 Y71.072 E7.00573
G1 X70.05 Y70.974 E7.01526
G1 X70.808 Y70.807 E7.02817
G1 X71.798 Y70.529 E7.04527
G1 X72.645 Y70.227 E7.06023
G1 X73.111 Y70.038 E7.06859
G1 X73.623 Y69.813 E7.07789
G1 X74.082 Y69.589 E7.08638
G1 X74.559 Y69.341 E7.09532
G1 X75.022 Y69.079 E7.10417
G1 X75.47 Y68.802 E7.11293
G1 X75.915 Y68.504 E7.12184
G1 X76.355 Y68.19 E7.13083
G1 X76.774 Y67.869 E7.1396
G1 X77.454 Y67.303 E7.15432
G1 X77.981 Y66.806 E7.16636
G1 X78.386 Y66.396 E7.17595
G1 X88.884 Y55.406 E7.4287
G1 X88.337 Y53.38 E7.4636
G1 X75.3 Y56.867 E7.68802
G1 X75.159 Y57.634 E7.70099
G1 X74.812 Y58.672 E7.71919
G1 X74.371 Y59.653 E7.73708
G1 X73.63 Y60.779 E7.7595
G1 X72.722 Y61.755 E7.78167
G1 X71.839 Y62.452 E7.80037
G1 X71.038 Y62.947 E7.81603
G1 X70.287 Y63.311 E7.82991
G1 X69.188 Y63.699 E7.84929
G1 X67.918 Y63.936 E7.87078
G1 X66.813 Y63.96 E7.88916
G1 X65.7 Y63.874 E7.90772
G1 X64.654 Y63.615 E7.92564
G1 X63.561 Y63.223 E7.94495
G1 X62.58 Y62.676 E7.96363
G1 X61.864 Y62.163 E7.97828
G1 X61.04 Y61.447 E7.99643
G1 X60.521 Y60.829 E8.00985
G1 X47.482 Y64.32 E8.23433
G1 X48.026 Y66.355 E8.26936
G0 F3000 X47.838 Y66.717
G1 F2100 X62.883 Y71.119 E8.53005
G1 X63.604 Y71.291 E8.54238
G1 X64.143 Y71.4 E8.55152
G1 X64.723 Y71.498 E8.5613
G1 X65.771 Y71.615 E8.57884
G1 X66.313 Y71.648 E8.58787
G1 X66.863 Y71.664 E8.59702
G1 X67.407 Y71.66 E8.60607
G1 X68.33 Y71.62 E8.62143
G1 X69.546 Y71.467 E8.64181
G1 X70.127 Y71.366 E8.65162
G1 X70.901 Y71.197 E8.6648
G1 X71.92 Y70.91 E8.6824
G1 X72.787 Y70.601 E8.69771
G1 X73.317 Y70.385 E8.70723
G1 X73.791 Y70.176 E8.71584
G1 X74.685 Y69.727 E8.73248
G1 X75.226 Y69.423 E8.7428
G1 X75.686 Y69.138 E8.7518
G1 X76.143 Y68.833 E8.76093
G1 X76.593 Y68.511 E8.77014
G1 X77.024 Y68.181 E8.77916
G1 X77.484 Y67.798 E8.78912
G1 X77.863 Y67.467 E8.79749
G1 X78.261 Y67.092 E8.80658
G1 X78.676 Y66.673 E8.81639
G1 X89.265 Y55.587 E9.07134
G1 X89.301 Y55.431 E9.074
G1 X88.692 Y53.16 E9.1131
G1 X88.604 Y53.041 E9.11556
G1 X88.338 Y52.967 E9.12015
G1 X75.134 Y56.497 E9.34745
G1 X74.944 Y56.604 E9.35107
G1 X74.771 Y57.53 E9.36674
G1 X74.442 Y58.52 E9.38409
G1 X74.019 Y59.461 E9.40125
G1 X73.314 Y60.532 E9.42257
G1 X72.432 Y61.478 E9.44408
G1 X71.582 Y62.143 E9.46203
G1 X70.873 Y62.582 E9.47589
G1 X70.101 Y62.955 E9.49015
G1 X69.091 Y63.311 E9.50796
G1 X67.885 Y63.534 E9.52836
G1 X66.824 Y63.56 E9.54601
G1 X65.762 Y63.475 E9.56372
G1 X64.743 Y63.224 E9.58118
G1 X63.726 Y62.856 E9.59916
G1 X62.747 Y62.303 E9.61786
G1 X62.111 Y61.848 E9.63087
G1 X61.326 Y61.164 E9.64818
G1 X60.712 Y60.435 E9.66403
G1 X60.467 Y60.43 E9.66811
G1 X47.29 Y63.958 E9.89496
G1 X47.1 Y64.137 E9.8993
G1 X47.06 Y64.288 E9.9019
G1 X47.687 Y66.635 E9.9423
G1 X47.838 Y66.717 E9.94516
G0 F3000 X47.274 Y66.641
G1 F2100 X47.415 Y66.922 E9.95038
G1 X47.696 Y67.092 E9.95585
G1 X62.813 Y71.514 E10.21778
G1 X63.518 Y71.681 E10.22983
G1 X64.07 Y71.793 E10.23919
G1 X64.666 Y71.894 E10.24925
G1 X65.738 Y72.013 E10.26718
G1 X66.295 Y72.048 E10.27646
G1 X66.859 Y72.064 E10.28585
G1 X67.417 Y72.06 E10.29513
G1 X68.374 Y72.018 E10.31106
G1 X69.607 Y71.863 E10.33172
G1 X70.204 Y71.759 E10.3418
G1 X70.751 Y71.639 E10.35111
G1 X71.245 Y71.516 E10.35958
G1 X72.041 Y71.292 E10.37333
G1 X72.93 Y70.975 E10.38903
G1 X73.422 Y70.775 E10.39786
G1 X73.959 Y70.539 E10.40761
G1 X74.442 Y70.304 E10.41655
G1 X74.941 Y70.044 E10.4259
G1 X75.43 Y69.767 E10.43525
G1 X75.903 Y69.475 E10.4445
G1 X76.37 Y69.162 E10.45384
G1 X76.831 Y68.833 E10.46326
G1 X77.273 Y68.494 E10.47253
G1 X77.707 Y68.135 E10.48189
G1 X78.132 Y67.763 E10.49129
G1 X78.54 Y67.378 E10.50061
G1 X78.965 Y66.949 E10.51066
G1 X89.569 Y55.847 E10.76597
G1 X89.646 Y55.716 E10.7685
G1 X89.715 Y55.413 E10.77367
G1 X89.064 Y53.007 E10.81512
G1 X88.855 Y52.726 E10.82094
G1 X88.699 Y52.632 E10.82397
G1 X88.324 Y52.556 E10.83033
G1 X74.988 Y56.123 E11.05991
G1 X74.716 Y56.265 E11.06501
G1 X74.56 Y56.471 E11.06931
G1 X74.37 Y57.469 E11.0862
G1 X74.064 Y58.387 E11.10229
G1 X73.669 Y59.264 E11.11829
G1 X73 Y60.281 E11.13853
G1 X72.155 Y61.188 E11.15915
G1 X71.359 Y61.811 E11.17596
G1 X70.681 Y62.231 E11.18922
G1 X69.926 Y62.594 E11.20315
G1 X68.994 Y62.923 E11.21959
G1 X67.811 Y63.139 E11.23959
G1 X66.805 Y63.159 E11.25632
G1 X65.853 Y63.084 E11.2722
G1 X64.855 Y62.84 E11.28929
G1 X63.893 Y62.492 E11.3063
G1 X62.979 Y61.977 E11.32375
G1 X62.333 Y61.513 E11.33697
G1 X61.613 Y60.886 E11.35285
G1 X60.993 Y60.147 E11.36889
G1 X60.744 Y60.018 E11.37356
G1 X60.392 Y60.036 E11.37942
G1 X47.12 Y63.589 E11.60791
G1 X46.896 Y63.744 E11.61244
G1 X46.745 Y63.943 E11.61659
G1 X46.682 Y64.117 E11.61967
G1 X46.688 Y64.446 E11.62514
G1 X47.274 Y66.641 E11.66292
G0 F3000 X46.894 Y66.771
;TYPE:WALL-OUTER
G1 F2100 X47.12 Y67.198 E11.66975
G1 X47.308 Y67.353 E11.67319
G1 X47.555 Y67.468 E11.67705
G1 X62.713 Y71.902 E11.90029
G1 X63.432 Y72.072 E11.91073
G1 X63.997 Y72.187 E11.91889
G1 X64.609 Y72.29 E11.92766
G1 X65.705 Y72.412 E11.94325
G1 X66.277 Y72.448 E11.95135
G1 X66.855 Y72.464 E11.95952
G1 X67.427 Y72.46 E11.96761
G1 X68 Y72.436 E11.97571
G1 X68.573 Y72.396 E11.98383
G1 X69.669 Y72.258 E11.99945
G1 X70.281 Y72.151 E12.00823
G1 X70.842 Y72.029 E12.01635
G1 X71.348 Y71.902 E12.02372
G1 X72.163 Y71.673 E12.03569
G1 X73.072 Y71.349 E12.04933
G1 X73.578 Y71.143 E12.05705
G1 X74.127 Y70.902 E12.06553
G1 X74.622 Y70.661 E12.07331
G1 X75.132 Y70.396 E12.08143
G1 X75.634 Y70.111 E12.08959
G1 X76.119 Y69.811 E12.09765
G1 X76.598 Y69.491 E12.1058
G1 X77.069 Y69.155 E12.11397
G1 X77.523 Y68.807 E12.12206
G1 X77.966 Y68.439 E12.1302
G1 X78.401 Y68.059 E12.13837
G1 X78.82 Y67.664 E12.14651
G1 X79.254 Y67.225 E12.15523
G1 X89.891 Y56.09 E12.37291
G1 X90.023 Y55.865 E12.37659
G1 X90.106 Y55.495 E12.38195
G1 X90.093 Y55.277 E12.38504
G1 X89.437 Y52.853 E12.42054
G1 X89.298 Y52.609 E12.42451
G1 X89.106 Y52.41 E12.42842
G1 X88.846 Y52.254 E12.4327
G1 X88.398 Y52.163 E12.43917
G1 X88.145 Y52.19 E12.44276
G1 X74.842 Y55.748 E12.63742
G1 X74.476 Y55.939 E12.64325
G1 X74.302 Y56.114 E12.64674
G1 X74.179 Y56.333 E12.65029
G1 X73.997 Y57.317 E12.66444
G1 X73.699 Y58.223 E12.67792
G1 X73.308 Y59.086 E12.69131
G1 X72.692 Y60.022 E12.70715
G1 X71.892 Y60.887 E12.72381
G1 X71.136 Y61.479 E12.73738
G1 X70.48 Y61.884 E12.74828
G1 X69.792 Y62.217 E12.75908
G1 X68.897 Y62.535 E12.77251
G1 X67.783 Y62.74 E12.78852
G1 X66.836 Y62.76 E12.80191
G1 X65.894 Y62.686 E12.81526
G1 X64.955 Y62.452 E12.82894
G1 X64.046 Y62.119 E12.84263
G1 X63.211 Y61.651 E12.85616
G1 X62.604 Y61.218 E12.8667
G1 X61.89 Y60.593 E12.88011
G1 X61.272 Y59.857 E12.8937
G1 X61.115 Y59.736 E12.8965
G1 X60.84 Y59.625 E12.90069
G1 X60.318 Y59.642 E12.90807
G1 X46.95 Y63.221 E13.10369
G1 X46.616 Y63.451 E13.10942
G1 X46.39 Y63.749 E13.11471
G1 X46.289 Y64.026 E13.11888
G1 X46.294 Y64.519 E13.12585
G1 X46.894 Y66.771 E13.15879
G0 F3000 X46.987 Y66.947
G1 F2700 E6.65879
G1 F3000 Z0.7
G0 X47.905 Y66.532 Z0.7
G0 X78.646 Y60.142
;TYPE:SKIN
G1 F3000 Z0.1
G1 F2700 E13.15879
G1 F837.2 X78.572 Y60.142 E13.16064
G1 X78.534 Y60.206 E13.16251
G1 X78.572 Y60.27 E13.16437
G1 X78.646 Y60.27 E13.16622
G1 X78.684 Y60.206 E13.16809
G0 F3000 X77.474 Y61.461
G1 F1260 X78.138 Y60.041 E13.19415
G1 X78.223 Y59.794 E13.1985
G1 X80.206 Y59.263 E13.23264
G1 X77.807 Y61.765 E13.29028
G1 F1135.1 X77.252 Y62.282 E13.30428
G1 F945.6 X76.697 Y62.799 E13.32109
G1 X77.085 Y62.13 E13.33823
G1 F1135.1 X77.474 Y61.461 E13.35251
G0 F3000 X76.697 Y62.799
G1 F1532.8 X76.308 Y63.248 E13.36605
G1 F1643.8 X75.577 Y64.022 E13.38867
G1 F1721.3 X75.153 Y64.454 E13.40095
G1 F1728.4 X74.317 Y65.132 E13.4227
G1 F1697 X73.79 Y65.524 E13.43621
G1 F1690.1 X72.915 Y66.068 E13.4575
G1 F1666.7 X72.207 Y66.428 E13.47415
G1 F1693.5 X71.535 Y66.738 E13.48941
G1 F1700.4 X70.709 Y67.03 E13.5074
G1 F1746.4 X70.139 Y67.21 E13.51935
G1 X69.378 Y67.371 E13.53491
G1 F1697 X68.3 Y67.551 E13.5574
G1 F1710.8 X66.832 Y67.612 E13.58739
G1 F1663.4 X66.282 Y67.581 E13.59896
G1 F1673.3 X65.12 Y67.463 E13.62334
G1 F1732 X64.496 Y67.323 E13.63623
G1 F1717.8 X63.627 Y67.107 E13.65444
G1 F1606.1 X62.798 Y66.835 E13.67341
G1 F1445.8 X61.968 Y66.563 E13.6945
G0 F3000 X61.271 Y64.691
G1 F2100 X62.576 Y65.413 E13.71931
G1 X63.944 Y65.905 E13.74348
G1 X65.267 Y66.239 E13.76618
G1 X66.731 Y66.36 E13.7906
G1 X68.234 Y66.315 E13.81561
G1 X69.818 Y66.021 E13.8424
G1 X71.151 Y65.553 E13.8659
G1 X72.216 Y65.037 E13.88558
G1 X73.215 Y64.417 E13.90513
G1 X74.319 Y63.549 E13.92849
G1 X75.323 Y62.469 E13.95301
G1 X75.641 Y62.069 E13.96151
G1 X76.435 Y60.879 E13.9853
G1 X77.03 Y59.588 E14.00894
G1 X77.288 Y58.81 E14.02257
G1 X84.023 Y57.009 E14.13851
G1 X76.442 Y64.942 E14.32099
G1 X75.859 Y65.498 E14.33438
G1 X75.071 Y66.144 E14.35133
G1 X74.209 Y66.744 E14.36879
G1 X73.648 Y67.094 E14.37979
G1 X72.73 Y67.575 E14.39703
G1 X71.763 Y67.989 E14.41452
G1 X71.075 Y68.233 E14.42666
G1 X70.215 Y68.473 E14.44151
