;FLAVOR:Marlin
;TIME:726
;Filament used: 0.592037m
;Layer height: 0.2
;MINX:-64.059
;MINY:-80.452
;MINZ:0.1
;MAXX:60.926
;MAXY:45.252
;MAXZ:20.7
;TARGET_MACHINE.NAME:Unknown
;Generated with Cura_SteamEngine 5.7.0
M82 ;absolute extrusion mode
G21 ; millimeter units
G90 ; absolute coordinates
M82 ; E absolute
M140 S60.0
M104 S250.0
M190 S60.0
M109 S220.0
G28 ; home axis
M420 S1 ; enable mesh leveling
; Lower nozzle and move to start position
G1 Z150
G1 X-130 Y0 Z0.4 F3000
; Extrude about 40 mm by printing a 90 degree arc
G3 X0 Y-130 I130 Z0.3 E40 F2700
; Retract and move nozzle up
G92 E0
G1 E-1.5 F1800
G0 Z0.5
G1 E0 F300

G92 E0
G92 E0
G1 F2700 E-6.5
;LAYER_COUNT:79
;LAYER:0
M106 S118.9
M104 S220
G1 F3000 Z0.7
G0 X-51.517 Y-66.94 Z0.7
;TYPE:SKIRT
G1 F3000 Z0.1
G1 F2700 E0
G1 F2100 X-52.232 Y-66.424 E0.01466
G1 X-52.686 Y-66.142 E0.02355
G1 X-53.436 Y-65.779 E0.03741
G1 X-54.001 Y-65.558 E0.0475
G1 X-54.77 Y-65.349 E0.06075
G1 X-55.815 Y-65.176 E0.07836
G1 X-57.131 Y-65.185 E0.10025
G1 X-58.199 Y-65.36 E0.11825
G1 X-58.845 Y-65.546 E0.12943
G1 X-59.797 Y-65.927 E0.14648
G1 X-60.504 Y-66.33 E0.16001
G1 X-61.378 Y-66.962 E0.17795
G1 X-62.274 Y-67.858 E0.19902
G1 X-62.805 Y-68.588 E0.21403
G1 X-63.112 Y-69.082 E0.22371
G1 X-63.449 Y-69.785 E0.23667
G1 X-63.677 Y-70.367 E0.24707
G1 X-63.889 Y-71.152 E0.26059
G1 X-64.059 Y-72.173 E0.2778
G1 X-64.058 Y-73.505 E0.29995
G1 X-63.821 Y-74.753 E0.32108
G1 X-63.535 Y-75.604 E0.33601
G1 X-63.316 Y-76.111 E0.34519
G1 X-63.045 Y-76.623 E0.35483
G1 X-62.738 Y-77.122 E0.36457
G1 X-62.09 Y-77.951 E0.38207
G1 X-61.312 Y-78.68 E0.3998
G1 X-60.525 Y-79.257 E0.41603
G1 X-59.539 Y-79.772 E0.43453
G1 X-58.922 Y-80.027 E0.44563
G1 X-57.812 Y-80.327 E0.46475
G1 X-56.462 Y-80.452 E0.4873
G1 X-55.527 Y-80.382 E0.50289
G1 X-54.933 Y-80.288 E0.51289
G1 X-54.35 Y-80.154 E0.52284
G1 X-53.58 Y-79.885 E0.5364
G1 X-53.03 Y-79.64 E0.54642
G1 X-52.366 Y-79.275 E0.55902
G1 X-51.747 Y-78.83 E0.5717
G1 X-51.281 Y-78.443 E0.58177
G1 X-50.742 Y-77.889 E0.59462
G1 X-50.362 Y-77.445 E0.60434
G1 X-49.928 Y-76.823 E0.61695
G1 X-49.543 Y-76.114 E0.63037
G1 X-49.202 Y-75.264 E0.6456
G1 X-49.03 Y-74.67 E0.65589
G1 X-48.86 Y-73.765 E0.6712
G1 X-48.801 Y-73.15 E0.68147
G1 X-48.82 Y-72.082 E0.69924
G1 X-48.947 Y-71.294 E0.71251
G1 X-49.08 Y-70.721 E0.72229
G1 X-49.431 Y-69.726 E0.73984
G1 X-49.918 Y-68.799 E0.75725
G1 X-50.424 Y-68.091 E0.77173
G1 X-50.791 Y-67.646 E0.78132
G1 X-51.517 Y-66.94 E0.79816
G0 F3000 X-51.796 Y-67.227
G1 F2100 X-52.443 Y-66.764 E0.81139
G1 X-52.897 Y-66.482 E0.82028
G1 X-53.583 Y-66.151 E0.83295
G1 X-54.106 Y-65.944 E0.8423
G1 X-54.875 Y-65.735 E0.85555
G1 X-55.814 Y-65.576 E0.87139
G1 X-57.067 Y-65.58 E0.89223
G1 X-58.09 Y-65.745 E0.90946
G1 X-58.698 Y-65.918 E0.91997
G1 X-59.6 Y-66.275 E0.9361
G1 X-60.271 Y-66.655 E0.94893
G1 X-61.095 Y-67.245 E0.96578
G1 X-61.991 Y-68.141 E0.98685
G1 X-62.466 Y-68.8 E1.00036
G1 X-62.751 Y-69.255 E1.00929
G1 X-63.088 Y-69.958 E1.02226
G1 X-63.291 Y-70.472 E1.03145
G1 X-63.495 Y-71.22 E1.04434
G1 X-63.659 Y-72.173 E1.06042
G1 X-63.658 Y-73.469 E1.08198
G1 X-63.442 Y-74.626 E1.10155
G1 X-63.167 Y-75.446 E1.11593
G1 X-62.962 Y-75.924 E1.12458
G1 X-62.691 Y-76.436 E1.13421
G1 X-62.422 Y-76.877 E1.14281
G1 X-61.816 Y-77.66 E1.15927
G1 X-61.074 Y-78.359 E1.17622
G1 X-60.34 Y-78.903 E1.19142
G1 X-59.386 Y-79.402 E1.20932
G1 X-58.769 Y-79.657 E1.22042
G1 X-57.774 Y-79.929 E1.23758
G1 X-56.491 Y-80.053 E1.25901
G1 X-55.589 Y-79.987 E1.27405
G1 X-55.021 Y-79.898 E1.28362
G1 X-54.482 Y-79.776 E1.29281
G1 X-53.712 Y-79.507 E1.30637
G1 X-53.223 Y-79.289 E1.31527
G1 X-52.559 Y-78.924 E1.32787
G1 X-51.982 Y-78.506 E1.33972
G1 X-51.568 Y-78.164 E1.34865
G1 X-51.029 Y-77.61 E1.36151
G1 X-50.69 Y-77.216 E1.37015
G1 X-50.256 Y-76.594 E1.38276
G1 X-49.914 Y-75.965 E1.39467
G1 X-49.586 Y-75.151 E1.40927
G1 X-49.423 Y-74.595 E1.4189
G1 X-49.258 Y-73.725 E1.43363
G1 X-49.201 Y-73.156 E1.44314
G1 X-49.215 Y-72.145 E1.45995
G1 X-49.337 Y-71.383 E1.47278
G1 X-49.458 Y-70.852 E1.48184
G1 X-49.785 Y-69.912 E1.49839
G1 X-50.272 Y-68.985 E1.51581
G1 X-50.734 Y-68.344 E1.52895
G1 X-51.07 Y-67.933 E1.53778
G1 X-51.796 Y-67.227 E1.55462
;MESH:?????? ?????????????? 1.stl(1)
G0 F3000 X-54.114 Y-70.007
G0 X-54.431 Y-70.37
G0 X-54.27 Y-70.185
;TYPE:WALL-INNER
G1 F1656.8 X-53.816 Y-70.636 E1.5681
G1 F1670 X-53.54 Y-71.019 E1.57798
G1 F1673.3 X-53.326 Y-71.428 E1.58761
G1 X-53.123 Y-72.041 E1.60109
G1 F1670 X-53.052 Y-72.474 E1.61026
G1 F1663.4 X-53.053 Y-73.126 E1.62395
G1 F1660.1 X-53.167 Y-73.728 E1.63684
G1 F1643.8 X-53.451 Y-74.448 E1.65329
G1 F1653.5 X-53.814 Y-74.965 E1.66663
G1 F1676.6 X-54.267 Y-75.419 E1.67999
G1 F1680 X-54.646 Y-75.692 E1.6897
G1 X-55.063 Y-75.907 E1.69945
G1 F1676.6 X-55.672 Y-76.113 E1.71284
G1 F1670 X-56.429 Y-76.197 E1.72877
G1 X-57.065 Y-76.138 E1.74212
G1 F1680 X-57.671 Y-75.964 E1.75523
G1 F1663.4 X-58.22 Y-75.684 E1.76817
G1 F1631.1 X-58.855 Y-75.185 E1.78546
G1 F1564.2 X-59.303 Y-74.566 E1.80252
G1 F1489.4 X-59.518 Y-74.142 E1.81367
G1 F1428.6 X-59.648 Y-73.732 E1.82418
G1 F1363.6 X-59.753 Y-73.105 E1.84046
G1 F1374.8 X-59.758 Y-72.352 E1.85959
G1 F1448.3 X-59.568 Y-71.577 E1.87883
G1 F1521.7 X-59.301 Y-71.015 E1.89311
G1 F1584.9 X-59.041 Y-70.638 E1.90321
G1 F1627.9 X-58.592 Y-70.182 E1.91693
G1 F1643.8 X-58.091 Y-69.826 E1.92999
G1 F1637.4 X-57.353 Y-69.521 E1.94702
G1 F1647.1 X-56.76 Y-69.417 E1.95979
G1 F1660.1 X-55.943 Y-69.423 E1.97698
G1 X-55.199 Y-69.639 E1.99327
G1 F1663.4 X-54.638 Y-69.916 E2.00641
G1 F1656.8 X-54.27 Y-70.185 E2.01602
G0 F3000 X-54.327 Y-70.794
G1 F1693.5 X-55.005 Y-70.268 E2.03371
G1 F1703.9 X-55.679 Y-70.003 E2.04856
G1 F1700.4 X-56.318 Y-69.909 E2.06182
G1 F1686.7 X-56.926 Y-69.943 E2.07443
G1 F1693.5 X-57.592 Y-70.146 E2.08879
G1 F1673.3 X-58.161 Y-70.47 E2.10245
G1 F1627.9 X-58.621 Y-70.945 E2.11664
G1 F1584.9 X-58.842 Y-71.294 E2.12574
G1 F1484.1 X-59.065 Y-71.852 E2.13988
G1 F1381.6 X-59.134 Y-72.519 E2.15683
G1 F1341.9 X-59.124 Y-73.061 E2.17094
G1 F1363.6 X-59.059 Y-73.604 E2.18495
G1 F1428.6 X-58.977 Y-73.953 E2.19371
G1 F1544.1 X-58.67 Y-74.591 E2.20972
G1 F1653.5 X-58.09 Y-75.175 E2.22711
G1 F1680 X-57.501 Y-75.495 E2.24104
G1 F1686.7 X-57.06 Y-75.63 E2.25059
G1 F1690.1 X-56.542 Y-75.693 E2.26137
G1 X-55.932 Y-75.657 E2.274
G1 F1700.4 X-55.428 Y-75.517 E2.28474
G1 F1693.5 X-54.913 Y-75.27 E2.29652
G1 F1680 X-54.596 Y-75.043 E2.30462
G1 F1676.6 X-54.185 Y-74.627 E2.31681
G1 F1653.5 X-53.901 Y-74.195 E2.32772
G1 F1663.4 X-53.743 Y-73.866 E2.33539
G1 F1693.5 X-53.563 Y-73.238 E2.34886
G1 F1683.4 X-53.556 Y-72.476 E2.36467
G1 F1697 X-53.687 Y-71.873 E2.37737
G1 F1700.4 X-53.944 Y-71.317 E2.38995
G1 F1686.7 X-54.327 Y-70.794 E2.40337
G0 F3000 X-54.653 Y-71.107
;TYPE:WALL-OUTER
G1 F1260 X-55.238 Y-70.657 E2.4138
G1 X-55.803 Y-70.431 E2.4224
G1 X-56.42 Y-70.352 E2.4312
G1 X-56.853 Y-70.386 E2.43734
G1 X-57.421 Y-70.559 E2.44573
G1 X-57.845 Y-70.805 E2.45266
G1 X-58.231 Y-71.191 E2.46037
G1 X-58.451 Y-71.554 E2.46637
G1 X-58.581 Y-71.933 E2.47204
G1 X-58.628 Y-72.634 E2.48197
G1 X-58.594 Y-73.341 E2.49197
G1 X-58.515 Y-73.803 E2.4986
G1 X-58.293 Y-74.301 E2.50631
G1 X-57.862 Y-74.772 E2.51533
G1 X-57.39 Y-75.056 E2.52312
G1 X-57.024 Y-75.181 E2.52859
G1 X-56.596 Y-75.244 E2.5347
G1 X-56.001 Y-75.214 E2.54312
G1 X-55.571 Y-75.094 E2.54943
G1 X-55.176 Y-74.903 E2.55563
G1 X-54.914 Y-74.723 E2.56013
G1 X-54.489 Y-74.289 E2.56871
G1 X-54.177 Y-73.757 E2.57743
G1 X-54.015 Y-73.202 E2.58561
G1 X-54.01 Y-72.439 E2.59639
G1 X-54.109 Y-72.013 E2.60257
G1 X-54.294 Y-71.607 E2.60888
G1 X-54.653 Y-71.107 E2.61758
G0 F3000 X-54.811 Y-70.986
G0 X-54.386 Y-70.436
G0 X-54.008 Y-70.795
G0 X-53.47 Y-70.342
G1 F2100 X-53.155 Y-70.782 E2.62523
G1 X-52.909 Y-71.251 E2.63272
G1 X-52.683 Y-71.933 E2.64287
G1 X-52.6 Y-72.437 E2.65009
G1 X-52.6 Y-73.169 E2.66044
G1 X-52.73 Y-73.852 E2.67027
G1 X-53.046 Y-74.668 E2.68264
G1 X-53.469 Y-75.258 E2.6929
G1 X-53.974 Y-75.763 E2.70299
G1 X-54.41 Y-76.077 E2.71059
G1 X-54.887 Y-76.323 E2.71818
G1 X-55.564 Y-76.552 E2.72828
G1 X-56.291 Y-76.665 E2.73868
G1 X-57.15 Y-76.582 E2.75088
G1 X-57.835 Y-76.385 E2.76095
G1 X-58.461 Y-76.073 E2.77084
G1 X-59.023 Y-75.644 E2.78083
G1 X-59.284 Y-75.384 E2.78604
G1 X-59.706 Y-74.824 E2.79595
G1 X-59.964 Y-74.339 E2.80372
G1 X-60.134 Y-73.863 E2.81086
G1 X-60.267 Y-73.153 E2.82107
G1 X-60.268 Y-72.439 E2.83117
G1 X-60.216 Y-72.091 E2.83614
G1 X-60.02 Y-71.401 E2.84628
G1 X-59.704 Y-70.772 E2.85623
G1 X-59.394 Y-70.338 E2.86377
G1 X-58.886 Y-69.834 E2.87388
G1 X-58.314 Y-69.425 E2.88382
G1 X-57.48 Y-69.078 E2.89659
G1 X-56.796 Y-68.964 E2.9064
G1 X-56.071 Y-68.968 E2.91664
G1 X-55.718 Y-69.017 E2.92168
G1 X-55.033 Y-69.215 E2.93176
G1 X-54.404 Y-69.528 E2.94169
G1 X-53.974 Y-69.837 E2.94918
G1 X-53.47 Y-70.342 E2.95926
G0 F3000 X-53.354 Y-70.504
G1 F2700 E-3.54074
;MESH:NONMESH
G0 F3000 X-53.354 Y-70.504 Z0.3
G0 X-53.923 Y-70.914
G0 X-54.651 Y-70.213
G0 X-54.607 Y-70.151
;TIME_ELAPSED:9.334193
;LAYER:1
M106 S255
;TYPE:WALL-INNER
;MESH:?????? ?????????????? 1.stl(1)
G1 F2700 E2.95926
G1 F1833.8 X-54.135 Y-70.545 E2.97762
G1 F1875.6 X-53.68 Y-71.112 E2.99883
G1 X-53.419 Y-71.659 E3.01652
G1 F1854.5 X-53.299 Y-72.063 E3.02896
G1 F1833.8 X-53.219 Y-72.67 E3.04724
G1 F1849.3 X-53.224 Y-73.116 E3.06044
G1 F1881 X-53.378 Y-73.871 E3.08287
G1 F1838.9 X-53.705 Y-74.505 E3.1041
G1 X-54.054 Y-74.973 E3.12148
G1 F1865 X-54.399 Y-75.295 E3.13533
G1 F1891.8 X-54.915 Y-75.639 E3.15328
G1 F1930.6 X-55.67 Y-75.927 E3.17619
G1 F1886.3 X-56.294 Y-76.018 E3.19449
G1 F1859.7 X-57.029 Y-75.968 E3.21617
G1 F1774.5 X-57.623 Y-75.772 E3.23547
G1 F1625.5 X-58.125 Y-75.502 E3.25467
G1 F1509.9 X-58.583 Y-75.131 E3.27603
G1 F1391.8 X-58.773 Y-74.911 E3.28747
G1 F1239.8 X-59.086 Y-74.426 E3.31295
G1 F1137 X-59.335 Y-73.89 E3.34141
G1 F1121.5 X-59.484 Y-73.366 E3.368
G1 F1201.3 X-59.571 Y-72.765 E3.39567
G1 F1360.2 X-59.544 Y-72.201 E3.41839
G1 F1556.3 X-59.403 Y-71.604 E3.43997
G1 F1692.4 X-59.15 Y-71.074 E3.45896
G1 F1741.6 X-58.684 Y-70.508 E3.48201
G1 F1813.6 X-58.231 Y-70.129 E3.49983
G1 F1859.7 X-57.867 Y-69.912 E3.51231
G1 F1875.6 X-57.436 Y-69.737 E3.52588
G1 F1870.3 X-56.862 Y-69.607 E3.54311
G1 F1875.6 X-56.093 Y-69.58 E3.56557
G1 F1849.3 X-55.391 Y-69.755 E3.58698
G1 F1844.1 X-54.97 Y-69.93 E3.60052
G1 F1838.9 X-54.607 Y-70.151 E3.61317
G0 F4000 X-54.385 Y-69.839
G1 F1645.8 X-53.866 Y-70.28 E3.63582
G1 X-53.452 Y-70.783 E3.65749
G1 X-53.065 Y-71.529 E3.68544
G1 X-52.929 Y-71.983 E3.7012
G1 X-52.838 Y-72.65 E3.72359
G1 X-52.851 Y-73.157 E3.74046
G1 X-52.977 Y-73.796 E3.76213
G1 X-53.091 Y-74.132 E3.77393
G1 X-53.379 Y-74.708 E3.79535
G1 X-53.775 Y-75.224 E3.81698
G1 X-54.159 Y-75.587 E3.83455
G1 X-54.55 Y-75.866 E3.85053
G1 X-55.155 Y-76.179 E3.87319
G1 X-55.792 Y-76.339 E3.89503
G1 X-56.277 Y-76.396 E3.91127
G1 X-57.108 Y-76.336 E3.93898
G1 X-57.769 Y-76.14 E3.96192
G1 X-58.343 Y-75.85 E3.98331
G1 X-58.864 Y-75.451 E4.00513
G1 X-59.112 Y-75.203 E4.0168
G1 X-59.501 Y-74.678 E4.03853
G1 X-59.8 Y-74.066 E4.06118
G1 X-59.97 Y-73.453 E4.08234
G1 X-60.029 Y-72.762 E4.10541
G1 X-59.965 Y-72.119 E4.1269
G1 X-59.773 Y-71.463 E4.14963
G1 X-59.483 Y-70.858 E4.17195
G1 X-58.954 Y-70.234 E4.19916
G1 X-58.448 Y-69.818 E4.22094
G1 X-58.033 Y-69.576 E4.23692
G1 X-57.55 Y-69.378 E4.25428
G1 X-56.919 Y-69.234 E4.27581
G1 X-56.264 Y-69.206 E4.29762
G1 X-55.922 Y-69.238 E4.30904
G1 X-55.272 Y-69.392 E4.33126
G1 X-54.808 Y-69.589 E4.34803
G1 X-54.385 Y-69.839 E4.36437
G0 F4000 X-54.481 Y-70.714
G1 F1645.8 X-55.029 Y-70.319 E4.38684
G1 X-55.634 Y-70.067 E4.40863
G1 X-56.083 Y-69.97 E4.42391
G1 X-56.698 Y-69.964 E4.44437
G1 X-57.211 Y-70.059 E4.46172
G1 X-57.712 Y-70.253 E4.47959
G1 X-58.192 Y-70.553 E4.49842
G1 X-58.707 Y-71.08 E4.52292
G1 X-58.982 Y-71.597 E4.5424
G1 X-59.084 Y-71.912 E4.55341
G1 X-59.141 Y-72.597 E4.57628
G1 X-58.978 Y-73.37 E4.60255
G1 X-58.842 Y-73.81 E4.61787
G1 X-58.517 Y-74.489 E4.64291
G1 X-58.266 Y-74.847 E4.65745
G1 X-57.714 Y-75.312 E4.68145
G1 X-57.003 Y-75.588 E4.70682
G1 X-56.394 Y-75.651 E4.72718
G1 X-55.76 Y-75.567 E4.74846
G1 X-55.084 Y-75.31 E4.77251
G1 X-54.512 Y-74.905 E4.79582
G1 X-54.239 Y-74.613 E4.80912
G1 X-53.899 Y-74.101 E4.82956
G1 X-53.743 Y-73.746 E4.84245
G1 X-53.591 Y-73.063 E4.86573
G1 X-53.608 Y-72.402 E4.88772
G1 X-53.725 Y-71.913 E4.90444
G1 X-53.955 Y-71.392 E4.92338
G1 X-54.481 Y-70.714 E4.95193
G0 F4000 X-54.778 Y-70.991
;TYPE:WALL-OUTER
G1 F1320 X-55.233 Y-70.663 E4.96778
G1 X-55.82 Y-70.427 E4.98567
G1 X-56.121 Y-70.368 E4.99434
G1 X-56.681 Y-70.364 E5.01017
G1 X-57.15 Y-70.458 E5.0237
G1 X-57.547 Y-70.617 E5.03579
G1 X-57.955 Y-70.883 E5.04956
G1 X-58.369 Y-71.306 E5.06629
G1 X-58.621 Y-71.769 E5.08119
G1 X-58.7 Y-72.026 E5.08879
G1 X-58.738 Y-72.569 E5.10418
G1 X-58.596 Y-73.252 E5.1239
G1 X-58.46 Y-73.692 E5.13692
G1 X-58.144 Y-74.336 E5.1572
G1 X-57.972 Y-74.576 E5.16555
G1 X-57.491 Y-74.971 E5.18315
G1 X-56.877 Y-75.21 E5.20177
G1 X-56.391 Y-75.247 E5.21555
G1 X-55.858 Y-75.179 E5.23074
G1 X-55.288 Y-74.964 E5.24797
G1 X-54.786 Y-74.614 E5.26527
G1 X-54.57 Y-74.389 E5.27409
G1 X-54.27 Y-73.945 E5.28923
G1 X-54.122 Y-73.617 E5.29941
G1 X-53.995 Y-73.04 E5.31611
G1 X-54.005 Y-72.456 E5.33262
G1 X-54.108 Y-72.027 E5.3451
G1 X-54.302 Y-71.592 E5.35856
G1 X-54.778 Y-70.991 E5.38024
G0 F4000 X-54.94 Y-70.875
G0 X-54.532 Y-70.309
G0 X-54.08 Y-70.492
G0 X-53.58 Y-69.998
G1 F1544 X-53.122 Y-70.555 E5.40062
G1 X-52.742 Y-71.213 E5.42211
G1 X-52.537 Y-71.899 E5.44235
G1 X-52.437 Y-72.628 E5.46315
G1 X-52.452 Y-73.201 E5.47935
G1 X-52.59 Y-73.9 E5.4995
G1 X-52.721 Y-74.286 E5.51102
G1 X-53.039 Y-74.921 E5.5311
G1 X-53.477 Y-75.493 E5.55147
G1 X-53.904 Y-75.897 E5.56808
G1 X-54.341 Y-76.208 E5.58325
G1 X-55.012 Y-76.555 E5.6046
G1 X-55.72 Y-76.734 E5.62525
G1 X-56.258 Y-76.796 E5.64056
G1 X-56.791 Y-76.784 E5.65563
G1 X-57.193 Y-76.728 E5.66711
G1 X-57.917 Y-76.513 E5.68846
G1 X-58.557 Y-76.19 E5.70873
G1 X-59.128 Y-75.753 E5.72906
G1 X-59.416 Y-75.465 E5.74057
G1 X-59.844 Y-74.887 E5.7609
G1 X-60.176 Y-74.208 E5.78227
G1 X-60.366 Y-73.524 E5.80234
G1 X-60.431 Y-72.758 E5.82407
G1 X-60.359 Y-72.043 E5.84439
G1 X-60.148 Y-71.32 E5.86568
G1 X-59.822 Y-70.638 E5.88705
G1 X-59.235 Y-69.948 E5.91266
G1 X-58.677 Y-69.489 E5.93309
G1 X-58.211 Y-69.216 E5.94836
G1 X-57.671 Y-68.996 E5.96484
G1 X-56.973 Y-68.836 E5.98509
G1 X-56.254 Y-68.805 E6.00543
G1 X-55.857 Y-68.842 E6.01671
G1 X-55.147 Y-69.011 E6.03734
G1 X-54.627 Y-69.231 E6.0533
G1 X-54.153 Y-69.512 E6.06888
G1 X-53.58 Y-69.998 E6.09012
G0 F4000 X-53.453 Y-70.152
G1 F2700 E-0.40988
;MESH:NONMESH
G0 F3000 X-53.453 Y-70.152 Z0.5
G0 F4000 X-54.203 Y-70.154
;TIME_ELAPSED:13.736688
;LAYER:2
;TYPE:WALL-INNER
;MESH:?????? ?????????????? 1.stl(1)
G1 F2700 E6.09012
G1 F3094.4 X-53.724 Y-70.622 E6.10566
G1 F3105.5 X-53.335 Y-71.263 E6.12299
G1 X-53.08 Y-71.911 E6.13909
G1 X-52.978 Y-72.648 E6.15629
G1 F3083.3 X-53.019 Y-73.317 E6.17189
G1 F3105.5 X-53.167 Y-73.941 E6.18672
G1 F3150.9 X-53.511 Y-74.655 E6.20477
G1 F3116.7 X-53.875 Y-75.145 E6.21883
G1 F3105.5 X-54.383 Y-75.588 E6.23441
G1 F3139.4 X-54.89 Y-75.897 E6.24799
G1 F3105.5 X-55.619 Y-76.177 E6.26604
G1 F3018.7 X-56.3 Y-76.25 E6.28233
G1 F2916.7 X-57.096 Y-76.182 E6.30199
G1 F2740.7 X-57.677 Y-75.999 E6.31795
G1 F2459.6 X-58.26 Y-75.681 E6.33733
G1 F2230.8 X-58.726 Y-75.303 E6.35664
G1 F2147.6 X-59.173 Y-74.805 E6.37901
G1 F2219.4 X-59.486 Y-74.321 E6.39765
G1 F2452.7 X-59.748 Y-73.686 E6.41775
G1 F2672.9 X-59.858 Y-73.116 E6.43335
G1 F2839.9 X-59.863 Y-72.424 E6.45084
G1 F3008.1 X-59.751 Y-71.822 E6.46545
G1 F3072.4 X-59.605 Y-71.426 E6.47531
G1 F3083.3 X-59.261 Y-70.806 E6.49182
G1 F3116.7 X-58.73 Y-70.21 E6.51021
G1 F3072.4 X-58.23 Y-69.835 E6.52481
G1 F3050.7 X-57.688 Y-69.575 E6.53895
G1 F3094.4 X-57.2 Y-69.429 E6.55077
G1 F3116.7 X-56.585 Y-69.345 E6.56507
G1 F3094.4 X-55.913 Y-69.384 E6.58068
G1 F3050.7 X-55.323 Y-69.527 E6.59497
G1 F3094.4 X-54.709 Y-69.8 E6.61056
G1 F3105.5 X-54.203 Y-70.154 E6.62483
G0 F5000 X-53.985 Y-69.892
G1 F2158.3 X-53.451 Y-70.417 E6.64974
G1 X-53.031 Y-71.112 E6.67675
G1 X-52.748 Y-71.82 E6.70211
