;FLAVOR:Marlin
;TIME:1799
;Filament used: 3.27118m
;Layer height: 0.2
;MINX:31.612
;MINY:-8.268
;MINZ:0.1
;MAXX:77.132
;MAXY:51.775
;MAXZ:11.1
;TARGET_MACHINE.NAME:Unknown
;Generated with Cura_SteamEngine 5.7.0
M82 ;absolute extrusion mode
G21 ; millimeter units
G90 ; absolute coordinates
M82 ; E absolute
M140 S60.0
M104 S230.0
M190 S60.0
M109 S220.0
G28 ; home axis
M420 S1 ; enable mesh leveling
; Lower nozzle and move to start position
G1 Z150
G1 X-130 Y0 Z0.4 F3000
; Extrude about 40 mm by printing a 90 degree arc
G3 X0 Y-130 I130 Z0.3 E40 F2700
; Retract and move nozzle up
G92 E0
G1 E-1.5 F1800
G0 Z0.5
G1 E0 F300

G92 E0
G92 E0
G1 F2700 E-6.5
;LAYER_COUNT:53
;LAYER:0
M107
G1 F3000 Z0.7
G0 X34.02 Y1.947 Z0.7
;TYPE:SKIRT
G1 F3000 Z0.1
G1 F2700 E0
G1 F2100 X34.417 Y0.618 E0.02307
G1 X35.504 Y-1.128 E0.05727
G1 X37.151 Y-2.509 E0.09301
G1 X38.768 Y-3.167 E0.12205
G1 X44.816 Y-4.805 E0.22625
G1 X46.661 Y-4.805 E0.25693
G1 X46.821 Y-4.78 E0.25962
G1 X47.818 Y-5.7 E0.28218
G1 X49.119 Y-6.372 E0.30654
G1 X49.76 Y-6.616 E0.31794
G1 X55.904 Y-8.268 E0.42375
G1 X58.121 Y-8.266 E0.46061
G1 X60.054 Y-7.551 E0.49489
G1 X61.451 Y-6.604 E0.52296
G1 X62.16 Y-5.849 E0.54018
G1 X72.525 Y7.746 E0.82448
G1 X72.953 Y8.33 E0.83652
G1 X73.421 Y9.022 E0.85041
G1 X73.799 Y9.621 E0.86219
G1 X74.174 Y10.261 E0.87453
G1 X74.559 Y10.968 E0.88792
G1 X74.917 Y11.698 E0.90144
G1 X75.212 Y12.338 E0.91316
G1 X75.518 Y13.072 E0.92638
G1 X75.785 Y13.778 E0.93893
G1 X76.023 Y14.475 E0.95118
G1 X76.256 Y15.241 E0.9645
G1 X76.465 Y16.021 E0.97793
G1 X76.636 Y16.776 E0.9908
G1 X76.782 Y17.506 E1.00318
G1 X76.905 Y18.283 E1.01626
G1 X76.995 Y19.036 E1.02887
G1 X77.07 Y19.859 E1.04262
G1 X77.118 Y20.656 E1.0559
G1 X77.132 Y21.39 E1.0681
G1 X77.126 Y22.203 E1.08163
G1 X77.089 Y22.953 E1.09411
G1 X77.028 Y23.723 E1.10696
G1 X76.96 Y24.329 E1.1171
G1 X74.776 Y41.264 E1.40106
G1 X74.281 Y42.875 E1.42909
G1 X73.893 Y43.649 E1.44349
G1 X72.776 Y45.007 E1.47273
G1 X72.102 Y45.603 E1.48769
G1 X70.507 Y46.443 E1.51767
G1 X70.011 Y46.625 E1.52646
G1 X63.813 Y48.301 E1.63323
G1 X62.12 Y48.25 E1.6614
G1 X61.976 Y48.227 E1.66382
G1 X60.572 Y49.414 E1.6944
G1 X58.751 Y50.159 E1.72712
G1 X53.139 Y51.626 E1.82358
G1 X51.723 Y51.775 E1.84726
G1 X49.628 Y51.471 E1.88247
G1 X47.52 Y50.305 E1.92253
G1 X46.576 Y49.296 E1.94551
G1 X36.214 Y35.704 E2.22974
G1 X35.749 Y35.065 E2.24288
G1 X35.276 Y34.365 E2.25693
G1 X34.908 Y33.775 E2.26849
G1 X34.49 Y33.053 E2.28237
G1 X34.154 Y32.429 E2.29415
G1 X33.812 Y31.732 E2.30706
G1 X33.5 Y31.041 E2.31967
G1 X33.205 Y30.331 E2.33246
G1 X32.927 Y29.591 E2.3456
G1 X32.666 Y28.811 E2.35928
G1 X32.458 Y28.112 E2.37141
G1 X32.249 Y27.305 E2.38527
G1 X32.107 Y26.664 E2.39619
G1 X31.953 Y25.876 E2.40954
G1 X31.823 Y25.029 E2.42379
G1 X31.737 Y24.291 E2.43615
G1 X31.675 Y23.599 E2.4477
G1 X31.627 Y22.81 E2.46085
G1 X31.612 Y22.06 E2.47332
G1 X31.619 Y21.256 E2.4867
G1 X31.656 Y20.505 E2.4992
G1 X31.718 Y19.733 E2.51208
G1 X31.792 Y19.068 E2.52321
G1 X34.02 Y1.947 E2.81033
G0 F3000 X34.417 Y1.999
G1 F2100 X34.785 Y0.784 E2.83144
G1 X35.81 Y-.862 E2.86369
G1 X37.362 Y-2.163 E2.89737
G1 X38.873 Y-2.781 E2.92452
G1 X44.869 Y-4.405 E3.02782
G1 X46.661 Y-4.405 E3.05762
G1 X46.941 Y-4.346 E3.06238
G1 X48.049 Y-5.37 E3.08747
G1 X49.261 Y-5.998 E3.11017
G1 X49.902 Y-6.242 E3.12158
G1 X55.956 Y-7.868 E3.22583
G1 X58.049 Y-7.866 E3.26063
G1 X59.871 Y-7.192 E3.29294
G1 X61.187 Y-6.3 E3.31938
G1 X61.868 Y-5.575 E3.33592
G1 X72.203 Y7.983 E3.61943
G1 X72.622 Y8.554 E3.63121
G1 X73.083 Y9.235 E3.64488
G1 X73.454 Y9.823 E3.65644
G1 X73.823 Y10.452 E3.66857
G1 X74.2 Y11.144 E3.68168
G1 X74.554 Y11.865 E3.69503
G1 X74.843 Y12.492 E3.70652
G1 X75.144 Y13.213 E3.71951
G1 X75.406 Y13.907 E3.73185
G1 X75.64 Y14.592 E3.74388
G1 X75.87 Y15.345 E3.75698
G1 X76.075 Y16.109 E3.77013
G1 X76.246 Y16.864 E3.78301
G1 X76.387 Y17.569 E3.79496
G1 X76.508 Y18.331 E3.80779
G1 X76.597 Y19.072 E3.8202
G1 X76.671 Y19.883 E3.83375
G1 X76.718 Y20.664 E3.84676
G1 X76.732 Y21.387 E3.85878
G1 X76.727 Y22.183 E3.87202
G1 X76.69 Y22.921 E3.88431
G1 X76.63 Y23.679 E3.89696
G1 X76.563 Y24.278 E3.90698
G1 X74.379 Y41.213 E4.19094
G1 X73.923 Y42.696 E4.21674
G1 X73.555 Y43.43 E4.2304
G1 X72.511 Y44.707 E4.25783
G1 X71.873 Y45.271 E4.27199
G1 X70.369 Y46.067 E4.30029
G1 X69.873 Y46.249 E4.30908
G1 X63.767 Y47.899 E4.41426
G1 X62.132 Y47.85 E4.44146
G1 X61.865 Y47.798 E4.44599
G1 X60.364 Y49.067 E4.47867
G1 X58.65 Y49.772 E4.50949
G1 X53.097 Y51.228 E4.60496
G1 X51.73 Y51.372 E4.62782
G1 X49.758 Y51.086 E4.66096
G1 X47.768 Y49.985 E4.69878
G1 X46.868 Y49.023 E4.72069
G1 X36.537 Y35.469 E5.0041
G1 X36.08 Y34.841 E5.01702
G1 X35.615 Y34.153 E5.03083
G1 X35.254 Y33.575 E5.04216
G1 X34.842 Y32.863 E5.05584
G1 X34.513 Y32.252 E5.06738
G1 X34.176 Y31.567 E5.08008
G1 X33.869 Y30.888 E5.09247
G1 X33.579 Y30.19 E5.10504
G1 X33.306 Y29.464 E5.11794
G1 X33.049 Y28.697 E5.13139
G1 X32.845 Y28.012 E5.14328
G1 X32.64 Y27.218 E5.15692
G1 X32.5 Y26.587 E5.16766
G1 X32.346 Y25.799 E5.18102
G1 X32.22 Y24.983 E5.19475
G1 X32.135 Y24.255 E5.20694
G1 X32.074 Y23.575 E5.21829
G1 X32.027 Y22.802 E5.23117
G1 X32.012 Y22.063 E5.24346
G1 X32.018 Y21.276 E5.25655
G1 X32.055 Y20.537 E5.26885
G1 X32.115 Y19.778 E5.28152
G1 X32.189 Y19.12 E5.29253
G1 X34.417 Y1.999 E5.57965
G0 F3000 X34.8 Y2.115
G1 F2100 X35.152 Y0.952 E5.59986
G1 X36.117 Y-.597 E5.63021
G1 X37.572 Y-1.817 E5.66179
G1 X38.978 Y-2.395 E5.68707
G1 X44.922 Y-4.005 E5.78948
G1 X46.661 Y-4.005 E5.8184
G1 X47.053 Y-3.904 E5.82513
G1 X48.282 Y-5.04 E5.85296
G1 X49.403 Y-5.624 E5.87398
G1 X50.044 Y-5.868 E5.88539
G1 X56.008 Y-7.468 E5.98808
G1 X57.977 Y-7.466 E6.02082
G1 X59.688 Y-6.833 E6.05116
G1 X60.923 Y-5.996 E6.07597
G1 X61.55 Y-5.332 E6.09116
G1 X71.881 Y8.22 E6.37455
G1 X72.291 Y8.778 E6.38606
G1 X72.745 Y9.449 E6.39953
G1 X73.109 Y10.025 E6.41087
G1 X73.472 Y10.644 E6.4228
G1 X73.841 Y11.32 E6.43561
G1 X74.191 Y12.033 E6.44882
G1 X74.474 Y12.646 E6.46004
G1 X74.77 Y13.354 E6.47281
G1 X75.027 Y14.036 E6.48493
G1 X75.261 Y14.721 E6.49696
G1 X75.484 Y15.449 E6.50963
G1 X75.685 Y16.197 E6.52251
G1 X75.854 Y16.943 E6.53523
G1 X75.992 Y17.632 E6.54691
G1 X76.111 Y18.379 E6.55949
G1 X76.199 Y19.108 E6.5717
G1 X76.272 Y19.907 E6.58505
G1 X76.318 Y20.672 E6.59779
G1 X76.332 Y21.384 E6.60963
G1 X76.327 Y22.163 E6.62259
G1 X76.291 Y22.889 E6.63468
G1 X76.232 Y23.635 E6.64712
G1 X76.166 Y24.227 E6.65703
G1 X73.982 Y41.162 E6.94099
G1 X73.565 Y42.517 E6.96457
G1 X73.217 Y43.211 E6.97748
G1 X72.201 Y44.454 E7.00418
G1 X71.645 Y44.939 E7.01645
G1 X70.231 Y45.691 E7.04308
G1 X69.735 Y45.873 E7.05187
G1 X63.721 Y47.497 E7.15546
G1 X62.144 Y47.45 E7.1817
G1 X61.678 Y47.347 E7.18963
G1 X61.493 Y47.589 E7.1947
G1 X60.156 Y48.72 E7.22382
G1 X58.548 Y49.385 E7.25276
G1 X53.055 Y50.83 E7.34722
G1 X51.737 Y50.969 E7.36926
G1 X49.888 Y50.701 E7.40033
G1 X48.016 Y49.665 E7.43591
G1 X47.16 Y48.75 E7.45675
G1 X36.86 Y35.234 E7.73935
G1 X36.411 Y34.617 E7.75204
G1 X35.954 Y33.941 E7.76561
G1 X35.6 Y33.375 E7.77671
G1 X35.194 Y32.673 E7.79019
G1 X34.872 Y32.075 E7.80149
G1 X34.54 Y31.402 E7.81397
G1 X34.238 Y30.735 E7.82614
G1 X33.953 Y30.049 E7.8385
G1 X33.685 Y29.337 E7.85115
G1 X33.432 Y28.583 E7.86438
G1 X33.232 Y27.912 E7.87602
G1 X33.031 Y27.131 E7.88943
G1 X32.891 Y26.5 E7.90018
G1 X32.741 Y25.738 E7.9131
G1 X32.617 Y24.937 E7.92657
G1 X32.533 Y24.219 E7.9386
G1 X32.473 Y23.551 E7.94975
G1 X32.427 Y22.794 E7.96236
G1 X32.412 Y22.066 E7.97447
G1 X32.418 Y21.296 E7.98728
G1 X32.454 Y20.569 E7.99938
G1 X32.513 Y19.823 E8.01183
G1 X32.586 Y19.171 E8.02274
G1 X34.8 Y2.115 E8.30876
G0 F3000 X35.183 Y2.231
G1 F2100 X35.52 Y1.117 E8.32811
G1 X36.422 Y-.33 E8.35647
G1 X37.783 Y-1.471 E8.38601
G1 X39.13 Y-2.025 E8.41023
G1 X44.974 Y-3.605 E8.5109
G1 X46.661 Y-3.605 E8.53896
G1 X47.227 Y-3.432 E8.5488
G1 X47.408 Y-3.688 E8.55401
G1 X48.514 Y-4.71 E8.57906
G1 X49.545 Y-5.25 E8.59841
G1 X50.186 Y-5.494 E8.60982
G1 X56.06 Y-7.068 E8.71095
G1 X57.905 Y-7.066 E8.74163
G1 X59.505 Y-6.474 E8.77
G1 X60.66 Y-5.691 E8.79321
G1 X61.232 Y-5.089 E8.80702
G1 X71.559 Y8.457 E9.09029
G1 X71.96 Y9.003 E9.10155
G1 X72.407 Y9.662 E9.1148
G1 X72.764 Y10.228 E9.12592
G1 X73.121 Y10.836 E9.13765
G1 X73.482 Y11.496 E9.15016
G1 X73.828 Y12.201 E9.16322
G1 X74.105 Y12.801 E9.17421
G1 X74.396 Y13.495 E9.18672
G1 X74.648 Y14.165 E9.19863
G1 X74.882 Y14.85 E9.21067
G1 X75.098 Y15.553 E9.2229
G1 X75.295 Y16.285 E9.2355
G1 X75.462 Y17.022 E9.24807
G1 X75.597 Y17.695 E9.25949
G1 X75.714 Y18.427 E9.27181
G1 X75.801 Y19.144 E9.28382
G1 X75.873 Y19.931 E9.29697
G1 X75.918 Y20.68 E9.30944
G1 X75.932 Y21.382 E9.32112
G1 X75.928 Y22.143 E9.33378
G1 X75.892 Y22.858 E9.34568
G1 X75.835 Y23.59 E9.35789
G1 X75.769 Y24.176 E9.3677
G1 X73.585 Y41.111 E9.65166
G1 X73.208 Y42.337 E9.67299
G1 X72.88 Y42.99 E9.68515
G1 X71.938 Y44.152 E9.71002
G1 X71.416 Y44.607 E9.72154
G1 X70.093 Y45.315 E9.74649
G1 X69.597 Y45.497 E9.75528
G1 X63.675 Y47.095 E9.85728
G1 X62.156 Y47.05 E9.88256
G1 X61.506 Y46.894 E9.89367
G1 X61.235 Y47.284 E9.90157
G1 X59.947 Y48.374 E9.92963
G1 X58.446 Y48.998 E9.95666
G1 X53.013 Y50.432 E10.05011
G1 X51.744 Y50.566 E10.07133
G1 X50.018 Y50.316 E10.10033
G1 X48.264 Y49.345 E10.13367
G1 X47.452 Y48.477 E10.15344
G1 X37.183 Y34.998 E10.43524
G1 X36.742 Y34.393 E10.44769
G1 X36.293 Y33.729 E10.46102
G1 X35.946 Y33.175 E10.47189
G1 X35.546 Y32.484 E10.48517
G1 X35.231 Y31.898 E10.49623
G1 X34.904 Y31.237 E10.50849
G1 X34.607 Y30.582 E10.52045
G1 X34.327 Y29.908 E10.53259
G1 X34.064 Y29.21 E10.545
G1 X33.815 Y28.469 E10.558
G1 X33.619 Y27.812 E10.5694
G1 X33.421 Y27.044 E10.58259
G1 X33.283 Y26.423 E10.59317
G1 X33.136 Y25.677 E10.60581
G1 X33.014 Y24.89 E10.61906
G1 X32.931 Y24.183 E10.63089
G1 X32.872 Y23.527 E10.64185
G1 X32.827 Y22.786 E10.65419
G1 X32.812 Y22.069 E10.66612
G1 X32.817 Y21.316 E10.67864
G1 X32.853 Y20.601 E10.69055
G1 X32.911 Y19.867 E10.70279
G1 X32.983 Y19.222 E10.71358
G1 X35.183 Y2.231 E10.99851
G0 F3000 X35.566 Y2.347
G1 F2100 X35.888 Y1.282 E11.01701
G1 X36.727 Y-0.063 E11.04337
G1 X37.994 Y-1.125 E11.07086
G1 X39.282 Y-1.655 E11.09403
G1 X45.026 Y-3.205 E11.19297
G1 X46.6 Y-3.205 E11.21914
G1 X47.399 Y-2.961 E11.23303
G1 X47.679 Y-3.394 E11.24161
G1 X48.746 Y-4.38 E11.26577
G1 X49.689 Y-4.877 E11.2835
G1 X50.29 Y-5.108 E11.2942
G1 X56.112 Y-6.668 E11.39444
G1 X57.833 Y-6.666 E11.42306
G1 X59.32 Y-6.116 E11.44943
G1 X60.399 Y-5.384 E11.47111
G1 X60.914 Y-4.846 E11.4835
G1 X71.237 Y8.694 E11.76664
G1 X71.629 Y9.227 E11.77765
G1 X72.069 Y9.876 E11.79069
G1 X72.419 Y10.43 E11.80158
G1 X72.77 Y11.028 E11.81312
G1 X73.123 Y11.672 E11.82533
G1 X73.465 Y12.368 E11.83823
G1 X73.736 Y12.956 E11.84899
G1 X74.022 Y13.636 E11.86126
G1 X74.27 Y14.295 E11.87297
G1 X74.5 Y14.967 E11.88478
G1 X74.712 Y15.657 E11.89679
G1 X74.905 Y16.373 E11.90912
G1 X75.07 Y17.101 E11.92153
G1 X75.202 Y17.758 E11.93268
G1 X75.317 Y18.475 E11.94475
G1 X75.403 Y19.181 E11.95658
G1 X75.474 Y19.955 E11.96951
G1 X75.518 Y20.688 E11.98172
G1 X75.532 Y21.38 E11.99323
G1 X75.528 Y22.123 E12.00558
G1 X75.493 Y22.827 E12.01731
G1 X75.437 Y23.545 E12.02928
G1 X75.372 Y24.125 E12.03899
G1 X73.202 Y40.995 E12.32185
G1 X72.85 Y42.158 E12.34206
G1 X72.542 Y42.772 E12.35348
G1 X71.627 Y43.9 E12.37763
G1 X71.189 Y44.275 E12.38722
G1 X69.904 Y44.962 E12.41146
G1 X69.462 Y45.12 E12.41926
G1 X63.629 Y46.693 E12.51973
G1 X62.208 Y46.651 E12.54337
G1 X61.322 Y46.438 E12.55853
G1 X60.977 Y46.979 E12.5692
G1 X59.738 Y48.027 E12.59618
G1 X58.344 Y48.611 E12.62132
G1 X52.971 Y50.034 E12.71375
G1 X51.752 Y50.163 E12.73414
G1 X50.148 Y49.93 E12.76109
G1 X48.512 Y49.025 E12.79218
G1 X47.744 Y48.204 E12.81088
G1 X37.506 Y34.762 E13.09188
G1 X37.073 Y34.169 E13.10409
G1 X36.632 Y33.517 E13.11718
G1 X36.292 Y32.974 E13.12783
G1 X35.898 Y32.295 E13.14089
G1 X35.589 Y31.72 E13.15174
G1 X35.268 Y31.072 E13.16377
G1 X34.976 Y30.429 E13.17551
G1 X34.701 Y29.767 E13.18743
G1 X34.443 Y29.083 E13.19959
G1 X34.198 Y28.354 E13.21238
G1 X34.006 Y27.712 E13.22352
G1 X33.811 Y26.957 E13.23649
G1 X33.675 Y26.346 E13.2469
G1 X33.531 Y25.616 E13.25927
G1 X33.411 Y24.843 E13.27228
G1 X33.329 Y24.147 E13.28394
G1 X33.271 Y23.503 E13.29469
G1 X33.227 Y22.777 E13.30679
G1 X33.212 Y22.072 E13.31851
G1 X33.217 Y21.336 E13.33075
G1 X33.252 Y20.632 E13.34248
G1 X33.308 Y19.912 E13.35449
G1 X33.38 Y19.273 E13.36518
G1 X35.566 Y2.347 E13.649
G0 F3000 X35.949 Y2.463
G1 F2100 X36.256 Y1.449 E13.66662
G1 X37.032 Y0.203 E13.69103
G1 X38.205 Y-.779 E13.71647
G1 X39.434 Y-1.285 E13.73857
G1 X45.078 Y-2.805 E13.83578
G1 X46.542 Y-2.805 E13.86012
G1 X47.581 Y-2.487 E13.87819
G1 X47.95 Y-3.1 E13.89009
G1 X48.977 Y-4.049 E13.91334
G1 X49.876 Y-4.523 E13.93025
G1 X50.394 Y-4.722 E13.93947
G1 X56.164 Y-6.268 E14.03881
G1 X57.761 Y-6.266 E14.06537
G1 X59.137 Y-5.757 E14.08977
G1 X60.137 Y-5.079 E14.10986
G1 X60.596 Y-4.603 E14.12086
G1 X70.915 Y8.931 E14.40389
G1 X71.298 Y9.452 E14.41464
G1 X71.731 Y10.089 E14.42745
G1 X72.074 Y10.633 E14.43815
G1 X72.419 Y11.22 E14.44947
G1 X72.764 Y11.849 E14.4614
G1 X73.102 Y12.535 E14.47412
G1 X73.367 Y13.111 E14.48466
G1 X73.648 Y13.777 E14.49668
G1 X73.892 Y14.425 E14.5082
G1 X74.118 Y15.084 E14.51978
G1 X74.326 Y15.761 E14.53156
G1 X74.515 Y16.461 E14.54362
G1 X74.678 Y17.18 E14.55588
G1 X74.807 Y17.821 E14.56675
G1 X74.92 Y18.524 E14.57859
G1 X75.005 Y19.218 E14.59022
G1 X75.075 Y19.979 E14.60293
G1 X75.118 Y20.696 E14.61488
G1 X75.132 Y21.378 E14.62622
G1 X75.128 Y22.103 E14.63828
G1 X75.094 Y22.796 E14.64982
G1 X75.039 Y23.501 E14.66158
G1 X74.975 Y24.074 E14.67116
G1 X72.819 Y40.879 E14.95292
G1 X72.467 Y42.042 E14.97313
G1 X72.204 Y42.554 E14.9827
G1 X71.316 Y43.648 E15.00613
G1 X70.999 Y43.923 E15.01311
G1 X69.769 Y44.585 E15.03634
G1 X69.327 Y44.743 E15.04415
G1 X63.583 Y46.291 E15.14308
G1 X62.26 Y46.252 E15.16509
G1 X61.139 Y45.983 E15.18426
G1 X60.672 Y46.714 E15.19869
G1 X59.53 Y47.68 E15.22356
G1 X58.241 Y48.224 E15.24683
G1 X52.929 Y49.636 E15.33824
G1 X51.759 Y49.76 E15.3578
G1 X50.278 Y49.545 E15.38269
G1 X48.76 Y48.705 E15.41154
G1 X48.036 Y47.931 E15.42917
G1 X37.829 Y34.526 E15.70936
G1 X37.404 Y33.945 E15.72133
G1 X36.971 Y33.305 E15.73418
G1 X36.638 Y32.773 E15.74462
G1 X36.25 Y32.106 E15.75745
G1 X35.947 Y31.542 E15.7681
G1 X35.632 Y30.907 E15.77989
G1 X35.345 Y30.275 E15.79143
G1 X35.075 Y29.626 E15.80312
G1 X34.822 Y28.956 E15.81503
G1 X34.581 Y28.239 E15.82761
G1 X34.393 Y27.612 E15.83849
G1 X34.201 Y26.87 E15.85124
G1 X34.067 Y26.269 E15.86148
G1 X33.926 Y25.555 E15.87358
G1 X33.808 Y24.796 E15.88636
G1 X33.727 Y24.111 E15.89783
G1 X33.67 Y23.479 E15.90838
G1 X33.627 Y22.768 E15.92023
G1 X33.612 Y22.075 E15.93175
G1 X33.617 Y21.356 E15.94371
G1 X33.651 Y20.663 E15.95525
G1 X33.706 Y19.957 E15.96703
G1 X33.777 Y19.324 E15.97762
G1 X35.949 Y2.463 E16.26034
G0 F3000 X36.332 Y2.579
G1 F2100 X36.624 Y1.614 E16.2771
G1 X37.337 Y0.47 E16.29952
G1 X38.416 Y-.433 E16.32292
G1 X39.586 Y-.915 E16.34396
G1 X45.13 Y-2.405 E16.43943
G1 X46.484 Y-2.405 E16.46195
G1 X47.763 Y-2.013 E16.48419
G1 X48.264 Y-2.846 E16.50036
G1 X49.208 Y-3.718 E16.52173
G1 X50.063 Y-4.169 E16.53781
G1 X50.498 Y-4.336 E16.54556
G1 X56.215 Y-5.868 E16.64398
G1 X57.689 Y-5.866 E16.6685
G1 X58.952 Y-5.399 E16.69089
G1 X59.878 Y-4.771 E16.7095
G1 X60.308 Y-4.325 E16.7198
G1 X70.593 Y9.168 E17.00194
G1 X70.967 Y9.677 E17.01245
G1 X71.393 Y10.302 E17.02503
G1 X71.729 Y10.835 E17.03551
G1 X72.068 Y11.413 E17.04665
G1 X72.405 Y12.026 E17.05828
G1 X72.739 Y12.702 E17.07082
G1 X72.999 Y13.267 E17.08116
G1 X73.274 Y13.918 E17.09292
G1 X73.514 Y14.555 E17.10424
G1 X73.736 Y15.202 E17.11561
G1 X73.94 Y15.865 E17.12715
G1 X74.125 Y16.549 E17.13893
G1 X74.286 Y17.259 E17.15104
G1 X74.412 Y17.885 E17.16166
G1 X74.523 Y18.573 E17.17325
G1 X74.607 Y19.255 E17.18468
G1 X74.676 Y20.003 E17.19717
G1 X74.718 Y20.704 E17.20885
G1 X74.732 Y21.376 E17.22002
G1 X74.728 Y22.084 E17.2318
G1 X74.695 Y22.765 E17.24314
G1 X74.642 Y23.456 E17.25466
G1 X74.578 Y24.023 E17.26415
G1 X72.436 Y40.763 E17.54481
G1 X72.084 Y41.926 E17.56502
G1 X71.868 Y42.333 E17.57268
