;FLAVOR:Marlin
;TIME:131
;Filament used: 0.105881m
;Layer height: 0.2
;MINX:-14.996
;MINY:-7.308
;MINZ:0.1
;MAXX:14.995
;MAXY:7.241
;MAXZ:4.9
;TARGET_MACHINE.NAME:Unknown
;Generated with Cura_SteamEngine 5.7.0
M82 ;absolute extrusion mode
G21 ; millimeter units
G90 ; absolute coordinates
M82 ; E absolute
M140 S60.0
M104 S240.0
M190 S60.0
M109 S220.0
G28 ; home axis
M420 S1 ; enable mesh leveling
; Lower nozzle and move to start position
G1 Z150
G1 X-130 Y0 Z0.4 F3000
; Extrude about 40 mm by printing a 90 degree arc
G3 X0 Y-130 I130 Z0.3 E40 F2700
; Retract and move nozzle up
G92 E0
G1 E-1.5 F1800
G0 Z0.5
G1 E0 F300

G92 E0
G92 E0
G1 F2700 E-6.5
;LAYER_COUNT:25
;LAYER:0
M107
G1 F3000 Z0.7
G0 X1.215 Y-5.273 Z0.7
;TYPE:SKIRT
G1 F3000 Z0.1
G1 F2700 E0
G1 F2100 X4.837 Y-4.563 E0.06138
G1 X11.661 Y-3.356 E0.17663
G1 X12.39 Y-3.217 E0.18897
G1 X12.878 Y-3.084 E0.19738
G1 X13.338 Y-2.875 E0.20578
G1 X13.76 Y-2.596 E0.21419
G1 X14.133 Y-2.255 E0.2226
G1 X14.447 Y-1.859 E0.231
G1 X14.695 Y-1.418 E0.23942
G1 X14.87 Y-.944 E0.24782
G1 X14.969 Y-.448 E0.25623
G1 X14.995 Y0.232 E0.26755
G1 X14.845 Y0.923 E0.27931
G1 X14.662 Y1.394 E0.28771
G1 X14.406 Y1.83 E0.29612
G1 X14.085 Y2.221 E0.30453
G1 X13.707 Y2.556 E0.31293
G1 X13.28 Y2.827 E0.32134
G1 X12.691 Y3.082 E0.33201
G1 X11.898 Y3.238 E0.34546
G1 X4.903 Y4.475 E0.46359
G1 X2.174 Y4.998 E0.5098
G1 X-.48 Y5.583 E0.55499
G1 X-3.164 Y6.257 E0.60101
G1 X-4.229 Y6.56 E0.61943
G1 X-6.195 Y7.093 E0.6533
G1 X-7.069 Y7.229 E0.66801
G1 X-7.961 Y7.241 E0.68285
G1 X-8.558 Y7.193 E0.69281
G1 X-9.41 Y7.043 E0.70719
G1 X-10.044 Y6.862 E0.71816
G1 X-10.786 Y6.565 E0.73145
G1 X-11.276 Y6.318 E0.74058
G1 X-11.784 Y6.005 E0.7505
G1 X-12.468 Y5.487 E0.76477
G1 X-12.838 Y5.139 E0.77321
G1 X-13.38 Y4.54 E0.78665
G1 X-13.909 Y3.809 E0.80165
G1 X-14.164 Y3.351 E0.81037
G1 X-14.527 Y2.549 E0.82501
G1 X-14.738 Y1.911 E0.83619
G1 X-14.915 Y1.1 E0.84999
G1 X-14.989 Y0.446 E0.86094
G1 X-14.996 Y-.368 E0.87447
G1 X-14.942 Y-.984 E0.88476
G1 X-14.775 Y-1.876 E0.89985
G1 X-14.571 Y-2.511 E0.91094
G1 X-14.266 Y-3.228 E0.9239
G1 X-13.844 Y-3.988 E0.93836
G1 X-13.547 Y-4.402 E0.94683
G1 X-12.986 Y-5.066 E0.96128
G1 X-12.531 Y-5.507 E0.97182
G1 X-11.639 Y-6.198 E0.99059
G1 X-10.801 Y-6.64 E1.00634
G1 X-9.915 Y-7.001 E1.02225
G1 X-8.756 Y-7.241 E1.04194
G1 X-8.087 Y-7.308 E1.05312
G1 X-7.284 Y-7.303 E1.06647
G1 X-6.733 Y-7.252 E1.07567
G1 X-5.923 Y-7.105 E1.08936
G1 X-4.126 Y-6.586 E1.12047
G1 X-1.509 Y-5.904 E1.16544
G1 X1.215 Y-5.273 E1.21194
G1 F2700 E-5.28806
;MESH:??????????????????.stl
G0 F3000 X0.572 Y-1.641
G0 X-3.867 Y-.207
;TYPE:WALL-INNER
G1 F2700 E1.21194
G1 F1260 X-4.734 Y-.441 E1.22688
G1 X-5.735 Y-.77 E1.2444
G1 X-6.603 Y-1.153 E1.26018
G1 X-7.138 Y-1.416 E1.27009
G1 X-7.513 Y-1.511 E1.27653
G1 X-7.859 Y-1.511 E1.28228
G1 X-8.219 Y-1.447 E1.28836
G1 X-8.474 Y-1.323 E1.29308
G1 X-8.743 Y-1.115 E1.29873
G1 X-8.999 Y-.815 E1.30529
G1 X-9.139 Y-.492 E1.31114
G1 X-9.204 Y-.179 E1.31646
G1 X-9.204 Y0.12 E1.32143
G1 X-9.143 Y0.407 E1.32631
G1 X-8.978 Y0.773 E1.33299
G1 X-8.687 Y1.109 E1.34038
G1 X-8.471 Y1.249 E1.34466
G1 X-8.132 Y1.389 E1.35076
G1 X-7.592 Y1.451 E1.3598
G1 X-7.264 Y1.379 E1.36538
G1 X-6.068 Y0.841 E1.38719
G1 X-5.314 Y0.554 E1.40061
G1 X-4.577 Y0.321 E1.41346
G1 X-3.742 Y0.115 E1.42777
G1 X-2.899 Y-0.038 E1.44201
G1 X-3.867 Y-.207 E1.45836
G0 F3000 X-3.787 Y-.599
G1 F2100 X-4.63 Y-.827 E1.47288
G1 X-5.595 Y-1.144 E1.48977
G1 X-6.531 Y-1.561 E1.50681
G1 X-6.984 Y-1.786 E1.51522
G1 X-7.472 Y-1.91 E1.5236
G1 X-7.893 Y-1.912 E1.5306
G1 X-8.324 Y-1.834 E1.53788
G1 X-8.689 Y-1.662 E1.54459
G1 X-9.018 Y-1.408 E1.5515
G1 X-9.353 Y-1.003 E1.56024
G1 X-9.523 Y-.613 E1.56732
G1 X-9.604 Y-.22 E1.57399
G1 X-9.604 Y0.162 E1.58035
G1 X-9.526 Y0.53 E1.5866
G1 X-9.299 Y1.012 E1.59546
G1 X-8.967 Y1.395 E1.60389
G1 X-8.656 Y1.606 E1.61014
G1 X-8.245 Y1.775 E1.61753
G1 X-7.848 Y1.849 E1.62425
G1 X-7.569 Y1.851 E1.62889
G1 X-7.131 Y1.758 E1.63633
G1 X-5.904 Y1.205 E1.65871
G1 X-5.175 Y0.929 E1.67168
G1 X-4.317 Y0.664 E1.68661
G1 X-3.519 Y0.477 E1.70024
G1 X-.602 Y-0.038 E1.7495
G1 X-3.787 Y-.599 E1.80328
G0 F3000 X-3.613 Y-.975
G1 F2100 X-4.526 Y-1.213 E1.81897
G1 X-5.451 Y-1.519 E1.83518
G1 X-6.353 Y-1.919 E1.85159
G1 X-6.831 Y-2.157 E1.86047
G1 X-7.432 Y-2.31 E1.87078
G1 X-7.928 Y-2.313 E1.87903
G1 X-8.428 Y-2.221 E1.88748
G1 X-8.904 Y-2.002 E1.8962
G1 X-9.293 Y-1.702 E1.90437
G1 X-9.678 Y-1.261 E1.9141
G1 X-9.906 Y-.734 E1.92365
G1 X-10.004 Y-.26 E1.9317
G1 X-10.004 Y0.204 E1.93942
G1 X-9.909 Y0.653 E1.94705
G1 X-9.669 Y1.196 E1.95692
G1 X-9.248 Y1.682 E1.96761
G1 X-8.84 Y1.963 E1.97585
G1 X-8.359 Y2.16 E1.9845
G1 X-7.887 Y2.248 E1.99248
G1 X-7.546 Y2.251 E1.99815
G1 X-6.999 Y2.137 E2.00744
G1 X-5.739 Y1.57 E2.03042
G1 X-5.036 Y1.304 E2.04292
G1 X-4.224 Y1.053 E2.05706
G1 X-3.45 Y0.871 E2.07028
G1 X1.694 Y-0.038 E2.15715
G1 X-3.613 Y-.975 E2.24677
G0 F3000 X-3.665 Y-1.396
G1 F2100 X-4.499 Y-1.623 E2.26114
G1 X-5.243 Y-1.871 E2.27419
G1 X-6.118 Y-2.251 E2.29005
G1 X-6.677 Y-2.527 E2.30042
G1 X-7.391 Y-2.709 E2.31267
G1 X-7.962 Y-2.715 E2.32217
G1 X-8.533 Y-2.608 E2.33183
G1 X-9.119 Y-2.341 E2.34254
G1 X-9.568 Y-1.996 E2.35195
G1 X-10.018 Y-1.478 E2.36337
G1 X-10.29 Y-.855 E2.37467
G1 X-10.404 Y-.301 E2.38408
G1 X-10.404 Y0.245 E2.39316
G1 X-10.292 Y0.776 E2.40218
G1 X-10.012 Y1.412 E2.41374
G1 X-9.529 Y1.968 E2.42599
G1 X-9.025 Y2.319 E2.4362
G1 X-8.473 Y2.546 E2.44613
G1 X-7.925 Y2.648 E2.4554
G1 X-7.279 Y2.621 E2.46615
G1 X-6.867 Y2.516 E2.47322
G1 X-5.575 Y1.935 E2.49678
G1 X-4.896 Y1.679 E2.50884
G1 X-4.131 Y1.442 E2.52216
G1 X-3.38 Y1.265 E2.53499
G1 X3.99 Y-0.038 E2.65946
G1 X-3.665 Y-1.396 E2.78875
G0 F3000 X-3.561 Y-1.782
M104 S220
G1 F2100 X-4.373 Y-2.003 E2.80274
G1 X-5.212 Y-2.288 E2.81748
G1 X-5.997 Y-2.636 E2.83176
G1 X-6.524 Y-2.897 E2.84154
G1 X-6.895 Y-3.022 E2.84805
G1 X-7.35 Y-3.109 E2.85575
G1 X-7.997 Y-3.116 E2.86651
G1 X-8.638 Y-2.996 E2.87736
G1 X-9.334 Y-2.68 E2.89007
G1 X-9.844 Y-2.289 E2.90076
G1 X-10.271 Y-1.797 E2.91159
G1 X-10.417 Y-1.566 E2.91614
G1 X-10.673 Y-.976 E2.92683
G1 X-10.804 Y-.342 E2.9376
G1 X-10.804 Y0.287 E2.94806
G1 X-10.674 Y0.899 E2.95846
G1 X-10.407 Y1.507 E2.96951
G1 X-10.264 Y1.732 E2.97394
G1 X-9.81 Y2.255 E2.98546
G1 X-9.21 Y2.676 E2.99765
G1 X-8.587 Y2.931 E3.00884
G1 X-7.964 Y3.048 E3.01938
G1 X-7.205 Y3.015 E3.03202
G1 X-6.735 Y2.896 E3.04008
G1 X-5.411 Y2.3 E3.06423
G1 X-4.757 Y2.054 E3.07585
G1 X-4.037 Y1.831 E3.08838
G1 X-3.311 Y1.659 E3.10079
G1 X6.286 Y-0.038 E3.26286
G1 X-3.561 Y-1.782 E3.42917
G0 F3000 X-3.457 Y-2.168
G1 F2100 X-4.213 Y-2.372 E3.44219
G1 X-4.99 Y-2.63 E3.45581
G1 X-5.819 Y-2.994 E3.47086
G1 X-6.371 Y-3.268 E3.48111
G1 X-6.793 Y-3.41 E3.48852
G1 X-7.31 Y-3.508 E3.49727
G1 X-8.032 Y-3.517 E3.50927
G1 X-8.742 Y-3.383 E3.52129
G1 X-9.069 Y-3.268 E3.52705
G1 X-9.549 Y-3.019 E3.53605
G1 X-10.119 Y-2.583 E3.54798
G1 X-10.593 Y-2.037 E3.56001
G1 X-10.772 Y-1.754 E3.56557
G1 X-11.056 Y-1.098 E3.57746
G1 X-11.204 Y-.382 E3.58962
G1 X-11.204 Y0.329 E3.60144
G1 X-11.057 Y1.023 E3.61324
G1 X-10.761 Y1.696 E3.62547
G1 X-10.585 Y1.972 E3.63091
G1 X-9.997 Y2.649 E3.64582
G1 X-9.394 Y3.033 E3.65771
G1 X-8.701 Y3.317 E3.67017
G1 X-8.002 Y3.448 E3.68199
G1 X-7.476 Y3.451 E3.69074
G1 X-7.131 Y3.409 E3.69652
G1 X-6.603 Y3.275 E3.70558
G1 X-5.247 Y2.664 E3.73031
G1 X-4.618 Y2.429 E3.74148
G1 X-3.944 Y2.22 E3.75322
G1 X-3.276 Y2.06 E3.76464
G1 X8.582 Y-0.038 E3.9649
G1 X-3.457 Y-2.168 E4.16822
G0 F3000 X-3.353 Y-2.554
;TYPE:WALL-OUTER
G1 F2100 X-4.12 Y-2.762 E4.17945
G1 X-4.864 Y-3.01 E4.19054
G1 X-5.641 Y-3.352 E4.20254
G1 X-6.217 Y-3.638 E4.21163
G1 X-6.691 Y-3.798 E4.2187
G1 X-7.269 Y-3.908 E4.22702
G1 X-8.066 Y-3.919 E4.23829
G1 X-8.847 Y-3.77 E4.24953
G1 X-9.228 Y-3.636 E4.25523
G1 X-9.764 Y-3.358 E4.26377
G1 X-10.394 Y-2.877 E4.27497
G1 X-10.915 Y-2.276 E4.28622
G1 X-11.126 Y-1.942 E4.2918
G1 X-11.44 Y-1.219 E4.30294
G1 X-11.604 Y-.423 E4.31443
G1 X-11.604 Y0.371 E4.32566
G1 X-11.44 Y1.146 E4.33685
G1 X-11.115 Y1.885 E4.34827
G1 X-10.907 Y2.212 E4.35374
G1 X-10.371 Y2.828 E4.36529
G1 X-10.081 Y3.07 E4.37062
G1 X-9.579 Y3.389 E4.37903
G1 X-8.815 Y3.703 E4.39071
G1 X-8.04 Y3.848 E4.40185
G1 X-7.452 Y3.851 E4.41017
G1 X-7.057 Y3.803 E4.41579
G1 X-6.471 Y3.654 E4.42434
G1 X-5.064 Y3.022 E4.44614
G1 X-4.468 Y2.801 E4.45513
G1 X-3.851 Y2.609 E4.46426
G1 X-3.171 Y2.447 E4.47414
G1 X10.879 Y-0.038 E4.67583
G1 X-3.353 Y-2.554 E4.88012
G0 F3000 X-3.545 Y-2.606
G0 X-3.726 Y-1.934
G0 X-5.774 Y-.676
G0 X-5.855 Y-.429
;TYPE:SKIN
G1 F1260 X-4.642 Y-0.029 E4.90137
G1 X-5.431 Y0.212 E4.91508
G1 X-6.203 Y0.505 E4.92882
G1 X-7.38 Y1.033 E4.95027
G1 X-7.611 Y1.085 E4.95421
G1 X-8.031 Y1.037 E4.96124
G1 X-8.443 Y0.838 E4.96885
G1 X-8.676 Y0.564 E4.97483
G1 X-8.797 Y0.293 E4.97976
G1 X-8.844 Y-.142 E4.98704
G1 X-8.685 Y-.63 E4.99557
G1 X-8.486 Y-.854 E5.00056
G1 X-8.117 Y-1.096 E5.0079
G1 X-7.553 Y-1.148 E5.01732
G1 X-7.262 Y-1.075 E5.0223
G1 X-6.781 Y-.836 E5.03124
G1 X-5.855 Y-.429 E5.04806
G0 F3000 X-5.596 Y0.061
G1 F2100 X-5.885 Y-.228 E5.05485
G0 F3000 X-6.006 Y0.216
G1 F2100 X-6.889 Y-.666 E5.07561
G1 X-6.959 Y-.736
G0 F3000 X-7.722 Y-.934
G1 F2100 X-6.411 Y0.378 E5.10645
G0 F3000 X-6.801 Y0.553
G1 F2100 X-8.176 Y-.822 E5.13879
G0 F3000 X-8.48 Y-.561
G1 F2100 X-7.191 Y0.728 E5.16911
G0 F3000 X-7.607 Y0.878
G1 F2100 X-8.635 Y-.15 E5.19328
G1 X-8.705 Y-.22
G0 F3000 X-9.37 Y-.357
G1 F2700 E-1.30672
;MESH:NONMESH
G0 F3000 X-9.37 Y-.357 Z0.3
G0 X-8.388 Y-1.187
G0 X-7.594 Y-1.344
G0 X-3.58 Y-.31
;TIME_ELAPSED:12.773808
;LAYER:1
M106 S255
;TYPE:WALL-INNER
;MESH:??????????????????.stl
G1 F2700 E5.19328
G1 F3000 X-4.569 Y-.541 E5.22706
G1 X-5.62 Y-.899 E5.26399
G1 X-6.287 Y-1.173 E5.28798
G1 X-7.042 Y-1.54 E5.3159
G1 X-7.432 Y-1.655 E5.32942
G1 X-7.809 Y-1.679 E5.34199
G1 X-8.291 Y-1.582 E5.35834
G1 X-8.674 Y-1.369 E5.37291
G1 X-8.903 Y-1.17 E5.383
G1 X-9.163 Y-.833 E5.39716
G1 X-9.312 Y-.441 E5.41111
G1 X-9.365 Y-0.091 E5.42288
G1 X-9.32 Y0.339 E5.43726
G1 X-9.192 Y0.702 E5.45007
G1 X-9.049 Y0.931 E5.45905
G1 X-8.802 Y1.205 E5.47131
G1 X-8.565 Y1.372 E5.48096
G1 X-8.236 Y1.526 E5.49304
G1 X-7.697 Y1.598 E5.51113
G1 X-7.112 Y1.498 E5.53087
G1 X-6.408 Y1.156 E5.5569
G1 X-5.254 Y0.674 E5.59849
G1 X-3.845 Y0.281 E5.64715
G1 X-2.036 Y-0.038 E5.70824
G1 X-3.58 Y-.31 E5.76039
G0 F4000 X-3.207 Y-0.026
G0 X-3.766 Y0.674
G1 F3000 X0.265 Y-0.038 E5.89653
G1 X-3.511 Y-.704 E6.02406
G1 X-4.461 Y-.926 E6.05651
G1 X-5.468 Y-1.269 E6.09189
G1 X-6.072 Y-1.516 E6.1136
G1 X-6.891 Y-1.912 E6.14385
G1 X-7.374 Y-2.051 E6.16057
G1 X-7.856 Y-2.078 E6.17663
G1 X-8.415 Y-1.971 E6.19556
G1 X-8.904 Y-1.699 E6.21417
G1 X-9.195 Y-1.447 E6.22697
G1 X-9.532 Y-.993 E6.24578
G1 X-9.7 Y-.546 E6.26166
G1 X-9.766 Y-0.077 E6.27741
G1 X-9.714 Y0.418 E6.29397
G1 X-9.546 Y0.889 E6.3106
G1 X-9.373 Y1.167 E6.32149
G1 X-9.054 Y1.517 E6.33724
G1 X-8.772 Y1.716 E6.34872
G1 X-8.346 Y1.911 E6.3643
G1 X-8.028 Y1.98 E6.37512
G1 X-7.683 Y2 E6.38662
G1 X-6.968 Y1.873 E6.41077
G1 X-6.24 Y1.519 E6.4377
G1 X-5.112 Y1.049 E6.47834
G1 X-3.766 Y0.674 E6.52481
G0 F4000 X-3.669 Y1.063
G1 F3000 X2.565 Y-0.038 E6.73537
G1 X-3.441 Y-1.098 E6.93821
G1 X-4.344 Y-1.31 E6.96906
G1 X-5.316 Y-1.639 E7.00319
G1 X-5.964 Y-1.905 E7.02649
G1 X-6.74 Y-2.284 E7.05522
G1 X-7.315 Y-2.447 E7.07509
G1 X-7.903 Y-2.476 E7.09468
G1 X-8.555 Y-2.35 E7.11676
G1 X-9.135 Y-2.028 E7.13883
G1 X-9.487 Y-1.723 E7.15432
G1 X-9.872 Y-1.226 E7.17523
G1 X-10.087 Y-.652 E7.19561
G1 X-10.167 Y-0.063 E7.21538
G1 X-10.108 Y0.497 E7.23411
G1 X-9.901 Y1.076 E7.25456
G1 X-9.697 Y1.404 E7.26741
G1 X-9.306 Y1.828 E7.28659
G1 X-8.978 Y2.06 E7.29996
G1 X-8.456 Y2.297 E7.31902
G1 X-8.081 Y2.378 E7.33178
G1 X-7.669 Y2.401 E7.34551
G1 X-7.119 Y2.331 E7.36395
G1 X-6.825 Y2.248 E7.37411
G1 X-6.072 Y1.882 E7.40196
G1 X-4.992 Y1.432 E7.44087
G1 X-3.669 Y1.063 E7.48655
G0 F4000 X-3.582 Y1.453
G1 F3000 X4.865 Y-0.039 E7.77185
G1 X-3.372 Y-1.492 E8.05004
G1 X-4.295 Y-1.715 E8.08163
G1 X-5.164 Y-2.009 E8.11214
G1 X-5.802 Y-2.271 E8.13508
G1 X-6.589 Y-2.655 E8.1642
G1 X-7.257 Y-2.844 E8.18729
G1 X-7.95 Y-2.874 E8.21037
G1 X-8.692 Y-2.731 E8.2355
G1 X-9.365 Y-2.358 E8.26109
G1 X-9.779 Y-2 E8.27929
G1 X-10.225 Y-1.424 E8.30352
G1 X-10.475 Y-.758 E8.32718
G1 X-10.568 Y-0.049 E8.35097
G1 X-10.501 Y0.576 E8.37187
G1 X-10.255 Y1.264 E8.39618
G1 X-10.021 Y1.64 E8.41091
G1 X-9.558 Y2.14 E8.43357
G1 X-9.185 Y2.404 E8.44877
G1 X-8.566 Y2.682 E8.47134
G1 X-8.135 Y2.775 E8.486
G1 X-7.654 Y2.802 E8.50203
G1 X-7.038 Y2.724 E8.52268
G1 X-6.682 Y2.623 E8.53499
G1 X-5.904 Y2.245 E8.56376
G1 X-4.854 Y1.809 E8.60157
G1 X-3.582 Y1.453 E8.6455
G0 F4000 X-3.452 Y1.836
G1 F3000 X7.165 Y-0.039 E9.00409
G1 X-3.302 Y-1.886 E9.3576
G1 X-4.169 Y-2.095 E9.38727
G1 X-4.948 Y-2.355 E9.41458
G1 X-5.616 Y-2.626 E9.43856
G1 X-6.438 Y-3.027 E9.46898
G1 X-7.198 Y-3.24 E9.49523
G1 X-7.857 Y-3.299 E9.51723
G1 X-8.686 Y-3.14 E9.54531
G1 X-8.956 Y-3.042 E9.55486
G1 X-9.595 Y-2.688 E9.57916
G1 X-10.07 Y-2.276 E9.60007
G1 X-10.493 Y-1.731 E9.62302
G1 X-10.623 Y-1.503 E9.63175
G1 X-10.862 Y-.863 E9.65447
G1 X-10.984 Y-.173 E9.67778
G1 X-10.895 Y0.654 E9.70544
G1 X-10.759 Y1.113 E9.72136
G1 X-10.609 Y1.451 E9.73366
G1 X-10.345 Y1.876 E9.7503
G1 X-9.923 Y2.372 E9.77196
G1 X-9.391 Y2.748 E9.79363
G1 X-8.676 Y3.068 E9.81969
G1 X-8.189 Y3.173 E9.83625
G1 X-7.64 Y3.204 E9.85454
G1 X-6.958 Y3.117 E9.87741
G1 X-6.539 Y2.998 E9.8919
G1 X-5.736 Y2.608 E9.92159
G1 X-4.725 Y2.187 E9.95801
G1 X-3.452 Y1.836 E10.00193
G0 F4000 X-3.373 Y2.229
G1 F3000 X9.465 Y-0.039 E10.43554
G1 X-3.233 Y-2.28 E10.8644
G1 X-4.042 Y-2.474 E10.89207
G1 X-4.822 Y-2.734 E10.91942
G1 X-5.501 Y-3.013 E10.94384
G1 X-6.287 Y-3.398 E10.97295
G1 X-6.972 Y-3.622 E10.99692
G1 X-7.705 Y-3.686 E11.02139
G1 X-8.045 Y-3.67 E11.03271
G1 X-8.792 Y-3.527 E11.05801
G1 X-9.122 Y-3.408 E11.06967
G1 X-9.826 Y-3.017 E11.09646
G1 X-10.362 Y-2.553 E11.12004
G1 X-10.827 Y-1.954 E11.14526
G1 X-10.986 Y-1.673 E11.156
G1 X-11.25 Y-.969 E11.18101
G1 X-11.357 Y-.356 E11.2017
G1 X-11.37 Y-0.021 E11.21285
G1 X-11.289 Y0.733 E11.23808
G1 X-11.135 Y1.252 E11.25608
G1 X-10.964 Y1.638 E11.27012
G1 X-10.669 Y2.113 E11.28872
G1 X-10.195 Y2.67 E11.31305
G1 X-9.598 Y3.092 E11.33736
G1 X-9.107 Y3.339 E11.35564
G1 X-8.786 Y3.453 E11.36697
G1 X-8.243 Y3.571 E11.38545
G1 X-7.626 Y3.605 E11.40601
G1 X-6.877 Y3.51 E11.43112
G1 X-6.395 Y3.373 E11.44778
G1 X-5.546 Y2.961 E11.47917
G1 X-4.63 Y2.581 E11.51216
G1 X-3.373 Y2.229 E11.55557
G0 F4000 X-3.303 Y2.623
;TYPE:WALL-OUTER
G1 F2200 X11.739 Y-0.035 E11.98741
G1 X11.723 Y-0.047 E11.98798
G1 X-3.163 Y-2.674 E12.41533
G1 X-3.916 Y-2.854 E12.43721
G1 X-4.708 Y-3.119 E12.46083
G1 X-5.325 Y-3.372 E12.47968
G1 X-6.136 Y-3.77 E12.50522
G1 X-6.7 Y-3.954 E12.52199
G1 X-7.082 Y-4.033 E12.53302
G1 X-7.697 Y-4.087 E12.55047
G1 X-8.092 Y-4.068 E12.56165
G1 X-8.898 Y-3.914 E12.58485
G1 X-9.288 Y-3.773 E12.59658
G1 X-10.056 Y-3.347 E12.6214
G1 X-10.654 Y-2.829 E12.64377
G1 X-11.161 Y-2.176 E12.66714
G1 X-11.35 Y-1.843 E12.67797
G1 X-11.638 Y-1.075 E12.70116
G1 X-11.756 Y-.398 E12.72058
G1 X-11.771 Y-0.007 E12.73165
G1 X-11.683 Y0.812 E12.75493
G1 X-11.511 Y1.39 E12.77198
G1 X-11.318 Y1.826 E12.78546
G1 X-10.993 Y2.349 E12.80287
G1 X-10.599 Y2.813 E12.82008
G1 X-10.314 Y3.076 E12.83104
G1 X-9.804 Y3.436 E12.84869
G1 X-9.265 Y3.707 E12.86575
G1 X-8.896 Y3.839 E12.87683
G1 X-8.297 Y3.969 E12.89416
G1 X-7.612 Y4.007 E12.91355
G1 X-6.797 Y3.903 E12.93678
G1 X-6.252 Y3.748 E12.9528
G1 X-5.393 Y3.331 E12.97979
G1 X-4.454 Y2.943 E13.00852
G1 X-3.303 Y2.623 E13.04229
G0 F4000 X-3.107 Y2.589
G0 X-3.251 Y1.909
G0 X-5.276 Y0.575
G0 X-5.35 Y0.327
;TYPE:SKIN
G1 F1560 X-6.557 Y0.827 E13.08574
G1 X-7.23 Y1.155 E13.11064
G1 X-7.7 Y1.233 E13.12649
G1 X-8.13 Y1.175 E13.14092
G1 X-8.566 Y0.926 E13.15762
G1 X-8.873 Y0.527 E13.17437
G1 X-8.963 Y0.268 E13.18349
G1 X-9.002 Y-0.097 E13.1957
G1 X-8.961 Y-.34 E13.20389
G1 X-8.847 Y-.649 E13.21485
G1 X-8.634 Y-.925 E13.22644
G1 X-8.465 Y-1.071 E13.23387
G1 X-8.15 Y-1.245 E13.24584
G1 X-7.776 Y-1.318 E13.25851
G1 X-7.488 Y-1.294 E13.26813
G1 X-7.172 Y-1.204 E13.27905
G1 X-6.436 Y-.844 E13.3063
G1 X-5.76 Y-.566 E13.33061
