;FLAVOR:Marlin
;TIME:2268
;Filament used: 2.54373m
;Layer height: 0.2
;MINX:-44.748
;MINY:-19.242
;MINZ:0.1
;MAXX:44.742
;MAXY:14.237
;MAXZ:5.5
;TARGET_MACHINE.NAME:Unknown
;Generated with Cura_SteamEngine 5.7.0
M82 ;absolute extrusion mode
G21 ; millimeter units
G90 ; absolute coordinates
M82 ; E absolute
M140 S60.0
M104 S250.0
M190 S60.0
M109 S220.0
G28 ; home axis
M420 S1 ; enable mesh leveling
; Lower nozzle and move to start position
G1 Z150
G1 X-130 Y0 Z0.4 F3000
; Extrude about 40 mm by printing a 90 degree arc
G3 X0 Y-130 I130 Z0.3 E40 F2700
; Retract and move nozzle up
G92 E0
G1 E-1.5 F1800
G0 Z0.5
G1 E0 F300

G92 E0
G92 E0
G1 F2700 E-6.5
;LAYER_COUNT:25
;LAYER:0
M107
G1 F3000 Z0.7
G0 X-4.271 Y9.081 Z0.7
;TYPE:SKIRT
G1 F3000 Z0.1
G1 F2700 E0
G1 F2100 X-6.963 Y8.67 E0.04529
G1 X-9.735 Y8.327 E0.09174
G1 X-12.408 Y8.071 E0.13639
G1 X-15.152 Y7.889 E0.18213
G1 X-17.905 Y7.782 E0.22794
G1 X-20.281 Y7.753 E0.26746
G1 X-39.717 Y7.75 E0.59068
G1 X-40.401 Y7.74 E0.60206
G1 X-41.302 Y7.619 E0.61718
G1 X-41.997 Y7.381 E0.62939
G1 X-42.481 Y7.132 E0.63844
G1 X-43.201 Y6.623 E0.65311
G1 X-43.717 Y6.088 E0.66547
G1 X-44.114 Y5.507 E0.67717
G1 X-44.351 Y5.061 E0.68557
G1 X-44.591 Y4.358 E0.69792
G1 X-44.732 Y3.746 E0.70837
G1 X-44.748 Y2.892 E0.72257
G1 X-44.742 Y-7.723 E0.8991
G1 X-44.734 Y-8.259 E0.90801
G1 X-44.649 Y-9.054 E0.92131
G1 X-44.541 Y-9.548 E0.92972
G1 X-44.371 Y-10.005 E0.93783
G1 X-43.978 Y-10.743 E0.95173
G1 X-43.536 Y-11.294 E0.96348
G1 X-43.038 Y-11.748 E0.97469
G1 X-42.631 Y-12.049 E0.98311
G1 X-42.116 Y-12.309 E0.9927
G1 X-41.609 Y-12.51 E1.00177
G1 X-41.126 Y-12.658 E1.01017
G1 X-40.485 Y-12.735 E1.02091
G1 X-39.558 Y-12.75 E1.03633
G1 X-20.294 Y-12.754 E1.35669
G1 X-17.495 Y-12.795 E1.40324
G1 X-14.779 Y-12.91 E1.44845
G1 X-12.04 Y-13.104 E1.49411
G1 X-9.323 Y-13.376 E1.53952
G1 X-6.597 Y-13.724 E1.58522
G1 X-4.291 Y-14.082 E1.62403
G1 X24.637 Y-18.919 E2.11178
G1 X25.649 Y-19.075 E2.12881
G1 X26.309 Y-19.156 E2.13987
G1 X27.152 Y-19.221 E2.15393
G1 X28.037 Y-19.242 E2.16865
G1 X29.005 Y-19.212 E2.18476
G1 X29.776 Y-19.149 E2.19762
G1 X30.555 Y-19.047 E2.21069
G1 X31.469 Y-18.88 E2.22614
G1 X32.403 Y-18.653 E2.24212
G1 X33.199 Y-18.416 E2.25594
G1 X33.816 Y-18.2 E2.26681
G1 X34.697 Y-17.846 E2.2826
G1 X35.558 Y-17.441 E2.29842
G1 X36.217 Y-17.088 E2.31085
G1 X37.01 Y-16.613 E2.32623
G1 X37.678 Y-16.162 E2.33963
G1 X38.271 Y-15.725 E2.35188
G1 X38.947 Y-15.169 E2.36644
G1 X39.694 Y-14.485 E2.38328
G1 X40.298 Y-13.864 E2.39769
G1 X40.832 Y-13.257 E2.41113
G1 X41.418 Y-12.516 E2.42684
G1 X41.876 Y-11.872 E2.43998
G1 X42.362 Y-11.109 E2.45503
G1 X42.77 Y-10.389 E2.46879
G1 X43.164 Y-9.602 E2.48343
G1 X43.502 Y-8.83 E2.49744
G1 X43.803 Y-8.035 E2.51158
G1 X44.068 Y-7.21 E2.52599
G1 X44.248 Y-6.545 E2.53745
G1 X44.462 Y-5.559 E2.55422
G1 X44.599 Y-4.703 E2.56864
G1 X44.689 Y-3.856 E2.58281
G1 X44.736 Y-3.019 E2.59675
G1 X44.742 Y-2.213 E2.61015
G1 X44.691 Y-1.066 E2.62924
G1 X44.524 Y0.2 E2.65048
G1 X44.327 Y1.215 E2.66768
G1 X44.101 Y2.09 E2.6827
G1 X43.859 Y2.87 E2.69629
G1 X43.583 Y3.619 E2.70956
G1 X43.19 Y4.543 E2.72626
G1 X42.897 Y5.141 E2.73733
G1 X42.434 Y5.986 E2.75336
G1 X42.011 Y6.666 E2.76667
G1 X41.514 Y7.388 E2.78125
G1 X41.076 Y7.956 E2.79318
G1 X40.585 Y8.543 E2.80591
G1 X39.944 Y9.234 E2.82158
G1 X39.262 Y9.892 E2.83734
G1 X38.847 Y10.255 E2.84651
G1 X37.922 Y10.987 E2.86613
G1 X37.175 Y11.504 E2.88123
G1 X36.589 Y11.87 E2.89272
G1 X35.731 Y12.351 E2.90908
G1 X35.003 Y12.708 E2.92257
G1 X34.078 Y13.1 E2.93927
G1 X33.434 Y13.337 E2.95068
G1 X32.775 Y13.548 E2.96219
G1 X32.065 Y13.739 E2.97442
G1 X31.141 Y13.943 E2.99016
G1 X30.105 Y14.108 E3.0076
G1 X29.091 Y14.206 E3.02454
G1 X28.422 Y14.237 E3.03568
G1 X27.355 Y14.229 E3.05342
G1 X26.706 Y14.191 E3.06424
G1 X25.784 Y14.094 E3.07965
G1 X24.626 Y13.917 E3.09913
G1 X-4.271 Y9.081 E3.58638
G1 F2700 E-2.91362
;MESH:??????????????.stl
G0 F3000 X-3.673 Y5.513
G0 X2.887 Y4.213
G0 X2.525 Y3.095
;TYPE:WALL-INNER
G1 F2700 E3.58638
G1 F2100 X2.292 Y2.234 E3.60121
G1 X2.188 Y1.582 E3.61219
G1 X2.158 Y1.048 E3.62108
G1 X2.205 Y0.097 E3.63692
G1 X2.485 Y-.962 E3.65514
G1 X2.784 Y-1.666 E3.66786
G1 X3.317 Y-2.496 E3.68426
G1 X2.954 Y-3.052 E3.6953
G1 X2.574 Y-3.813 E3.70945
G1 X2.326 Y-4.552 E3.72241
G1 X2.188 Y-5.421 E3.73704
G1 X2.158 Y-5.952 E3.74589
G1 X2.19 Y-6.624 E3.75708
G1 X2.274 Y-7.165 E3.76618
G1 X2.442 Y-7.8 E3.7771
G1 X2.765 Y-8.636 E3.79201
G1 X3.296 Y-9.467 E3.80841
G1 X-10.819 Y-7.107 E4.0464
G1 X-11.337 Y-7.044 E4.05508
G1 X-10.969 Y-6.754 E4.06287
G1 X-10.396 Y-6.104 E4.07728
G1 X-10.088 Y-5.671 E4.08612
G1 X-9.635 Y-4.873 E4.10138
G1 X-9.36 Y-4.036 E4.11603
G1 X-9.164 Y-3.112 E4.13174
G1 X-9.164 Y-1.904 E4.15183
G1 X-9.353 Y-.987 E4.1674
G1 X-9.629 Y-.133 E4.18232
G1 X-10.077 Y0.658 E4.19744
G1 X-10.39 Y1.096 E4.20639
G1 X-10.838 Y1.606 E4.21768
G1 X-11.309 Y2.039 E4.22832
G1 X-10.643 Y2.133 E4.23951
G1 X3.294 Y4.466 E4.4745
G1 X2.944 Y3.924 E4.48523
G1 X2.525 Y3.095 E4.50068
G0 F3000 X2.9 Y2.952
G1 F2100 X2.687 Y2.171 E4.51414
G1 X2.583 Y1.519 E4.52512
G1 X2.558 Y1.067 E4.53265
G1 X2.602 Y0.156 E4.54782
G1 X2.854 Y-.789 E4.56408
G1 X3.133 Y-1.469 E4.57631
G1 X3.657 Y-2.287 E4.59246
G1 X3.83 Y-2.497 E4.59699
G1 X3.385 Y-3.087 E4.60928
G1 X2.93 Y-3.985 E4.62602
G1 X2.714 Y-4.657 E4.63776
G1 X2.583 Y-5.483 E4.65166
G1 X2.558 Y-5.933 E4.65916
G1 X2.59 Y-6.605 E4.67035
G1 X2.661 Y-7.062 E4.67804
G1 X2.829 Y-7.698 E4.68898
G1 X3.122 Y-8.452 E4.70243
G1 X3.597 Y-9.196 E4.71711
G1 X3.87 Y-9.542 E4.72444
G1 X4.372 Y-10.053 E4.73635
G1 X-10.992 Y-7.487 E4.99539
G1 X-11.806 Y-7.395 E5.00902
G1 X-12.556 Y-7.354 E5.02151
G1 X-12.01 Y-7.049 E5.03191
G1 X-11.286 Y-6.507 E5.04695
G1 X-10.696 Y-5.839 E5.06177
G1 X-10.436 Y-5.473 E5.06924
G1 X-10.005 Y-4.716 E5.08372
G1 X-9.751 Y-3.953 E5.0971
G1 X-9.564 Y-3.071 E5.11209
G1 X-9.564 Y-1.941 E5.13088
G1 X-9.744 Y-1.067 E5.14572
G1 X-9.996 Y-.296 E5.15921
G1 X-10.425 Y0.461 E5.17368
G1 X-10.69 Y0.831 E5.18125
G1 X-11.138 Y1.341 E5.19254
G1 X-11.465 Y1.642 E5.19993
G1 X-11.998 Y2.042 E5.21101
G1 X-12.533 Y2.356 E5.22133
G1 X-11.618 Y2.399 E5.23656
G1 X-10.699 Y2.529 E5.252
G1 X4.367 Y5.052 E5.50603
G1 X3.738 Y4.411 E5.52097
G1 X3.301 Y3.743 E5.53424
G1 X2.9 Y2.952 E5.54899
G0 F3000 X3.275 Y2.807
G1 F2100 X3.082 Y2.108 E5.56105
G1 X2.948 Y1.268 E5.5752
G1 X3 Y0.216 E5.59271
G1 X3.236 Y-.67 E5.60796
G1 X3.489 Y-1.285 E5.61902
G1 X4.022 Y-2.114 E5.63541
G1 X4.384 Y-2.496 E5.64416
G1 X4.06 Y-2.839 E5.65201
G1 X3.665 Y-3.42 E5.66369
G1 X3.308 Y-4.131 E5.67692
G1 X3.104 Y-4.749 E5.68775
G1 X2.949 Y-5.727 E5.70421
G1 X2.998 Y-6.773 E5.72163
G1 X3.215 Y-7.596 E5.73578
G1 X3.483 Y-8.275 E5.74792
G1 X4.033 Y-9.135 E5.7649
G1 X4.621 Y-9.744 E5.77898
G1 X4.909 Y-9.985 E5.78522
G1 F2033.9 X5.547 Y-10.415 E5.79843
G1 F1913.4 X6.172 Y-10.734 E5.81124
G1 F1971.8 X5.641 Y-10.669 E5.82071
G1 F2100 X-10.951 Y-7.896 E6.10047
G1 X-11.829 Y-7.794 E6.11517
G1 X-12.636 Y-7.752 E6.12861
G1 X-13.483 Y-7.752 E6.14269
G1 F1552.7 X-14.148 Y-7.612 E6.15798
G1 X-13.531 Y-7.327 E6.17326
G1 F2100 X-13.161 Y-7.199 E6.17977
G1 X-12.391 Y-6.834 E6.19394
G1 X-11.564 Y-6.218 E6.21109
G1 X-10.878 Y-5.44 E6.22834
G1 X-10.371 Y-4.55 E6.24538
G1 X-10.143 Y-3.87 E6.2573
G1 X-9.963 Y-3.018 E6.27179
G1 X-9.971 Y-1.947 E6.2896
G1 X-10.136 Y-1.148 E6.30317
G1 X-10.366 Y-.455 E6.31531
G1 X-10.862 Y0.422 E6.33206
G1 X-11.556 Y1.211 E6.34954
G1 X-12.238 Y1.723 E6.36372
G1 X-12.899 Y2.095 E6.37633
G1 X-13.653 Y2.36 E6.38962
G1 F1516.2 X-13.988 Y2.597 E6.39908
G1 X-13.587 Y2.751 E6.40897
G1 F2100 X-12.6 Y2.753 E6.42538
G1 X-11.575 Y2.809 E6.44246
G1 X-10.71 Y2.932 E6.45699
G1 X5.895 Y5.712 E6.73697
G1 F2058.8 X6.213 Y5.751 E6.74241
G1 X5.34 Y5.285 E6.75919
G1 F2100 X4.743 Y4.87 E6.77128
G1 X4.048 Y4.154 E6.78788
G1 X3.658 Y3.562 E6.79967
G1 X3.275 Y2.807 E6.81374
G0 F3000 X3.65 Y2.661
G1 F2100 X3.477 Y2.045 E6.82439
G1 X3.35 Y1.25 E6.83777
G1 X3.396 Y0.281 E6.85391
G1 X3.639 Y-.614 E6.86933
G1 X3.911 Y-1.202 E6.8801
G1 X4.343 Y-1.874 E6.89339
G1 X4.946 Y-2.498 E6.90782
G1 X4.396 Y-3.055 E6.92084
G1 X4.02 Y-3.604 E6.9319
G1 X3.675 Y-4.29 E6.94467
G1 X3.494 Y-4.845 E6.95438
G1 X3.35 Y-5.752 E6.96965
G1 X3.396 Y-6.714 E6.98567
G1 X3.602 Y-7.494 E6.99909
G1 X3.843 Y-8.096 E7.00987
G1 X4.346 Y-8.884 E7.02542
G1 X5.009 Y-9.569 E7.04127
G1 X5.685 Y-10.026 E7.05484
G1 X6.313 Y-10.333 E7.06646
G1 X7.116 Y-10.569 E7.08038
G1 X7.786 Y-10.64 E7.09159
G1 X8.593 Y-10.616 E7.10501
G1 X9.519 Y-10.406 E7.1208
G1 X10.391 Y-9.994 E7.13684
G1 X11.156 Y-9.426 E7.15269
G1 X11.799 Y-8.702 E7.16879
G1 X12.247 Y-7.906 E7.18398
G1 X12.46 Y-7.298 E7.1947
G1 X12.631 Y-6.487 E7.20848
G1 X12.637 Y-5.527 E7.22444
G1 X12.455 Y-4.654 E7.23927
G1 X12.248 Y-4.1 E7.24911
G1 X11.804 Y-3.307 E7.26422
G1 X11.085 Y-2.498 E7.28222
G1 X11.778 Y-1.726 E7.29947
G1 X12.235 Y-.923 E7.31484
G1 X12.445 Y-.362 E7.3248
G1 X12.632 Y0.509 E7.33962
G1 X12.634 Y1.491 E7.35595
G1 X12.443 Y2.383 E7.37112
G1 X12.25 Y2.901 E7.38031
G1 X11.805 Y3.686 E7.39532
G1 X11.173 Y4.409 E7.41129
G1 X10.418 Y4.982 E7.42705
G1 X9.851 Y5.258 E7.43754
G1 X9.077 Y5.529 E7.45117
G1 X8.123 Y5.657 E7.46718
G1 X7.145 Y5.574 E7.4835
G1 X6.253 Y5.319 E7.49893
G1 X5.528 Y4.932 E7.5126
G1 X5.007 Y4.566 E7.52319
G1 X4.363 Y3.904 E7.53855
G1 X4.015 Y3.381 E7.54899
G1 X3.65 Y2.661 E7.56242
G0 F3000 X4.024 Y2.513
G1 F2100 X3.872 Y1.982 E7.5716
G1 X3.751 Y1.226 E7.58434
G1 X3.8 Y0.342 E7.59906
G1 X4 Y-.433 E7.61237
G1 X4.249 Y-.987 E7.62247
G1 X4.667 Y-1.641 E7.63538
G1 X5.265 Y-2.258 E7.64967
G1 X5.605 Y-2.488 E7.65649
G1 X5.262 Y-2.743 E7.6636
G1 X4.677 Y-3.341 E7.67751
G1 X4.375 Y-3.788 E7.68648
G1 X4.042 Y-4.449 E7.69879
G1 X3.884 Y-4.939 E7.70735
G1 X3.752 Y-5.772 E7.72138
G1 X3.794 Y-6.654 E7.73606
G1 X3.989 Y-7.392 E7.74876
G1 X4.2 Y-7.909 E7.75805
G1 X4.662 Y-8.635 E7.77236
G1 X5.268 Y-9.263 E7.78687
G1 X5.972 Y-9.737 E7.80098
G1 X6.447 Y-9.956 E7.80968
G1 X7.198 Y-10.176 E7.8227
G1 X7.774 Y-10.24 E7.83233
G1 X8.541 Y-10.217 E7.84509
G1 X9.39 Y-10.025 E7.85957
G1 X10.193 Y-9.645 E7.87434
G1 X10.883 Y-9.131 E7.88865
G1 X11.474 Y-8.466 E7.90345
G1 X11.897 Y-7.699 E7.91801
G1 X12.071 Y-7.204 E7.92674
G1 X12.231 Y-6.445 E7.93964
G1 X12.237 Y-5.569 E7.95421
G1 X12.068 Y-4.756 E7.96802
G1 X11.886 Y-4.27 E7.97665
G1 X11.479 Y-3.555 E7.99033
G1 X10.921 Y-2.905 E8.00458
G1 X10.389 Y-2.498 E8.01571
G1 X10.891 Y-2.117 E8.0262
G1 X11.459 Y-1.483 E8.04035
G1 X11.875 Y-.748 E8.0544
G1 X12.058 Y-.259 E8.06308
G1 X12.232 Y0.553 E8.07689
G1 X12.235 Y1.443 E8.09169
G1 X12.059 Y2.269 E8.10573
G1 X11.901 Y2.693 E8.11326
G1 X11.482 Y3.447 E8.1276
G1 X10.902 Y4.113 E8.14229
G1 X10.212 Y4.636 E8.15669
G1 X9.719 Y4.88 E8.16584
G1 X8.978 Y5.139 E8.17889
G1 X8.112 Y5.254 E8.19342
G1 X7.254 Y5.183 E8.20774
G1 X6.407 Y4.947 E8.22236
G1 X5.716 Y4.579 E8.23538
G1 X5.263 Y4.257 E8.24462
G1 X4.677 Y3.653 E8.25862
G1 X4.371 Y3.201 E8.26769
G1 X4.024 Y2.513 E8.28051
G0 F3000 X4.4 Y2.372
G1 F2100 X4.267 Y1.919 E8.28836
G1 X4.153 Y1.203 E8.30042
G1 X4.195 Y0.405 E8.31371
G1 X4.391 Y-.341 E8.32653
G1 X4.541 Y-.688 E8.33282
G1 X4.981 Y-1.391 E8.34661
G1 X5.528 Y-1.954 E8.35967
G1 X6.133 Y-2.362 E8.3718
G1 X6.415 Y-2.503 E8.37704
G1 X5.908 Y-2.768 E8.38656
G1 X5.524 Y-3.045 E8.39443
G1 X4.99 Y-3.597 E8.4072
G1 X4.728 Y-3.976 E8.41487
G1 X4.39 Y-4.658 E8.42752
G1 X4.267 Y-5.078 E8.4348
G1 X4.153 Y-5.796 E8.44689
G1 X4.191 Y-6.594 E8.46018
G1 X4.375 Y-7.29 E8.47215
G1 X4.541 Y-7.688 E8.47932
G1 X4.979 Y-8.387 E8.49304
G1 X5.528 Y-8.956 E8.50619
G1 X6.21 Y-9.407 E8.51979
G1 X6.612 Y-9.589 E8.52712
G1 X7.313 Y-9.788 E8.53924
G1 X7.762 Y-9.84 E8.54676
G1 X8.491 Y-9.818 E8.55889
G1 X9.26 Y-9.644 E8.572
G1 X9.984 Y-9.301 E8.58532
G1 X10.611 Y-8.834 E8.59833
G1 X11.144 Y-8.235 E8.61166
G1 X11.529 Y-7.543 E8.62483
G1 X11.679 Y-7.121 E8.63228
G1 X11.832 Y-6.404 E8.64447
G1 X11.836 Y-5.61 E8.65767
G1 X11.681 Y-4.858 E8.67044
G1 X11.524 Y-4.44 E8.67787
G1 X11.15 Y-3.782 E8.69045
G1 X10.621 Y-3.176 E8.70383
G1 X9.964 Y-2.686 E8.71746
G1 X9.587 Y-2.491 E8.72452
G1 X9.961 Y-2.311 E8.73142
G1 X10.617 Y-1.825 E8.745
G1 X11.147 Y-1.224 E8.75833
G1 X11.516 Y-.572 E8.77078
G1 X11.672 Y-.155 E8.77819
G1 X11.832 Y0.597 E8.79097
G1 X11.831 Y1.409 E8.80448
G1 X11.676 Y2.155 E8.81715
G1 X11.533 Y2.536 E8.82392
G1 X11.151 Y3.217 E8.8369
G1 X10.624 Y3.821 E8.85023
G1 X9.995 Y4.298 E8.86336
G1 X9.587 Y4.503 E8.87095
G1 X8.891 Y4.747 E8.88322
G1 X8.105 Y4.852 E8.89641
G1 X7.32 Y4.788 E8.9095
G1 X6.553 Y4.572 E8.92276
G1 X5.905 Y4.226 E8.93497
G1 X5.49 Y3.915 E8.9436
G1 X4.965 Y3.367 E8.95622
G1 X4.728 Y3.02 E8.9632
G1 X4.4 Y2.372 E8.97528
G0 F3000 X4.115 Y2.46
G0 X4.598 Y3.198
G0 X6.278 Y5.759
G1 F1292.3 X7.127 Y5.945 E8.98938
G1 F1289 X8.105 Y6.066 E9.00539
G0 F3000 X12.171 Y5.092
G1 F2100 X11.785 Y5.451 E9.01416
G1 X11.314 Y5.808 E9.02399
G1 X22.158 Y7.625 E9.20684
G1 X22.123 Y7.048 E9.21645
G1 X22.159 Y6.377 E9.22763
G1 X22.237 Y5.87 E9.23616
G1 X22.465 Y4.979 E9.25145
G1 X22.976 Y3.947 E9.2706
G1 X23.294 Y3.495 E9.2798
G1 X23.569 Y3.169 E9.28689
G1 F1697 X23.779 Y2.818 E9.29531
G1 F1443.3 X24.321 Y2.327 E9.313
G1 F1680 X24.693 Y2.172 E9.32138
G1 F2038.8 X25.225 Y1.847 E9.33206
G1 F2100 X25.86 Y1.553 E9.34369
G1 X26.855 Y1.268 E9.36091
G1 X27.587 Y1.171 E9.37319
G1 X28.696 Y1.198 E9.39163
G1 X29.836 Y1.461 E9.41109
G1 X30.735 Y1.868 E9.4275
G1 X31.211 Y2.154 E9.43674
G1 F1697 X31.589 Y2.322 E9.44525
G1 F1418.9 X32.114 Y2.758 E9.46205
G1 F1690.1 X32.386 Y3.208 E9.47291
G1 F2100 X32.767 Y3.67 E9.48287
G1 X33.3 Y4.587 E9.50051
G1 X33.573 Y5.349 E9.51397
G1 X33.774 Y6.309 E9.53028
G1 X33.799 Y6.784 E9.53819
G1 X34.232 Y6.501 E9.54679
G1 X34.684 Y6.17 E9.55611
G1 X35.109 Y5.827 E9.56519
G1 X35.734 Y5.256 E9.57927
G1 X36.285 Y4.66 E9.59277
G1 X36.615 Y4.255 E9.60146
G1 X36.949 Y3.803 E9.6108
G1 X37.351 Y3.201 E9.62284
G1 X36.152 Y3.362 E9.64296
G1 X35.197 Y3.289 E9.65889
G1 X34.765 Y3.217 E9.66617
G1 X33.788 Y2.936 E9.68308
G1 X32.951 Y2.49 E9.69885
G1 F1690.1 X32.503 Y2.314 E9.70879
G1 F1418.9 X31.978 Y1.882 E9.72553
G1 F1697 X31.762 Y1.525 E9.73412
G1 F2100 X31.366 Y1.088 E9.74392
G1 X31.018 Y0.59 E9.75403
G1 X30.51 Y-.405 E9.77261
G1 X30.221 Y-1.504 E9.7915
G1 X30.13 Y-2.246 E9.80393
G1 X30.203 Y-3.443 E9.82388
G1 X30.49 Y-4.531 E9.84259
G1 X31.033 Y-5.643 E9.86317
G1 X31.629 Y-6.388 E9.87904
G1 F1724.8 X31.818 Y-6.721 E9.88679
G1 F1453.3 X32.661 Y-7.436 E9.91335
G1 F1676.6 X33.033 Y-7.539 E9.92139
G1 F2048.8 X33.843 Y-7.948 E9.93686
G1 F2100 X34.921 Y-8.268 E9.95556
G1 X36.147 Y-8.362 E9.97601
G1 X37.352 Y-8.202 E9.99622
G1 X36.94 Y-8.825 E10.00864
G1 X36.609 Y-9.263 E10.01777
G1 X36.279 Y-9.664 E10.02641
G1 X35.857 Y-10.125 E10.0368
G1 X35.482 Y-10.493 E10.04554
G1 X35.044 Y-10.879 E10.05525
G1 X34.609 Y-11.231 E10.06456
G1 X33.87 Y-11.762 E10.07969
G1 X33.848 Y-11.317 E10.0871
G1 X33.66 Y-10.412 E10.10247
G1 X33.548 Y-10.06 E10.10861
G1 F2074.1 X33.152 Y-9.15 E10.12532
G1 F1971.8 X32.451 Y-8.147 E10.147
G1 F1627.9 X32.317 Y-7.902 E10.15299
G1 F1433.4 X31.52 Y-7.19 E10.17902
G1 F1710.8 X31.068 Y-7.031 E10.18881
G1 F2100 X30.459 Y-6.681 E10.20049
G1 X29.386 Y-6.307 E10.21938
G1 X28.223 Y-6.157 E10.23888
G1 X26.992 Y-6.241 E10.2594
G1 X25.898 Y-6.56 E10.27835
G1 X25.23 Y-6.883 E10.29069
G1 F1913.4 X24.674 Y-7.198 E10.30236
G1 F1576 X24.454 Y-7.281 E10.30757
G1 F1426.1 X24.021 Y-7.638 E10.32131
G1 F1697 X23.805 Y-7.998 E10.32995
G1 F2100 X23.376 Y-8.467 E10.34052
G1 X22.8 Y-9.394 E10.35867
G1 X22.38 Y-10.468 E10.37785
G1 X22.219 Y-11.439 E10.39422
G1 X22.191 Y-11.984 E10.40329
G1 X22.226 Y-12.632 E10.41408
G1 X11.308 Y-10.807 E10.59817
G1 X11.757 Y-10.474 E10.60747
G1 X12.148 Y-10.116 E10.61628
G1 X12.596 Y-9.612 E10.6275
G1 X12.919 Y-9.16 E10.63674
G1 X13.339 Y-8.41 E10.65103
G1 X13.598 Y-7.717 E10.66333
G1 X13.782 Y-6.846 E10.67814
G1 X13.832 Y-6.352 E10.6864
G1 X13.836 Y-5.655 E10.69799
G1 X13.783 Y-5.147 E10.70648
G1 X13.595 Y-4.246 E10.72179
G1 X13.309 Y-3.528 E10.73464
G1 X12.839 Y-2.7 E10.75047
G1 X12.683 Y-2.501 E10.75468
G1 X12.844 Y-2.294 E10.75904
G1 X13.313 Y-1.45 E10.7751
G1 X13.58 Y-.781 E10.78708
G1 X13.777 Y0.127 E10.80253
G1 X13.832 Y0.648 E10.81124
