;FLAVOR:Marlin
;TIME:756
;Filament used: 0.680838m
;Layer height: 0.2
;MINX:-8.192
;MINY:-8.186
;MINZ:0.1
;MAXX:8.192
;MAXY:8.186
;MAXZ:31.3
;TARGET_MACHINE.NAME:Unknown
;Generated with Cura_SteamEngine 5.7.0
M82 ;absolute extrusion mode
G21 ; millimeter units
G90 ; absolute coordinates
M82 ; E absolute
M140 S60.0
M104 S250.0
M190 S60.0
M109 S220.0
G28 ; home axis
M420 S1 ; enable mesh leveling
; Lower nozzle and move to start position
G1 Z150
G1 X-130 Y0 Z0.4 F3000
; Extrude about 40 mm by printing a 90 degree arc
G3 X0 Y-130 I130 Z0.3 E40 F2700
; Retract and move nozzle up
G92 E0
G1 E-1.5 F1800
G0 Z0.5
G1 E0 F300

G92 E0
G92 E0
G1 F2700 E-6.5
;LAYER_COUNT:157
;LAYER:0
M106 S210.5
M104 S220
G1 F3000 Z0.7
G0 X-7.001 Y4.232 Z0.7
;TYPE:SKIRT
G1 F3000 Z0.1
G1 F2700 E0
G1 F2100 X-7.323 Y3.666 E0.01083
G1 X-7.666 Y2.902 E0.02476
G1 X-7.828 Y2.426 E0.03312
G1 X-8.045 Y1.575 E0.04772
G1 X-8.168 Y0.672 E0.06288
G1 X-8.192 Y-.166 E0.07682
G1 X-8.133 Y-1.014 E0.09096
G1 X-7.96 Y-1.955 E0.10687
G1 X-7.664 Y-2.91 E0.1235
G1 X-7.17 Y-3.975 E0.14302
G1 X-6.668 Y-4.764 E0.15857
G1 X-5.919 Y-5.691 E0.17839
G1 X-5.058 Y-6.449 E0.19747
G1 X-4.35 Y-6.948 E0.21187
G1 X-3.551 Y-7.387 E0.22703
G1 X-2.74 Y-7.722 E0.24162
G1 X-1.88 Y-7.978 E0.25655
G1 X-1.387 Y-8.075 E0.2649
G1 X-.457 Y-8.182 E0.28047
G1 X0.54 Y-8.186 E0.29705
G1 X1.482 Y-8.053 E0.31287
G1 X2.322 Y-7.866 E0.32718
G1 X3.145 Y-7.569 E0.34173
G1 X3.896 Y-7.211 E0.35557
G1 X4.596 Y-6.786 E0.36919
G1 X5.02 Y-6.479 E0.37789
G1 X5.677 Y-5.915 E0.39229
G1 X6.283 Y-5.265 E0.40707
G1 X6.645 Y-4.797 E0.41691
G1 X7.129 Y-4.033 E0.43195
G1 X7.421 Y-3.465 E0.44257
G1 X7.664 Y-2.907 E0.45269
G1 X7.827 Y-2.43 E0.46108
G1 X8.041 Y-1.59 E0.47549
G1 X8.165 Y-.719 E0.49012
G1 X8.192 Y0.167 E0.50486
G1 X8.134 Y1.001 E0.51877
G1 X7.961 Y1.952 E0.53484
G1 X7.662 Y2.914 E0.55159
G1 X7.118 Y4.082 E0.57302
G1 X6.552 Y4.908 E0.58967
G1 X5.924 Y5.685 E0.60629
G1 X5.068 Y6.443 E0.6253
G1 X4.355 Y6.945 E0.6398
G1 X3.547 Y7.389 E0.65514
G1 X2.739 Y7.722 E0.66967
G1 X1.681 Y8.038 E0.68803
G1 X0.899 Y8.137 E0.70114
G1 X0.334 Y8.181 E0.71056
G1 X-.42 Y8.186 E0.7231
G1 X-1.303 Y8.094 E0.73787
G1 X-2.317 Y7.868 E0.75514
G1 X-3.149 Y7.567 E0.76986
G1 X-3.899 Y7.209 E0.78368
G1 X-4.597 Y6.785 E0.79726
G1 X-5.02 Y6.478 E0.80595
G1 X-5.683 Y5.909 E0.82048
G1 X-6.283 Y5.265 E0.83512
G1 X-6.645 Y4.797 E0.84496
G1 X-7.001 Y4.232 E0.85606
G1 F2700 E-5.64394
G0 F3000 X2.596 Y-3.163
G1 F2700 E0.85606
G1 F2100 X2.515 Y-3.237 E0.85789
G1 X2.492 Y-3.256 E0.85839
G1 X2.35 Y-3.352 E0.86124
G1 X2.289 Y-3.402 E0.86255
G1 X2.262 Y-3.42 E0.86309
G1 X2.163 Y-3.477 E0.86499
G1 X2.12 Y-3.509 E0.86588
G1 X2.095 Y-3.525 E0.86637
G1 X2.09 Y-3.528 E0.86647
G1 X2.068 Y-3.541 E0.86689
G1 X1.943 Y-3.605 E0.86923
G1 X1.833 Y-3.667 E0.87133
G1 X1.812 Y-3.677 E0.87172
G1 X1.732 Y-3.711 E0.87316
G1 X1.637 Y-3.759 E0.87493
G1 X1.622 Y-3.766 E0.87521
G1 X1.603 Y-3.774 E0.87555
G1 X1.582 Y-3.784 E0.87594
G1 X1.557 Y-3.793 E0.87638
G1 X1.505 Y-3.81 E0.87729
G1 X1.475 Y-3.821 E0.87782
G1 X1.362 Y-3.868 E0.87985
G1 X1.336 Y-3.876 E0.88031
G1 X1.285 Y-3.889 E0.88118
G1 X1.149 Y-3.937 E0.88358
G1 X1.126 Y-3.943 E0.88398
G1 X0.966 Y-3.978 E0.8867
G1 X0.87 Y-4.008 E0.88837
G1 X0.833 Y-4.016 E0.889
G1 X0.76 Y-4.024 E0.89022
G1 X0.641 Y-4.051 E0.89225
G1 X0.615 Y-4.055 E0.89269
G1 X0.138 Y-4.098 E0.90065
G1 X0.12 Y-4.099 E0.90095
G1 X0.055 Y-4.099 E0.90204
G1 X-.586 Y-4.059 E0.91272
G1 X-.626 Y-4.052 E0.91339
G1 X-.644 Y-4.049 E0.9137
G1 X-.937 Y-3.985 E0.91868
G1 X-1.099 Y-3.95 E0.92144
G1 X-1.113 Y-3.946 E0.92168
G1 X-1.121 Y-3.944 E0.92182
G1 X-1.138 Y-3.939 E0.92211
G1 X-1.399 Y-3.848 E0.92671
G1 X-1.583 Y-3.784 E0.92995
G1 X-1.618 Y-3.768 E0.93059
G1 X-1.628 Y-3.762 E0.93078
G1 X-1.65 Y-3.753 E0.93118
G1 X-1.779 Y-3.688 E0.93358
G1 X-2.057 Y-3.548 E0.93876
G1 X-2.068 Y-3.541 E0.93897
G1 X-2.096 Y-3.525 E0.93951
G1 X-2.136 Y-3.496 E0.94033
G1 X-2.176 Y-3.47 E0.94113
G1 X-2.238 Y-3.436 E0.9423
G1 X-2.263 Y-3.42 E0.94279
G1 X-2.368 Y-3.341 E0.94498
G1 X-2.478 Y-3.267 E0.94718
G1 X-2.497 Y-3.252 E0.94759
G1 X-2.573 Y-3.187 E0.94925
G1 X-2.657 Y-3.123 E0.95101
G1 X-2.671 Y-3.111 E0.95131
G1 X-2.693 Y-3.095 E0.95177
G1 X-2.729 Y-3.062 E0.95258
G1 X-2.764 Y-3.022 E0.95346
G1 X-2.863 Y-2.936 E0.95564
G1 X-2.881 Y-2.919 E0.95605
G1 X-2.951 Y-2.841 E0.9578
G1 X-3.025 Y-2.769 E0.95951
G1 X-3.042 Y-2.75 E0.95994
G1 X-3.114 Y-2.658 E0.96188
G1 X-3.206 Y-2.557 E0.96415
G1 X-3.223 Y-2.535 E0.96462
G1 X-3.297 Y-2.428 E0.96678
G1 X-3.335 Y-2.385 E0.96773
G1 X-3.354 Y-2.359 E0.96827
G1 X-3.368 Y-2.338 E0.96869
G1 X-3.384 Y-2.316 E0.96914
G1 X-3.396 Y-2.297 E0.96951
G1 X-3.441 Y-2.221 E0.97098
G1 X-3.498 Y-2.14 E0.97263
G1 X-3.511 Y-2.119 E0.97304
G1 X-3.577 Y-1.996 E0.97536
G1 X-3.637 Y-1.896 E0.9773
G1 X-3.649 Y-1.872 E0.97775
G1 X-3.694 Y-1.77 E0.9796
G1 X-3.739 Y-1.683 E0.98123
G1 X-3.751 Y-1.655 E0.98174
G1 X-3.773 Y-1.59 E0.98288
G1 X-3.844 Y-1.426 E0.98585
G1 X-3.853 Y-1.403 E0.98626
G1 X-3.896 Y-1.257 E0.98879
G1 X-3.924 Y-1.188 E0.99003
G1 X-3.934 Y-1.158 E0.99056
G1 X-3.96 Y-1.046 E0.99247
G1 X-3.966 Y-1.024 E0.99285
G1 X-3.982 Y-.979 E0.99364
G1 X-3.991 Y-.942 E0.99428
G1 X-3.994 Y-.932 E0.99445
G1 X-4.003 Y-.889 E0.99518
G1 X-4.006 Y-.856 E0.99573
G1 X-4.034 Y-.738 E0.99775
G1 X-4.038 Y-.714 E0.99815
G1 X-4.051 Y-.599 E1.00008
G1 X-4.074 Y-.464 E1.00235
G1 X-4.077 Y-.44 E1.00276
G1 X-4.083 Y-.305 E1.005
G1 X-4.099 Y-.16 E1.00743
G1 X-4.099 Y-.121 E1.00808
G1 X-4.095 Y-0.079 E1.00878
G1 X-4.099 Y-0.013 E1.00988
G1 X-4.1 Y0.002 E1.01013
G1 X-4.1 Y0.073 E1.01131
G1 X-4.099 Y0.097 E1.01171
G1 X-4.093 Y0.146 E1.01253
G1 X-4.064 Y0.539 E1.01908
G1 X-4.061 Y0.564 E1.0195
G1 X-4.034 Y0.7 E1.02181
G1 X-4.029 Y0.764 E1.02288
G1 X-4.025 Y0.787 E1.02326
G1 X-4.024 Y0.794 E1.02338
G1 X-4.019 Y0.819 E1.02381
G1 X-3.98 Y0.961 E1.02625
G1 X-3.965 Y1.039 E1.02758
G1 X-3.959 Y1.065 E1.02802
G1 X-3.925 Y1.166 E1.02979
G1 X-3.895 Y1.286 E1.03185
G1 X-3.887 Y1.305 E1.03219
G1 X-3.88 Y1.328 E1.03259
G1 X-3.844 Y1.409 E1.03407
G1 X-3.807 Y1.523 E1.03606
G1 X-3.797 Y1.548 E1.03651
G1 X-3.63 Y1.895 E1.04291
G1 X-3.536 Y2.109 E1.0468
G1 X-3.509 Y2.154 E1.04767
G1 X-3.369 Y2.33 E1.05141
G1 X-3.303 Y2.431 E1.05342
G1 X-3.286 Y2.454 E1.05389
G1 X-3.279 Y2.462 E1.05407
G1 X-2.978 Y2.821 E1.06186
G1 X-2.958 Y2.84 E1.06232
G1 X-2.939 Y2.86 E1.06278
G1 X-2.626 Y3.149 E1.06986
G1 X-2.615 Y3.158 E1.0701
G1 X-2.609 Y3.163 E1.07023
G1 X-2.596 Y3.174 E1.07051
G1 X-2.584 Y3.183 E1.07076
G1 X-2.456 Y3.276 E1.07339
G1 X-2.396 Y3.329 E1.07472
G1 X-2.367 Y3.35 E1.07532
G1 X-2.276 Y3.406 E1.0771
G1 X-2.194 Y3.465 E1.07878
G1 X-2.17 Y3.48 E1.07925
G1 X-2.158 Y3.486 E1.07947
G1 X-2.151 Y3.491 E1.07961
G1 X-2.133 Y3.502 E1.07996
G1 X-2.047 Y3.547 E1.08158
G1 X-1.951 Y3.607 E1.08346
G1 X-1.929 Y3.619 E1.08388
G1 X-1.818 Y3.67 E1.08591
G1 X-1.703 Y3.73 E1.08807
G1 X-1.677 Y3.742 E1.08854
G1 X-1.598 Y3.77 E1.08994
G1 X-1.56 Y3.788 E1.09064
G1 X-1.51 Y3.812 E1.09156
G1 X-1.49 Y3.82 E1.09192
G1 X-1.483 Y3.823 E1.09204
G1 X-1.468 Y3.829 E1.09231
G1 X-1.454 Y3.834 E1.09256
G1 X-1.146 Y3.931 E1.09793
G1 X-1.065 Y3.96 E1.09936
G1 X-1.035 Y3.968 E1.09988
G1 X-1.02 Y3.971 E1.10013
G1 X-.996 Y3.978 E1.10055
G1 X-.975 Y3.983 E1.1009
G1 X-.847 Y4.007 E1.10307
G1 X-.78 Y4.026 E1.10423
G1 X-.748 Y4.032 E1.10477
G1 X-.623 Y4.047 E1.10686
G1 X-.49 Y4.073 E1.10912
G1 X-.453 Y4.076 E1.10973
G1 X-.448 Y4.076 E1.10982
G1 X-.356 Y4.081 E1.11135
G1 X-.274 Y4.091 E1.11272
G1 X-.249 Y4.093 E1.11314
G1 X-.164 Y4.093 E1.11455
G1 X-0.036 Y4.101 E1.11669
G1 X-0.008 Y4.1 E1.11715
G1 X0.078 Y4.093 E1.11859
G1 X0.237 Y4.093 E1.12123
G1 X0.261 Y4.091 E1.12163
G1 X0.391 Y4.075 E1.12381
G1 X0.461 Y4.075 E1.12498
G1 X0.504 Y4.07 E1.1257
G1 X0.586 Y4.052 E1.12709
G1 X0.65 Y4.044 E1.12816
G1 X0.698 Y4.039 E1.12897
G1 X0.72 Y4.036 E1.12934
G1 X0.739 Y4.032 E1.12966
G1 X0.755 Y4.03 E1.12993
G1 X0.785 Y4.024 E1.13044
G1 X0.851 Y4.005 E1.13158
G1 X1.187 Y3.922 E1.13733
G1 X1.193 Y3.921 E1.13743
G1 X1.201 Y3.919 E1.13757
G1 X1.232 Y3.911 E1.1381
G1 X1.254 Y3.903 E1.13849
G1 X1.382 Y3.853 E1.14078
G1 X1.473 Y3.827 E1.14235
G1 X1.506 Y3.814 E1.14294
G1 X1.57 Y3.783 E1.14412
G1 X1.683 Y3.739 E1.14614
G1 X1.703 Y3.73 E1.14651
G1 X1.736 Y3.713 E1.14712
G1 X2.135 Y3.499 E1.15465
G1 X2.145 Y3.494 E1.15484
G1 X2.181 Y3.472 E1.15554
G1 X2.196 Y3.462 E1.15584
G1 X2.232 Y3.436 E1.15658
G1 X2.331 Y3.365 E1.1586
G1 X2.402 Y3.323 E1.15998
G1 X2.432 Y3.301 E1.1606
G1 X2.491 Y3.249 E1.1619
G1 X2.597 Y3.173 E1.16407
G1 X2.616 Y3.157 E1.16449
G1 X2.711 Y3.069 E1.16664
G1 X2.767 Y3.026 E1.16781
G1 X2.794 Y3.002 E1.16841
G1 X2.858 Y2.931 E1.17
G1 X2.865 Y2.925 E1.17016
G1 X2.926 Y2.872 E1.1715
G1 X2.946 Y2.853 E1.17196
G1 X2.966 Y2.83 E1.17247
G1 X2.98 Y2.817 E1.17278
G1 X2.997 Y2.798 E1.17321
G1 X3.045 Y2.738 E1.17449
G1 X3.271 Y2.474 E1.18027
G1 X3.281 Y2.462 E1.18053
G1 X3.284 Y2.458 E1.18061
G1 X3.293 Y2.444 E1.18088
G1 X3.333 Y2.38 E1.18214
G1 X3.366 Y2.331 E1.18312
G1 X3.417 Y2.267 E1.18448
G1 X3.436 Y2.239 E1.18505
G1 X3.484 Y2.152 E1.1867
G1 X3.549 Y2.054 E1.18865
G1 X3.561 Y2.032 E1.18907
G1 X3.63 Y1.893 E1.19165
G1 X3.637 Y1.881 E1.19188
G1 X3.68 Y1.81 E1.19326
G1 X3.696 Y1.777 E1.19387
G1 X3.699 Y1.771 E1.19398
G1 X3.734 Y1.684 E1.19554
G1 X3.778 Y1.593 E1.19722
G1 X3.788 Y1.569 E1.19766
G1 X3.82 Y1.473 E1.19934
G1 X3.883 Y1.321 E1.20208
G1 X3.891 Y1.297 E1.2025
G1 X3.935 Y1.132 E1.20534
G1 X3.964 Y1.049 E1.2068
G1 X3.972 Y1.017 E1.20735
G1 X3.982 Y0.959 E1.20833
G1 X4.017 Y0.831 E1.21053
G1 X4.022 Y0.805 E1.21097
G1 X4.072 Y0.438 E1.21713
G1 X4.084 Y0.369 E1.2183
G1 X4.087 Y0.335 E1.21887
G1 X4.089 Y0.315 E1.2192
G1 X4.091 Y0.192 E1.22125
G1 X4.101 Y0.093 E1.2229
G1 X4.101 Y0.052 E1.22358
G1 X4.094 Y-0.013 E1.22467
G1 X4.097 Y-.143 E1.22683
G1 X4.097 Y-.159 E1.2271
G1 X4.096 Y-.175 E1.22736
G1 X4.095 Y-.199 E1.22776
G1 X4.062 Y-.51 E1.23296
G1 X4.047 Y-.657 E1.23542
G1 X4.046 Y-.663 E1.23552
G1 X4.044 Y-.68 E1.23581
G1 X4.04 Y-.703 E1.2362
G1 X4.009 Y-.836 E1.23847
G1 X4.002 Y-.895 E1.23946
G1 X3.994 Y-.931 E1.24007
G1 X3.952 Y-1.069 E1.24247
G1 X3.928 Y-1.174 E1.24426
G1 X3.921 Y-1.198 E1.24467
G1 X3.879 Y-1.313 E1.24671
G1 X3.868 Y-1.351 E1.24737
G1 X3.856 Y-1.395 E1.24813
G1 X3.844 Y-1.427 E1.2487
G1 X3.836 Y-1.444 E1.24901
G1 X3.794 Y-1.54 E1.25075
G1 X3.749 Y-1.661 E1.2529
G1 X3.736 Y-1.69 E1.25343
G1 X3.703 Y-1.749 E1.25455
G1 X3.648 Y-1.873 E1.25681
G1 X3.636 Y-1.896 E1.25724
G1 X3.542 Y-2.051 E1.26025
G1 X3.5 Y-2.137 E1.26184
G1 X3.479 Y-2.17 E1.26249
G1 X3.432 Y-2.232 E1.26379
G1 X3.42 Y-2.253 E1.26419
G1 X3.386 Y-2.313 E1.26534
G1 X3.365 Y-2.343 E1.26595
G1 X3.345 Y-2.372 E1.26653
G1 X3.307 Y-2.417 E1.26751
G1 X3.058 Y-2.734 E1.27421
G1 X3.039 Y-2.754 E1.27467
G1 X3.033 Y-2.761 E1.27483
G1 X2.921 Y-2.871 E1.27744
G1 X2.877 Y-2.923 E1.27857
G1 X2.851 Y-2.948 E1.27917
G1 X2.8 Y-2.99 E1.28027
G1 X2.715 Y-3.073 E1.28224
G1 X2.693 Y-3.092 E1.28273
G1 X2.596 Y-3.163 E1.28473
G0 F3000 X2.822 Y-3.898
G1 F2100 X3.319 Y-3.471 E1.29562
G1 X3.801 Y-2.955 E1.30737
G1 X4.277 Y-2.177 E1.32253
G1 X4.548 Y-1.571 E1.33357
G1 X4.709 Y-.937 E1.34445
G1 X4.782 Y-.426 E1.35304
G1 X4.799 Y0.113 E1.362
G1 X4.762 Y0.622 E1.37049
G1 X4.662 Y1.141 E1.37928
G1 X4.492 Y1.694 E1.3889
G1 X4.187 Y2.348 E1.4009
G1 X3.873 Y2.84 E1.41061
G1 X3.455 Y3.348 E1.42155
G1 X2.971 Y3.773 E1.43226
G1 X2.531 Y4.081 E1.44119
G1 X2.082 Y4.327 E1.44971
G1 X1.592 Y4.529 E1.45852
G1 X0.944 Y4.719 E1.46975
G1 X0.259 Y4.793 E1.48121
G1 X-.263 Y4.794 E1.48989
G1 X-.78 Y4.739 E1.49854
G1 X-1.298 Y4.623 E1.50736
G1 X-1.791 Y4.456 E1.51602
G1 X-2.261 Y4.236 E1.52465
G1 X-2.822 Y3.898 E1.53554
G1 X-3.319 Y3.471 E1.54644
G1 X-3.801 Y2.955 E1.55818
G1 X-4.277 Y2.177 E1.57335
G1 X-4.548 Y1.571 E1.58439
G1 X-4.71 Y0.935 E1.5953
G1 X-4.782 Y0.426 E1.60385
G1 X-4.799 Y-.113 E1.61282
G1 X-4.762 Y-.622 E1.62131
G1 X-4.662 Y-1.142 E1.63011
G1 X-4.49 Y-1.697 E1.63978
G1 X-4.187 Y-2.348 E1.65172
G1 X-3.873 Y-2.84 E1.66142
G1 X-3.455 Y-3.348 E1.67236
G1 X-2.969 Y-3.774 E1.68311
G1 X-2.529 Y-4.082 E1.69204
G1 X-2.082 Y-4.327 E1.70052
G1 X-1.592 Y-4.529 E1.70933
G1 X-.944 Y-4.719 E1.72056
G1 X-.259 Y-4.793 E1.73202
G1 X0.263 Y-4.794 E1.7407
G1 X0.78 Y-4.739 E1.74935
G1 X1.298 Y-4.623 E1.75818
G1 X1.791 Y-4.456 E1.76683
G1 X2.261 Y-4.236 E1.77546
G1 X2.822 Y-3.898 E1.78636
;MESH:?????? ??????????????.stl
G0 F3000 X1.557 Y-2.119
G0 X1.389 Y-1.877
;TYPE:WALL-OUTER
G1 F1061.1 X0.886 Y-2.16 E1.79604
G1 F1063.3 X0.372 Y-2.306 E1.80499
G1 F1070.1 X-0.034 Y-2.333 E1.81177
G1 F1067.8 X-.545 Y-2.271 E1.82035
G1 F1061.1 X-.926 Y-2.143 E1.8271
G1 F1067.8 X-1.381 Y-1.88 E1.83586
G1 X-1.702 Y-1.595 E1.84302
G1 F1065.5 X-2.026 Y-1.161 E1.85208
G1 X-2.195 Y-.797 E1.85879
G1 F1063.3 X-2.32 Y-.273 E1.86781
G1 F1065.5 X-2.332 Y0.11 E1.87421
G1 X-2.291 Y0.449 E1.87992
G1 F1076.9 X-2.175 Y0.841 E1.88668
G1 F1079.2 X-2.011 Y1.181 E1.89291
G1 F1070.1 X-1.686 Y1.616 E1.90195
G1 F1065.5 X-1.375 Y1.886 E1.90884
G1 X-.912 Y2.15 E1.91774
G1 X-.398 Y2.301 E1.9267
G1 F1063.3 X0.034 Y2.335 E1.93396
G1 X0.534 Y2.272 E1.9424
G1 X0.942 Y2.134 E1.94961
G1 F1065.5 X1.413 Y1.86 E1.95872
G1 X1.671 Y1.628 E1.96452
G1 F1061.1 X1.998 Y1.205 E1.9735
G1 F1058.8 X2.191 Y0.811 E1.98088
G1 F1070.1 X2.316 Y0.279 E1.98997
G1 F1074.6 X2.332 Y-.102 E1.99629
G1 F1067.8 X2.192 Y-.809 E2.00831
G1 F1065.5 X2.007 Y-1.19 E2.01539
G1 F1070.1 X1.671 Y-1.629 E2.0246
G1 F1067.8 X1.389 Y-1.877 E2.03086
G0 F3000 X1.539 Y-1.746
G0 X1.667 Y-2.262
G1 F1764.7 X2.096 Y-1.87 E2.04064
G1 F1761 X2.517 Y-1.249 E2.05328
G1 F1757.3 X2.664 Y-.896 E2.05974
G1 F1761 X2.787 Y-.343 E2.06929
G1 F1757.3 X2.808 Y0.037 E2.07572
G1 F1753.7 X2.739 Y0.612 E2.08552
G1 F1757.3 X2.641 Y0.966 E2.09173
G1 F1764.7 X2.394 Y1.47 E2.10117
G1 F1750 X2.176 Y1.774 E2.10751
G1 X1.615 Y2.3 E2.12056
G1 F1761 X0.94 Y2.646 E2.13334
G1 X0.586 Y2.746 E2.13955
G1 X-.181 Y2.805 E2.15251
G1 F1757.3 X-.563 Y2.753 E2.15902
G1 F1753.7 X-1.259 Y2.509 E2.17151
G1 X-1.891 Y2.078 E2.18446
G1 X-2.371 Y1.504 E2.19712
G1 F1757.3 X-2.682 Y0.85 E2.20936
G1 F1761 X-2.778 Y0.417 E2.21683
G1 F1768.4 X-2.792 Y-.325 E2.22929
G1 X-2.67 Y-.873 E2.23871
G1 F1753.7 X-2.343 Y-1.547 E2.2514
G1 X-1.834 Y-2.128 E2.26447
G1 F1750 X-1.362 Y-2.454 E2.2742
G1 F1753.7 X-.666 Y-2.732 E2.28689
G1 X-.31 Y-2.791 E2.293
G1 F1750 X0.288 Y-2.796 E2.30314
G1 F1761 X1.009 Y-2.621 E2.31565
G1 F1764.7 X1.667 Y-2.262 E2.32825
G0 F3000 X1.492 Y-2.357
G1 F2700 E-4.17175
;MESH:NONMESH
G0 F3000 X1.492 Y-2.357 Z0.3
G0 X1.359 Y-2.15
G0 X0.994 Y-2.34
G0 X0.414 Y-2.508
G0 X-0.01 Y-2.541
G0 X-1.275 Y-2.3
G0 X-3.452 Y-3.348
;TIME_ELAPSED:7.498566
;LAYER:1
M106 S255
;TYPE:SUPPORT
G1 F2700 E2.32825
G1 F1952.1 X-2.96 Y-3.778 E2.34999
G1 X-2.534 Y-4.077 E2.3673
G1 X-2.078 Y-4.326 E2.38458
G1 X-1.565 Y-4.534 E2.40299
G1 X-.944 Y-4.715 E2.4245
G1 X-.252 Y-4.792 E2.44766
G1 X0.257 Y-4.791 E2.46459
G1 X0.779 Y-4.738 E2.48204
G1 X1.29 Y-4.623 E2.49946
G1 X1.793 Y-4.453 E2.51712
G1 X2.253 Y-4.239 E2.534
G1 X2.83 Y-3.889 E2.55644
G1 X3.313 Y-3.471 E2.57769
G1 X3.804 Y-2.946 E2.6016
G1 X4.275 Y-2.177 E2.63159
G1 X4.542 Y-1.577 E2.65343
G1 X4.707 Y-.94 E2.67532
G1 X4.782 Y-.395 E2.69362
G1 X4.796 Y0.095 E2.70992
G1 X4.757 Y0.626 E2.72763
G1 X4.661 Y1.139 E2.74499
G1 X4.492 Y1.685 E2.764
G1 X4.184 Y2.351 E2.7884
G1 X3.858 Y2.853 E2.80831
G1 X3.451 Y3.348 E2.82963
G1 X2.964 Y3.774 E2.85115
G1 X2.534 Y4.078 E2.86866
G1 X2.078 Y4.327 E2.88594
G1 X1.585 Y4.527 E2.90364
G1 X0.944 Y4.715 E2.92585
G1 X0.252 Y4.792 E2.94901
G1 X-.257 Y4.792 E2.96594
G1 X-.779 Y4.738 E2.9834
G1 X-1.289 Y4.622 E3.00079
G1 X-1.792 Y4.454 E3.01843
G1 X-2.253 Y4.235 E3.03541
G1 X-2.83 Y3.889 E3.05778
G1 X-3.313 Y3.471 E3.07903
G1 X-3.804 Y2.946 E3.10294
G1 X-4.274 Y2.178 E3.13288
G1 X-4.542 Y1.578 E3.15474
G1 X-4.707 Y0.929 E3.17701
G1 X-4.78 Y0.418 E3.19418
G1 X-4.795 Y-0.095 E3.21125
G1 X-4.757 Y-.626 E3.22896
G1 X-4.661 Y-1.14 E3.24635
G1 X-4.493 Y-1.687 E3.26538
G1 X-4.18 Y-2.351 E3.2898
G1 X-3.873 Y-2.834 E3.30883
G1 X-3.452 Y-3.348 E3.33093
G0 F4000 X-2.995 Y-2.567
G1 F1952.1 X-3.358 Y-2.075 E3.35127
G1 X-3.646 Y-1.516 E3.37218
G1 X-3.835 Y-.929 E3.39269
