;FLAVOR:Marlin
;TIME:1878
;Filament used: 2.96598m
;Layer height: 0.2
;MINX:-27.225
;MINY:-25.553
;MINZ:0.1
;MAXX:25.306
;MAXY:13.541
;MAXZ:10.5
;TARGET_MACHINE.NAME:Unknown
;Generated with Cura_SteamEngine 5.7.0
M82 ;absolute extrusion mode
G21 ; millimeter units
G90 ; absolute coordinates
M82 ; E absolute
M140 S60.0
M104 S240.0
M190 S60.0
M109 S220.0
G28 ; home axis
M420 S1 ; enable mesh leveling
; Lower nozzle and move to start position
G1 Z150
G1 X-130 Y0 Z0.4 F3000
; Extrude about 40 mm by printing a 90 degree arc
G3 X0 Y-130 I130 Z0.3 E40 F2700
; Retract and move nozzle up
G92 E0
G1 E-1.5 F1800
G0 Z0.5
G1 E0 F300

G92 E0
G92 E0
G1 F2700 E-6.5
;LAYER_COUNT:53
;LAYER:0
M107
G1 F3000 Z0.7
G0 X2.415 Y13.225 Z0.7
;TYPE:SKIRT
G1 F3000 Z0.1
G1 F2700 E0
G1 F2100 X1.26 Y13.405 E0.01944
G1 X0.335 Y13.487 E0.03488
G1 X-.412 Y13.527 E0.04732
G1 X-1.103 Y13.541 E0.05882
G1 X-1.741 Y13.532 E0.06943
G1 X-2.315 Y13.507 E0.07898
G1 X-3.149 Y13.439 E0.0929
G1 X-4.132 Y13.319 E0.10937
G1 X-5.21 Y13.126 E0.12758
G1 X-6.071 Y12.934 E0.14225
G1 X-6.851 Y12.73 E0.15566
G1 X-20.854 Y8.638 E0.39827
G1 X-21.618 Y8.403 E0.41156
G1 X-22.242 Y8.15 E0.42276
G1 X-22.685 Y7.907 E0.43116
G1 X-23.283 Y7.437 E0.44381
G1 X-23.646 Y7.084 E0.45223
G1 X-24.062 Y6.483 E0.46438
G1 X-24.284 Y6.068 E0.47221
G1 X-24.548 Y5.404 E0.48409
G1 X-25.036 Y3.622 E0.51482
G1 X-25.496 Y1.807 E0.54596
G1 X-26.358 Y-1.375 E0.60078
G1 X-26.684 Y-2.504 E0.62033
G1 X-26.944 Y-3.471 E0.63698
G1 X-27.108 Y-4.124 E0.64817
G1 X-27.225 Y-4.874 E0.6608
G1 X-27.214 Y-5.582 E0.67257
G1 X-27.097 Y-6.239 E0.68367
G1 X-26.955 Y-6.724 E0.69208
G1 X-26.622 Y-7.37 E0.70416
G1 X-26.327 Y-7.81 E0.71297
G1 X-26.016 Y-8.203 E0.72131
G1 X-25.45 Y-8.814 E0.73516
G1 X-15.493 Y-19.227 E0.97475
G1 X-14.621 Y-20.08 E0.99504
G1 X-14.158 Y-20.503 E1.00547
G1 X-13.691 Y-20.902 E1.01568
G1 X-13.186 Y-21.305 E1.02643
G1 X-12.507 Y-21.809 E1.04049
G1 X-12.072 Y-22.108 E1.04927
G1 X-11.226 Y-22.647 E1.06595
G1 X-10.27 Y-23.191 E1.08424
G1 X-9.542 Y-23.558 E1.0978
G1 X-8.979 Y-23.817 E1.10811
G1 X-8.078 Y-24.198 E1.12437
G1 X-6.864 Y-24.617 E1.14573
G1 X-6.383 Y-24.763 E1.15409
G1 X-5.858 Y-24.906 E1.16314
G1 X-4.91 Y-25.128 E1.17933
G1 X-4.377 Y-25.232 E1.18836
G1 X-3.65 Y-25.348 E1.20061
G1 X-3.017 Y-25.427 E1.21121
G1 X-2.17 Y-25.504 E1.22536
G1 X-1.511 Y-25.539 E1.23633
G1 X-.823 Y-25.553 E1.24778
G1 X-.22 Y-25.545 E1.2578
G1 X0.869 Y-25.493 E1.27594
G1 X1.869 Y-25.379 E1.29267
G1 X2.449 Y-25.293 E1.30242
G1 X3.281 Y-25.141 E1.31649
G1 X3.938 Y-24.995 E1.32768
G1 X4.82 Y-24.77 E1.34282
G1 X19.117 Y-20.598 E1.5905
G1 X19.805 Y-20.386 E1.60247
G1 X20.275 Y-20.2 E1.61087
G1 X20.896 Y-19.827 E1.62292
G1 X21.299 Y-19.522 E1.63133
G1 X21.841 Y-18.931 E1.64466
G1 X22.136 Y-18.52 E1.65307
G1 X22.479 Y-17.81 E1.66619
G1 X22.64 Y-17.355 E1.67421
G1 X23.099 Y-15.669 E1.70327
G1 X23.408 Y-14.443 E1.7243
G1 X24.13 Y-11.742 E1.77079
G1 X24.719 Y-9.669 E1.80663
G1 X25.132 Y-8.088 E1.83381
G1 X25.267 Y-7.327 E1.84666
G1 X25.306 Y-6.823 E1.85507
G1 X25.273 Y-6.302 E1.86375
G1 X25.192 Y-5.803 E1.87216
G1 X24.997 Y-5.217 E1.88243
G1 X24.721 Y-4.615 E1.89344
G1 X24.143 Y-3.874 E1.90907
G1 X23.368 Y-3.031 E1.92811
G1 X13.572 Y7.213 E2.16383
G1 X12.643 Y8.12 E2.18542
G1 X12.223 Y8.499 E2.19482
G1 X11.681 Y8.958 E2.20664
G1 X11.151 Y9.378 E2.21788
G1 X10.539 Y9.828 E2.23051
G1 X10.017 Y10.184 E2.24102
G1 X9.502 Y10.515 E2.2512
G1 X8.867 Y10.89 E2.26347
G1 X8.166 Y11.272 E2.27674
G1 X7.627 Y11.542 E2.28677
G1 X6.962 Y11.847 E2.29894
G1 X6.407 Y12.079 E2.30894
G1 X5.759 Y12.327 E2.32048
G1 X5.045 Y12.571 E2.33303
G1 X4.35 Y12.78 E2.34509
G1 X3.575 Y12.983 E2.35842
G1 X3.008 Y13.111 E2.36808
G1 X2.415 Y13.225 E2.37813
G1 F2700 E-4.12187
;MESH:???????????? 1.stl
G0 F3000 X1.789 Y9.69
G0 X1.05 Y7.582
;TYPE:WALL-INNER
G1 F2700 E2.37813
G1 F2100 X1.889 Y7.433 E2.3923
G1 X2.531 Y7.274 E2.4033
G1 X3.243 Y7.073 E2.4156
G1 X4.031 Y6.793 E2.42951
G1 X5.077 Y6.352 E2.44838
G1 X6.053 Y5.835 E2.46675
G1 X6.643 Y5.473 E2.47826
G1 X7.61 Y4.808 E2.49778
G1 X8.226 Y4.3 E2.51106
G1 X8.809 Y3.783 E2.52402
G1 X9.331 Y3.255 E2.53636
G1 X19.363 Y-7.237 E2.77777
G1 X19.303 Y-7.464 E2.78168
G1 X8.155 Y-4.478 E2.9736
G1 X7.778 Y-3.237 E2.99517
G1 X7.203 Y-2.05 E3.01711
G1 X6.661 Y-1.189 E3.03403
G1 X6.017 Y-.369 E3.05137
G1 X5.3 Y0.356 E3.06832
G1 X4.468 Y1.034 E3.08617
G1 X3.452 Y1.699 E3.10636
G1 X2.256 Y2.233 E3.12815
G1 X1.006 Y2.625 E3.14993
G1 X-.425 Y2.837 E3.17399
G1 X-1.724 Y2.84 E3.19559
G1 X-2.726 Y2.725 E3.21237
G1 X-3.717 Y2.502 E3.22926
G1 X-4.953 Y2.089 E3.25093
G1 X-6.084 Y1.48 E3.27229
G1 X-6.933 Y0.905 E3.28934
G1 X-7.616 Y0.322 E3.30428
G1 X-8.064 Y-.132 E3.31488
G1 X-19.233 Y2.861 E3.50718
G1 X-19.173 Y3.083 E3.511
G1 X-5.195 Y7.171 E3.7532
G1 X-4.465 Y7.368 E3.76577
G1 X-3.753 Y7.514 E3.77786
G1 X-3.052 Y7.629 E3.78967
G1 X-2.283 Y7.708 E3.80253
G1 X-1.305 Y7.752 E3.81881
G1 X-.773 Y7.747 E3.82765
G1 X0.127 Y7.694 E3.84265
G1 X1.05 Y7.582 E3.85811
G0 F3000 X1.112 Y7.978
G1 F2100 X1.759 Y7.862 E3.86904
G1 X2.592 Y7.672 E3.88325
G1 X3.364 Y7.454 E3.89659
G1 X4.338 Y7.108 E3.91378
G1 X5.266 Y6.703 E3.93062
G1 X5.984 Y6.325 E3.94411
G1 X6.43 Y6.072 E3.95264
G1 X6.858 Y5.81 E3.96098
G1 X7.277 Y5.53 E3.96937
G1 X7.695 Y5.234 E3.97788
G1 X8.122 Y4.904 E3.98686
G1 X8.684 Y4.439 E3.99899
G1 X9.235 Y3.921 E4.01156
G1 X9.62 Y3.532 E4.02067
G1 X19.807 Y-7.123 E4.26581
G1 X19.586 Y-7.954 E4.28011
G1 X7.802 Y-4.798 E4.48299
G1 X7.717 Y-4.413 E4.48955
G1 X7.401 Y-3.371 E4.50765
G1 X6.851 Y-2.243 E4.52852
G1 X6.329 Y-1.413 E4.54483
G1 X5.717 Y-.633 E4.56132
G1 X5.03 Y0.06 E4.57755
G1 X4.236 Y0.708 E4.59459
G1 X3.256 Y1.349 E4.61406
G1 X2.165 Y1.835 E4.63392
G1 X0.93 Y2.231 E4.65549
G1 X-.464 Y2.443 E4.67894
G1 X-1.697 Y2.44 E4.69945
G1 X-2.654 Y2.331 E4.71546
G1 X-3.613 Y2.116 E4.73181
G1 X-4.794 Y1.72 E4.75252
G1 X-5.875 Y1.139 E4.77293
G1 X-6.692 Y0.585 E4.78935
G1 X-7.448 Y-0.059 E4.80586
G1 X-7.937 Y-.58 E4.81775
G1 X-19.724 Y2.578 E5.02068
G1 X-19.5 Y3.404 E5.03491
G1 X-5.3 Y7.557 E5.28095
G1 X-4.546 Y7.76 E5.29394
G1 X-3.825 Y7.907 E5.30617
G1 X-3.105 Y8.026 E5.31831
G1 X-2.316 Y8.106 E5.3315
G1 X-1.813 Y8.137 E5.33988
G1 X-1.309 Y8.152 E5.34826
G1 X-.806 Y8.148 E5.35663
G1 X0.008 Y8.113 E5.37018
G1 X1.112 Y7.978 E5.38867
G0 F3000 X1.173 Y8.373
G1 F2100 X1.789 Y8.264 E5.39908
G1 X2.508 Y8.111 E5.4113
G1 X3.486 Y7.836 E5.4282
G1 X4.315 Y7.541 E5.44283
G1 X5.27 Y7.138 E5.46007
G1 X5.975 Y6.79 E5.47314
G1 X6.633 Y6.417 E5.48572
G1 X7.074 Y6.147 E5.49432
G1 X7.504 Y5.86 E5.50292
G1 X7.933 Y5.556 E5.51166
G1 X8.575 Y5.059 E5.52516
G1 X9.135 Y4.565 E5.53758
G1 X9.514 Y4.207 E5.54625
G1 X9.909 Y3.808 E5.55559
G1 X20.251 Y-7.009 E5.80447
G1 X19.87 Y-8.444 E5.82916
G1 X7.453 Y-5.118 E6.04293
G1 X7.335 Y-4.529 E6.05292
G1 X7.009 Y-3.479 E6.07121
G1 X6.498 Y-2.432 E6.09058
G1 X6.009 Y-1.654 E6.10586
G1 X5.416 Y-.899 E6.12183
G1 X4.761 Y-.236 E6.13733
G1 X4.005 Y0.382 E6.15357
G1 X3.062 Y0.998 E6.1723
G1 X2.014 Y1.465 E6.19138
G1 X0.891 Y1.829 E6.21101
G1 X-.486 Y2.04 E6.23418
G1 X-1.68 Y2.04 E6.25403
G1 X-2.592 Y1.933 E6.2693
G1 X-3.508 Y1.73 E6.28491
G1 X-4.641 Y1.349 E6.30478
G1 X-5.671 Y0.794 E6.32424
G1 X-6.447 Y0.268 E6.33983
G1 X-7.172 Y-.35 E6.35567
G1 X-7.804 Y-1.029 E6.3711
G1 X-20.214 Y2.296 E6.58476
G1 X-19.828 Y3.725 E6.60938
G1 X-5.405 Y7.943 E6.85928
G1 X-4.668 Y8.143 E6.87198
G1 X-3.898 Y8.301 E6.88505
G1 X-3.158 Y8.422 E6.89752
G1 X-2.349 Y8.505 E6.91104
G1 X-1.831 Y8.537 E6.91967
G1 X-1.313 Y8.552 E6.92829
G1 X-.796 Y8.548 E6.93689
G1 X-.278 Y8.527 E6.94551
G1 X0.239 Y8.487 E6.95413
G1 X1.173 Y8.373 E6.96978
G0 F3000 X1.235 Y8.768
G1 F2100 X1.865 Y8.657 E6.98042
G1 X2.796 Y8.446 E6.9963
G1 X3.607 Y8.217 E7.01031
G1 X4.458 Y7.915 E7.02533
G1 X5.439 Y7.501 E7.04303
G1 X5.888 Y7.28 E7.05136
G1 X6.368 Y7.027 E7.06038
G1 X7.118 Y6.599 E7.07474
G1 X8.029 Y5.988 E7.09298
G1 X8.587 Y5.557 E7.10471
G1 X9.004 Y5.214 E7.11369
G1 X9.404 Y4.861 E7.12256
G1 X9.794 Y4.493 E7.13148
G1 X10.198 Y4.085 E7.14103
G1 X20.693 Y-6.901 E7.39369
G1 X20.155 Y-8.932 E7.42863
G1 X7.105 Y-5.439 E7.65329
G1 X6.975 Y-4.72 E7.66545
G1 X6.638 Y-3.629 E7.68443
G1 X6.181 Y-2.692 E7.70177
G1 X5.678 Y-1.878 E7.71768
G1 X5.077 Y-1.124 E7.73372
G1 X4.474 Y-.517 E7.74795
G1 X3.807 Y0.031 E7.7623
G1 X2.834 Y0.663 E7.7816
G1 X1.864 Y1.094 E7.79925
G1 X0.793 Y1.437 E7.81795
G1 X-.512 Y1.644 E7.83993
G1 X-1.654 Y1.638 E7.85892
G1 X-2.58 Y1.528 E7.87443
G1 X-3.403 Y1.344 E7.88845
G1 X-4.482 Y0.981 E7.90738
G1 X-5.401 Y0.485 E7.92475
G1 X-6.199 Y-0.046 E7.94069
G1 X-6.894 Y-.639 E7.95588
G1 X-7.456 Y-1.236 E7.96952
G1 X-7.653 Y-1.484 E7.97478
G1 X-20.705 Y2.013 E8.1995
G1 X-20.157 Y4.047 E8.23453
G1 X-5.51 Y8.329 E8.4883
G1 X-4.732 Y8.538 E8.5017
G1 X-3.97 Y8.694 E8.51464
G1 X-3.211 Y8.819 E8.52743
G1 X-2.381 Y8.904 E8.5413
G1 X-1.849 Y8.936 E8.55017
G1 X-1.317 Y8.952 E8.55902
G1 X-.786 Y8.948 E8.56785
G1 X-.255 Y8.926 E8.57669
G1 X0.331 Y8.88 E8.58646
G1 X1.235 Y8.768 E8.60161
G0 F3000 X1.941 Y9.05
G1 F2100 X2.699 Y8.888 E8.6145
G1 X3.728 Y8.598 E8.63228
G1 X4.6 Y8.289 E8.64766
G1 X5.08 Y8.094 E8.65628
G1 X5.607 Y7.864 E8.66584
G1 X6.07 Y7.636 E8.67443
G1 X6.56 Y7.378 E8.68363
G1 X7.331 Y6.937 E8.69841
G1 X7.957 Y6.519 E8.71092
G1 X8.409 Y6.199 E8.72013
G1 X8.836 Y5.87 E8.7291
G1 X9.263 Y5.518 E8.7383
G1 X9.674 Y5.156 E8.74741
G1 X10.073 Y4.78 E8.75653
G1 X10.487 Y4.361 E8.76632
G1 X20.969 Y-6.603 E9.01857
G1 X21.128 Y-6.82 E9.02305
G1 X20.498 Y-9.199 E9.06397
G1 X20.275 Y-9.341 E9.06837
G1 X20.051 Y-9.321 E9.07211
G1 X6.758 Y-5.761 E9.30096
G1 X6.569 Y-4.761 E9.31789
G1 X6.267 Y-3.779 E9.33497
G1 X5.822 Y-2.869 E9.35182
G1 X5.319 Y-2.07 E9.36752
G1 X4.777 Y-1.39 E9.38198
G1 X4.21 Y-.817 E9.39539
G1 X3.543 Y-.271 E9.40972
G1 X2.647 Y0.309 E9.42747
G1 X1.698 Y0.729 E9.44473
G1 X0.667 Y1.055 E9.46271
G1 X-.547 Y1.242 E9.48314
G1 X-1.63 Y1.239 E9.50115
G1 X-2.5 Y1.136 E9.51572
G1 X-3.298 Y0.958 E9.52932
G1 X-4.319 Y0.614 E9.54723
G1 X-5.211 Y0.133 E9.56409
G1 X-5.992 Y-.395 E9.57977
G1 X-6.657 Y-.97 E9.59439
G1 X-7.165 Y-1.51 E9.60672
G1 X-7.497 Y-1.94 E9.61575
G1 X-20.966 Y1.669 E9.84764
G1 X-21.11 Y1.886 E9.85197
G1 X-21.11 Y2.044 E9.8546
G1 X-20.53 Y4.193 E9.89162
G1 X-20.45 Y4.346 E9.89449
G1 X-20.335 Y4.41 E9.89668
G1 X-5.615 Y8.715 E10.15173
G1 X-4.855 Y8.922 E10.16482
G1 X-4.043 Y9.088 E10.17861
G1 X-3.264 Y9.216 E10.19174
G1 X-2.414 Y9.303 E10.20595
G1 X-1.867 Y9.336 E10.21506
G1 X-1.321 Y9.352 E10.22414
G1 X-.777 Y9.348 E10.23319
G1 X-.231 Y9.325 E10.24228
G1 X0.312 Y9.284 E10.25133
G1 X1.102 Y9.197 E10.26455
G1 X1.941 Y9.05 E10.27872
G0 F3000 X2.017 Y9.442
G1 F2100 X2.789 Y9.278 E10.29184
G1 X3.85 Y8.98 E10.31017
G1 X4.742 Y8.663 E10.32591
G1 X5.235 Y8.462 E10.33476
G1 X5.775 Y8.227 E10.34456
G1 X6.251 Y7.993 E10.35338
G1 X6.752 Y7.729 E10.3628
G1 X7.243 Y7.451 E10.37218
G1 X7.72 Y7.158 E10.38149
G1 X8.184 Y6.849 E10.39076
G1 X8.647 Y6.521 E10.4002
G1 X9.085 Y6.182 E10.40941
G1 X9.523 Y5.823 E10.41883
G1 X9.943 Y5.452 E10.42814
G1 X10.352 Y5.066 E10.4375
G1 X10.776 Y4.638 E10.44752
G1 X21.276 Y-6.344 E10.70019
G1 X21.468 Y-6.604 E10.70557
G1 X21.529 Y-6.868 E10.71007
G1 X20.893 Y-9.266 E10.75133
G1 X20.734 Y-9.52 E10.75631
G1 X20.44 Y-9.71 E10.76214
G1 X20.122 Y-9.753 E10.76747
G1 X6.378 Y-6.072 E11.00409
G1 X6.334 Y-5.672 E11.01078
G1 X6.187 Y-4.877 E11.02423
G1 X5.897 Y-3.93 E11.0407
G1 X5.433 Y-2.992 E11.0581
G1 X5.041 Y-2.368 E11.07036
G1 X4.492 Y-1.671 E11.08511
G1 X3.945 Y-1.117 E11.09806
G1 X3.325 Y-.608 E11.1114
G1 X2.473 Y-0.049 E11.12835
G1 X1.537 Y0.362 E11.14535
G1 X0.584 Y0.664 E11.16197
G1 X-.556 Y0.841 E11.18116
G1 X-1.637 Y0.837 E11.19913
G1 X-2.398 Y0.749 E11.21187
G1 X-3.194 Y0.572 E11.22543
G1 X-4.161 Y0.245 E11.24241
G1 X-5.021 Y-.219 E11.25866
G1 X-5.746 Y-.711 E11.27323
G1 X-6.365 Y-1.244 E11.28682
G1 X-6.874 Y-1.784 E11.29916
G1 X-7.341 Y-2.396 E11.31196
G1 X-21.039 Y1.274 E11.54779
G1 X-21.29 Y1.431 E11.55272
G1 X-21.48 Y1.722 E11.55849
G1 X-21.511 Y2.095 E11.56472
G1 X-20.905 Y4.339 E11.60337
G1 X-20.769 Y4.599 E11.60825
G1 X-20.592 Y4.752 E11.61214
G1 X-5.761 Y9.09 E11.86912
G1 X-5.214 Y9.238 E11.87854
G1 X-4.721 Y9.358 E11.88698
G1 X-4.115 Y9.481 E11.89726
G1 X-3.316 Y9.612 E11.91073
G1 X-2.447 Y9.701 E11.92526
G1 X-1.885 Y9.736 E11.93462
G1 X-1.325 Y9.752 E11.94394
G1 X-.767 Y9.748 E11.95322
G1 X-.208 Y9.725 E11.96252
G1 X0.349 Y9.682 E11.97181
G1 X0.851 Y9.628 E11.98021
G1 X1.359 Y9.559 E11.98873
G1 X2.017 Y9.442 E11.99985
G0 F3000 X2.093 Y9.835
;TYPE:WALL-OUTER
G1 F2100 X2.599 Y9.728 E12.00716
G1 X3.101 Y9.606 E12.01446
G1 X3.971 Y9.361 E12.02724
G1 X4.884 Y9.037 E12.04093
G1 X5.39 Y8.831 E12.04865
G1 X5.943 Y8.59 E12.05718
G1 X6.433 Y8.349 E12.0649
G1 X6.944 Y8.08 E12.07306
G1 X7.446 Y7.795 E12.08122
G1 X7.936 Y7.495 E12.08934
G1 X8.41 Y7.179 E12.0974
G1 X8.885 Y6.843 E12.10562
G1 X9.335 Y6.495 E12.11366
G1 X9.782 Y6.127 E12.12185
G1 X10.213 Y5.748 E12.12996
G1 X10.632 Y5.352 E12.13811
G1 X11.065 Y4.914 E12.14682
G1 X21.582 Y-6.086 E12.36194
G1 X21.822 Y-6.41 E12.36764
G1 X21.899 Y-6.61 E12.37067
G1 X21.918 Y-6.819 E12.37363
G1 X21.875 Y-7.124 E12.37799
G1 X21.268 Y-9.414 E12.41148
G1 X21.002 Y-9.824 E12.41839
G1 X20.605 Y-10.079 E12.42506
G1 X20.382 Y-10.14 E12.42832
G1 X19.883 Y-10.104 E12.4354
G1 X6.126 Y-6.419 E12.63671
G1 X6 Y-6.306 E12.63911
G1 X5.941 Y-5.744 E12.64709
G1 X5.804 Y-4.993 E12.65789
G1 X5.526 Y-4.08 E12.67138
G1 X5.094 Y-3.205 E12.68517
G1 X4.69 Y-2.564 E12.69588
G1 X4.207 Y-1.951 E12.70691
G1 X3.681 Y-1.417 E12.71751
G1 X3.074 Y-.92 E12.7286
G1 X2.274 Y-.399 E12.74209
G1 X1.397 Y-0.013 E12.75564
G1 X0.502 Y0.272 E12.76891
G1 X-.608 Y0.444 E12.78479
G1 X-1.591 Y0.439 E12.79869
G1 X-2.333 Y0.354 E12.80924
G1 X-3.089 Y0.186 E12.82019
G1 X-4.015 Y-.131 E12.83403
G1 X-4.831 Y-.571 E12.84713
G1 X-5.486 Y-1.015 E12.85832
G1 X-6.074 Y-1.518 E12.86925
G1 X-6.582 Y-2.058 E12.87973
G1 X-7.105 Y-2.746 E12.89195
G1 X-7.287 Y-2.824 E12.89475
G1 X-21.186 Y0.9 E13.09815
G1 X-21.592 Y1.163 E13.10499
G1 X-21.85 Y1.558 E13.11166
G1 X-21.908 Y1.779 E13.11489
G1 X-21.911 Y2.146 E13.12007
G1 X-21.28 Y4.486 E13.15433
G1 X-21.088 Y4.853 E13.16019
G1 X-20.851 Y5.057 E13.16461
G1 X-20.611 Y5.163 E13.16832
G1 X-5.869 Y9.475 E13.38543
G1 X-5.314 Y9.626 E13.39357
G1 X-4.808 Y9.748 E13.40092
G1 X-4.187 Y9.875 E13.40988
G1 X-3.369 Y10.009 E13.4216
G1 X-2.479 Y10.1 E13.43425
G1 X-1.903 Y10.136 E13.4424
G1 X-1.329 Y10.152 E13.45052
G1 X-.757 Y10.148 E13.45861
G1 X0.05 Y10.114 E13.47002
G1 X0.899 Y10.025 E13.48209
G1 X1.421 Y9.954 E13.48954
G1 X2.093 Y9.835 E13.49918
G0 F3000 X2.288 Y9.794
G0 X2.145 Y9.114
G0 X1.561 Y7.39
G0 X1.516 Y7.133
;TYPE:SKIN
G1 F2100 X0.994 Y7.226 E13.508
G1 X0.159 Y7.328 E13.52199
G1 X-.545 Y7.384 E13.53374
G1 X-1.296 Y7.392 E13.54623
G1 X-2.249 Y7.348 E13.56209
G1 X-3.004 Y7.269 E13.57472
G1 X-4.03 Y7.096 E13.59202
G1 X-5.123 Y6.815 E13.61079
G1 X-18.264 Y2.973 E13.83847
G1 X-8.177 Y0.272 E14.01213
G1 X-7.895 Y0.557 E14.0188
G1 X-7.145 Y1.194 E14.03516
G1 X-6.259 Y1.793 E14.05295
G1 X-5.103 Y2.413 E14.07476
G1 X-3.824 Y2.842 E14.09719
G1 X-2.789 Y3.08 E14.11486
G1 X-1.738 Y3.2 E14.13245
G1 X-.4 Y3.196 E14.1547
G1 X1.078 Y2.974 E14.17955
G1 X2.437 Y2.543 E14.20326
G1 X3.614 Y2.019 E14.22469
G1 X4.679 Y1.324 E14.24584
G1 X5.539 Y0.624 E14.26428
G1 X6.281 Y-.121 E14.28176
G1 X6.962 Y-.986 E14.30007
G1 X7.525 Y-1.888 E14.31775
G1 X8.108 Y-3.092 E14.34
G1 X8.436 Y-4.179 E14.35888
G1 X18.526 Y-6.882 E14.5326
G1 X9.078 Y2.994 E14.75989
G1 X8.538 Y3.542 E14.77268
G1 X7.831 Y4.162 E14.78832
G1 X7.289 Y4.59 E14.79981
G1 X6.313 Y5.262 E14.81951
G1 X5.621 Y5.655 E14.83275
G1 X4.779 Y6.082 E14.84845
G1 X3.899 Y6.457 E14.86435
G1 X3.135 Y6.729 E14.87784
G1 X2.402 Y6.934 E14.8905
G1 X1.516 Y7.133 E14.9056
G1 F2700 E8.4056
G0 F3000 X1.561 Y7.39
G0 X-.533 Y7.584
G0 X-2.269 Y7.547
G0 X-4.076 Y7.293
G0 X-18.899 Y2.968
G0 X-17.529 Y2.509
G0 X-17.411 Y2.954
G1 F2700 E14.9056
G1 F2100 X-17.325 Y3.04 E14.90762
G0 F3000 X-16.965 Y2.834
G1 F2100 X-16.525 Y3.274 E14.91797
G0 F3000 X-16.519 Y2.715
G1 F2100 X-15.726 Y3.507 E14.93661
G1 X-15.656 Y3.577
G0 F3000 X-14.927 Y3.741
G1 F2100 X-16.073 Y2.595 E14.96356
