;FLAVOR:Marlin
;TIME:2642
;Filament used: 4.1028m
;Layer height: 0.2
;MINX:-25.231
;MINY:-17.74
;MINZ:0.1
;MAXX:25.7
;MAXY:17.75
;MAXZ:14.9
;TARGET_MACHINE.NAME:Unknown
;Generated with Cura_SteamEngine 5.7.0
M82 ;absolute extrusion mode
G21 ; millimeter units
G90 ; absolute coordinates
M82 ; E absolute
M140 S60.0
M104 S250.0
M190 S60.0
M109 S240.0
G28 ; home axis
M420 S1 ; enable mesh leveling
; Lower nozzle and move to start position
G1 Z150
G1 X-130 Y0 Z0.4 F3000
; Extrude about 40 mm by printing a 90 degree arc
G3 X0 Y-130 I130 Z0.3 E40 F2700
; Retract and move nozzle up
G92 E0
G1 E-1.5 F1800
G0 Z0.5
G1 E0 F300

G92 E0
G92 E0
G1 F2700 E-6.5
;LAYER_COUNT:75
;LAYER:0
M107
G1 F3000 Z0.7
G0 X3.33 Y-15.582 Z0.7
;TYPE:SKIRT
G1 F3000 Z0.1
G1 F2700 E0
G1 F2100 X6.021 Y-15.046 E0.04563
G1 X8.209 Y-14.671 E0.08255
G1 X8.793 Y-14.506 E0.09264
G1 X9.252 Y-14.294 E0.10105
G1 X9.738 Y-13.968 E0.11078
G1 X10.683 Y-13.067 E0.13249
G1 X12.733 Y-11.158 E0.17908
G1 X14.771 Y-9.364 E0.22423
G1 X16.89 Y-7.605 E0.27003
G1 X19.031 Y-5.926 E0.31528
G1 X21.239 Y-4.294 E0.36094
G1 X23.474 Y-2.738 E0.40623
G1 X24.272 Y-2.203 E0.4222
G1 X24.668 Y-1.889 E0.43061
G1 X25.01 Y-1.517 E0.43901
G1 X25.289 Y-1.095 E0.44742
G1 X25.499 Y-.635 E0.45583
G1 X25.633 Y-.148 E0.46423
G1 X25.7 Y0.478 E0.4747
G1 X25.7 Y13.858 E0.69721
G1 X25.69 Y14.585 E0.7093
G1 X25.643 Y15.088 E0.71771
G1 X25.517 Y15.578 E0.72612
G1 X25.316 Y16.042 E0.73453
G1 X25.044 Y16.468 E0.74293
G1 X24.709 Y16.847 E0.75135
G1 X24.318 Y17.167 E0.75975
G1 X23.882 Y17.422 E0.76815
G1 X23.411 Y17.606 E0.77656
G1 X22.916 Y17.712 E0.78498
G1 X22.46 Y17.75 E0.79259
G1 X-7.403 Y17.746 E1.28921
G1 X-8.605 Y17.699 E1.30921
G1 X-9.222 Y17.651 E1.31951
G1 X-10.007 Y17.556 E1.33266
G1 X-10.537 Y17.472 E1.34158
G1 X-11.274 Y17.328 E1.35407
G1 X-11.976 Y17.16 E1.36607
G1 X-12.603 Y16.983 E1.37691
G1 X-13.359 Y16.738 E1.39012
G1 X-13.946 Y16.521 E1.40053
G1 X-14.508 Y16.29 E1.41063
G1 X-15.34 Y15.908 E1.42586
G1 X-15.853 Y15.645 E1.43545
G1 X-16.511 Y15.275 E1.448
G1 X-16.968 Y14.995 E1.45691
G1 X-17.706 Y14.504 E1.47165
G1 X-18.169 Y14.166 E1.48119
G1 X-18.773 Y13.69 E1.49398
G1 X-19.301 Y13.237 E1.50555
G1 X-19.787 Y12.787 E1.51656
G1 X-20.295 Y12.277 E1.52853
G1 X-20.765 Y11.77 E1.54003
G1 X-21.191 Y11.27 E1.55095
G1 X-21.583 Y10.777 E1.56143
G1 X-21.993 Y10.22 E1.57293
G1 X-22.403 Y9.612 E1.58512
G1 X-22.773 Y9.012 E1.59685
G1 X-23.094 Y8.444 E1.6077
G1 X-23.438 Y7.776 E1.62019
G1 X-23.694 Y7.227 E1.63027
G1 X-23.993 Y6.513 E1.64314
G1 X-24.224 Y5.897 E1.65408
G1 X-24.439 Y5.246 E1.66548
G1 X-24.742 Y4.176 E1.68398
G1 X-24.957 Y3.118 E1.70193
G1 X-25.046 Y2.575 E1.71108
G1 X-25.144 Y1.775 E1.72448
G1 X-25.222 Y0.802 E1.74072
G1 X-25.231 Y-.204 E1.75745
G1 X-25.206 Y-.949 E1.76984
G1 X-25.143 Y-1.774 E1.7836
G1 X-25.066 Y-2.431 E1.7946
G1 X-24.979 Y-2.988 E1.80398
G1 X-24.826 Y-3.77 E1.81723
G1 X-24.633 Y-4.577 E1.83103
G1 X-24.478 Y-5.124 E1.84048
G1 X-24.142 Y-6.156 E1.85853
G1 X-23.756 Y-7.091 E1.87535
G1 X-23.54 Y-7.564 E1.884
G1 X-23.141 Y-8.359 E1.89879
G1 X-22.848 Y-8.887 E1.90884
G1 X-22.438 Y-9.556 E1.92189
G1 X-22.088 Y-10.085 E1.93243
G1 X-21.686 Y-10.644 E1.94388
G1 X-21.327 Y-11.104 E1.95359
G1 X-20.802 Y-11.726 E1.96712
G1 X-20.275 Y-12.302 E1.98011
G1 X-19.867 Y-12.709 E1.98969
G1 X-19.246 Y-13.287 E2.0038
G1 X-18.762 Y-13.7 E2.01438
G1 X-18.352 Y-14.027 E2.0231
G1 X-17.67 Y-14.528 E2.03718
G1 X-17.131 Y-14.892 E2.04799
G1 X-16.696 Y-15.165 E2.05653
G1 X-15.96 Y-15.586 E2.07063
G1 X-15.313 Y-15.92 E2.08274
G1 X-14.538 Y-16.279 E2.09695
G1 X-13.675 Y-16.636 E2.11248
G1 X-12.819 Y-16.919 E2.12747
G1 X-12.118 Y-17.121 E2.1396
G1 X-11.046 Y-17.383 E2.15795
G1 X-9.971 Y-17.561 E2.17607
G1 X-9.443 Y-17.628 E2.18493
G1 X-8.753 Y-17.689 E2.19645
G1 X-7.67 Y-17.74 E2.21448
G1 X-6.558 Y-17.707 E2.23298
G1 X-5.899 Y-17.661 E2.24396
G1 X-5.078 Y-17.566 E2.25771
G1 X-4.054 Y-17.405 E2.27495
G1 X-3.126 Y-17.188 E2.29079
G1 X-2.002 Y-16.879 E2.31018
G1 X0.634 Y-16.197 E2.35546
G1 X3.33 Y-15.582 E2.40145
G1 F2700 E-4.09855
;MESH:?????? ????????????????????.stl
G0 F3000 X3.32 Y-11.132
G0 X1.216 Y-8.99
;TYPE:WALL-INNER
G1 F2700 E2.40145
G1 F2100 X0.602 Y-9.125 E2.4119
G1 X-0.071 Y-9.397 E2.42397
G1 X-.917 Y-9.97 E2.44097
G1 X-1.722 Y-10.457 E2.45661
G1 X-2.551 Y-10.875 E2.47205
G1 X-3.025 Y-11.076 E2.48061
G1 X-3.718 Y-11.339 E2.49294
G1 X-4.532 Y-11.579 E2.50705
G1 X-5.273 Y-11.738 E2.51966
G1 X-5.953 Y-11.853 E2.53113
G1 X-6.953 Y-11.943 E2.54782
G1 X-7.855 Y-11.948 E2.56282
G1 X-8.524 Y-11.904 E2.57397
G1 X-9.161 Y-11.838 E2.58462
G1 X-10.213 Y-11.645 E2.60241
G1 X-11.489 Y-11.275 E2.6245
G1 X-12.571 Y-10.819 E2.64403
G1 X-13.398 Y-10.391 E2.65952
G1 X-14.383 Y-9.783 E2.67877
G1 X-15.448 Y-8.932 E2.70144
G1 X-15.988 Y-8.407 E2.71396
G1 X-16.526 Y-7.844 E2.72691
G1 X-17.2 Y-6.976 E2.74519
G1 X-17.728 Y-6.176 E2.76113
G1 X-18.274 Y-5.188 E2.7799
G1 X-18.724 Y-4.101 E2.79946
G1 X-18.965 Y-3.386 E2.81201
G1 X-19.184 Y-2.517 E2.82692
G1 X-19.342 Y-1.619 E2.84208
G1 X-19.418 Y-.858 E2.8548
G1 X-19.448 Y0.069 E2.87022
G1 X-19.405 Y0.996 E2.88565
G1 X-19.328 Y1.712 E2.89763
G1 X-19.207 Y2.388 E2.90905
G1 X-18.997 Y3.251 E2.92382
G1 X-18.741 Y4.078 E2.93822
G1 X-18.234 Y5.266 E2.9597
G1 X-17.757 Y6.135 E2.97618
G1 X-17.411 Y6.671 E2.98679
G1 X-16.837 Y7.453 E3.00293
G1 X-16.267 Y8.117 E3.01748
G1 X-15.776 Y8.627 E3.02925
G1 X-15.014 Y9.3 E3.04616
G1 X-14.113 Y9.951 E3.06464
G1 X-13.319 Y10.437 E3.08013
G1 X-12.344 Y10.932 E3.09831
G1 X-11.438 Y11.285 E3.11448
G1 X-10.694 Y11.51 E3.12741
G1 X-9.815 Y11.721 E3.14244
G1 X-9.317 Y11.809 E3.15085
G1 X-8.426 Y11.911 E3.16576
G1 X-7.833 Y11.948 E3.17564
G1 X19.9 Y11.948 E3.63685
G1 X19.9 Y3.049 E3.78484
G1 X0.513 Y3.051 E4.10724
G1 X-0.029 Y4.162 E4.1278
G1 X-.59 Y5.043 E4.14517
G1 X-1.234 Y5.823 E4.16199
G1 X-1.995 Y6.551 E4.17951
G1 X-2.829 Y7.168 E4.19676
G1 X-3.74 Y7.685 E4.21418
G1 X-4.695 Y8.082 E4.23138
G1 X-5.694 Y8.361 E4.24863
G1 X-6.726 Y8.519 E4.26599
G1 X-7.787 Y8.546 E4.28364
G1 X-8.773 Y8.457 E4.3001
G1 X-9.81 Y8.23 E4.31776
G1 X-10.978 Y7.834 E4.33827
G1 X-12.134 Y7.187 E4.3603
G1 X-13.173 Y6.421 E4.38176
G1 X-14.085 Y5.46 E4.4038
G1 X-14.856 Y4.399 E4.42561
G1 X-15.416 Y3.239 E4.44703
G1 X-15.836 Y2.014 E4.46856
G1 X-16.019 Y0.711 E4.49045
G1 X-16.041 Y-.3 E4.50726
G1 X-15.955 Y-1.31 E4.52412
G1 X-15.676 Y-2.58 E4.54574
G1 X-15.184 Y-3.743 E4.56674
G1 X-14.685 Y-4.646 E4.5839
G1 X-14.052 Y-5.502 E4.60161
G1 X-13.313 Y-6.274 E4.61938
G1 X-12.497 Y-6.937 E4.63686
G1 X-11.675 Y-7.461 E4.65308
G1 X-10.708 Y-7.927 E4.67093
G1 X-9.767 Y-8.244 E4.68744
G1 X-8.748 Y-8.463 E4.70477
G1 X-7.418 Y-8.569 E4.72696
G1 X-5.865 Y-8.412 E4.75292
G1 X-4.584 Y-8.038 E4.77511
G1 X-3.667 Y-7.648 E4.79168
G1 X-2.535 Y-6.986 E4.81349
G1 X-1.375 Y-6.007 E4.83873
G1 X-.602 Y-5.048 E4.85922
G1 X5.314 Y-5.051 E4.9576
G1 X5.311 Y-8.948 E5.02241
G1 X1.66 Y-8.951 E5.08313
G1 X1.216 Y-8.99 E5.09054
G0 F3000 X0.726 Y-9.505
G1 F2100 X0.023 Y-9.815 E5.10331
G1 X-.697 Y-10.305 E5.1178
G1 X-1.528 Y-10.807 E5.13394
G1 X-2.386 Y-11.239 E5.14992
G1 X-3.122 Y-11.55 E5.16321
G1 X-3.79 Y-11.778 E5.17494
G1 X-4.439 Y-11.968 E5.18619
G1 X-5.197 Y-12.13 E5.19908
G1 X-5.712 Y-12.218 E5.20777
G1 X-6.879 Y-12.343 E5.22729
G1 X-7.647 Y-12.347 E5.24006
G1 X-8.558 Y-12.303 E5.25523
G1 X-9.218 Y-12.234 E5.26626
G1 X-10.259 Y-12.044 E5.28386
G1 X-11.229 Y-11.779 E5.30058
G1 X-11.864 Y-11.551 E5.3118
G1 X-12.614 Y-11.243 E5.32529
G1 X-13.426 Y-10.843 E5.34034
G1 X-14.604 Y-10.116 E5.36336
G1 X-15.704 Y-9.24 E5.38675
G1 X-16.272 Y-8.689 E5.39991
G1 X-16.813 Y-8.121 E5.41295
G1 X-17.418 Y-7.364 E5.42907
G1 X-17.962 Y-6.577 E5.44498
G1 X-18.522 Y-5.565 E5.46421
G1 X-18.744 Y-5.099 E5.47279
G1 X-19.1 Y-4.238 E5.48829
G1 X-19.271 Y-3.729 E5.49722
G1 X-19.472 Y-3.046 E5.50906
G1 X-19.615 Y-2.379 E5.5204
G1 X-19.738 Y-1.673 E5.53232
G1 X-19.817 Y-.888 E5.54544
G1 X-19.848 Y0.072 E5.56141
G1 X-19.825 Y0.824 E5.57393
G1 X-19.752 Y1.516 E5.5855
G1 X-19.599 Y2.468 E5.60153
G1 X-19.382 Y3.36 E5.6168
G1 X-19.224 Y3.872 E5.62571
G1 X-19.059 Y4.352 E5.63415
G1 X-18.606 Y5.418 E5.65341
G1 X-18.099 Y6.343 E5.67095
G1 X-17.743 Y6.894 E5.68186
G1 X-17.216 Y7.619 E5.69677
G1 X-16.721 Y8.223 E5.70976
G1 X-16.208 Y8.755 E5.72205
G1 X-15.649 Y9.284 E5.73485
G1 X-15.125 Y9.714 E5.74612
G1 X-14.525 Y10.16 E5.75855
G1 X-13.662 Y10.711 E5.77558
G1 X-12.499 Y11.301 E5.79727
G1 X-11.568 Y11.663 E5.81388
G1 X-10.836 Y11.886 E5.8266
G1 X-10.107 Y12.075 E5.83913
G1 X-9.378 Y12.205 E5.85144
G1 X-8.459 Y12.31 E5.86682
G1 X-7.848 Y12.348 E5.877
G1 X20.3 Y12.348 E6.34511
G1 X20.3 Y2.649 E6.5064
G1 X0.213 Y2.651 E6.84045
G1 X0.057 Y3.072 E6.84792
G1 X-.378 Y3.966 E6.86445
G1 X-.914 Y4.809 E6.88106
G1 X-1.526 Y5.549 E6.89703
G1 X-2.254 Y6.244 E6.91377
G1 X-3.058 Y6.839 E6.93041
G1 X-3.909 Y7.321 E6.94667
G1 X-4.827 Y7.704 E6.96321
G1 X-5.778 Y7.969 E6.97963
G1 X-6.756 Y8.119 E6.99608
G1 X-7.719 Y8.144 E7.0121
G1 X-8.662 Y8.066 E7.02784
G1 X-9.703 Y7.844 E7.04554
G1 X-10.822 Y7.465 E7.06519
G1 X-11.901 Y6.855 E7.0858
G1 X-12.909 Y6.121 E7.10654
G1 X-13.772 Y5.203 E7.12749
G1 X-14.51 Y4.197 E7.14824
G1 X-15.044 Y3.094 E7.16862
G1 X-15.432 Y1.959 E7.18857
G1 X-15.62 Y0.685 E7.20998
G1 X-15.642 Y-.28 E7.22604
G1 X-15.558 Y-1.255 E7.24231
G1 X-15.301 Y-2.422 E7.26218
G1 X-14.823 Y-3.571 E7.28288
G1 X-14.346 Y-4.431 E7.29923
G1 X-13.735 Y-5.258 E7.31633
G1 X-13.032 Y-5.984 E7.33314
G1 X-12.263 Y-6.617 E7.3497
G1 X-11.43 Y-7.136 E7.36602
G1 X-10.552 Y-7.563 E7.38226
G1 X-9.657 Y-7.859 E7.39794
G1 X-8.68 Y-8.067 E7.41455
G1 X-7.43 Y-8.167 E7.4354
G1 X-5.939 Y-8.018 E7.46032
G1 X-4.728 Y-7.664 E7.4813
G1 X-3.881 Y-7.307 E7.49659
G1 X-2.773 Y-6.662 E7.51791
G1 X-1.662 Y-5.725 E7.54208
G1 X-.787 Y-4.648 E7.56516
G1 X5.714 Y-4.651 E7.67327
G1 X5.71 Y-9.347 E7.75136
G1 X1.661 Y-9.351 E7.8187
G1 X1.285 Y-9.384 E7.82497
G1 X0.726 Y-9.505 E7.83449
G0 F3000 X0.851 Y-9.885
G1 F2100 X0.224 Y-10.161 E7.84588
G1 X-.647 Y-10.755 E7.86341
G1 X-1.334 Y-11.157 E7.87665
G1 X-2.22 Y-11.604 E7.89315
G1 X-2.726 Y-11.818 E7.90229
G1 X-3.448 Y-12.094 E7.91514
G1 X-4.335 Y-12.355 E7.93052
G1 X-5.121 Y-12.523 E7.94388
G1 X-5.848 Y-12.647 E7.95615
G1 X-6.609 Y-12.716 E7.96886
G1 X-7.289 Y-12.755 E7.98018
G1 X-8.093 Y-12.734 E7.99356
G1 X-8.592 Y-12.701 E8.00188
G1 X-9.279 Y-12.63 E8.01336
G1 X-10.376 Y-12.427 E8.03191
G1 X-11.366 Y-12.154 E8.04899
G1 X-12.007 Y-11.925 E8.06031
G1 X-13.081 Y-11.472 E8.0797
G1 X-13.793 Y-11.086 E8.09317
G1 X-14.496 Y-10.666 E8.10678
G1 X-15.084 Y-10.247 E8.11879
G1 X-15.969 Y-9.539 E8.13764
G1 X-16.556 Y-8.971 E8.15122
G1 X-16.905 Y-8.606 E8.15962
G1 X-17.355 Y-8.099 E8.17089
G1 X-18.001 Y-7.242 E8.18874
G1 X-18.519 Y-6.425 E8.20483
G1 X-18.88 Y-5.745 E8.21763
G1 X-19.11 Y-5.259 E8.22657
G1 X-19.476 Y-4.375 E8.24249
G1 X-19.734 Y-3.606 E8.25597
G1 X-19.966 Y-2.697 E8.27158
G1 X-20.135 Y-1.728 E8.28793
G1 X-20.235 Y-.726 E8.30468
G1 X-20.248 Y0.075 E8.318
G1 X-20.202 Y1.064 E8.33447
G1 X-20.144 Y1.606 E8.34353
G1 X-19.991 Y2.548 E8.3594
G1 X-19.767 Y3.469 E8.37517
G1 X-19.5 Y4.328 E8.39012
G1 X-19.141 Y5.208 E8.40593
G1 X-18.837 Y5.828 E8.41741
G1 X-18.447 Y6.542 E8.43094
G1 X-18.075 Y7.118 E8.44235
G1 X-17.63 Y7.748 E8.45517
G1 X-17.008 Y8.501 E8.47142
G1 X-16.49 Y9.039 E8.48384
G1 X-15.912 Y9.586 E8.49707
G1 X-15.371 Y10.029 E8.5087
G1 X-14.969 Y10.329 E8.51704
G1 X-14.557 Y10.617 E8.5254
G1 X-13.86 Y11.056 E8.5391
G1 X-13.019 Y11.501 E8.55492
G1 X-12.37 Y11.781 E8.56668
G1 X-11.699 Y12.041 E8.57864
G1 X-10.719 Y12.34 E8.59568
G1 X-9.971 Y12.506 E8.60842
G1 X-9.265 Y12.631 E8.62035
G1 X-8.491 Y12.709 E8.63328
G1 X-7.864 Y12.748 E8.64373
G1 X20.7 Y12.748 E9.11875
G1 X20.7 Y2.249 E9.29335
G1 X-0.088 Y2.251 E9.63906
G1 X-.302 Y2.897 E9.65037
G1 X-.729 Y3.773 E9.66658
G1 X-1.205 Y4.522 E9.68134
G1 X-1.82 Y5.278 E9.69755
G1 X-2.512 Y5.938 E9.71345
G1 X-3.27 Y6.499 E9.72913
G1 X-4.082 Y6.96 E9.74466
G1 X-4.958 Y7.325 E9.76044
G1 X-5.858 Y7.577 E9.77598
G1 X-6.804 Y7.721 E9.7919
G1 X-7.713 Y7.744 E9.80702
G1 X-8.609 Y7.669 E9.82197
G1 X-9.595 Y7.459 E9.83874
G1 X-10.656 Y7.099 E9.85737
G1 X-11.702 Y6.512 E9.87732
G1 X-12.645 Y5.818 E9.89679
G1 X-13.464 Y4.948 E9.91666
G1 X-14.138 Y4.035 E9.93553
G1 X-14.651 Y2.984 E9.95498
G1 X-15.042 Y1.867 E9.97466
G1 X-15.221 Y0.66 E9.99495
G1 X-15.242 Y-.261 E10.01027
G1 X-15.15 Y-1.249 E10.02677
G1 X-14.918 Y-2.3 E10.04467
G1 X-14.462 Y-3.399 E10.06446
G1 X-14.003 Y-4.223 E10.08015
G1 X-13.399 Y-5.028 E10.09688
G1 X-12.775 Y-5.681 E10.1119
G1 X-12.034 Y-6.285 E10.1278
G1 X-11.294 Y-6.754 E10.14237
G1 X-10.409 Y-7.188 E10.15876
G1 X-9.612 Y-7.453 E10.17273
G1 X-8.641 Y-7.669 E10.18927
G1 X-7.436 Y-7.766 E10.20938
G1 X-6.027 Y-7.626 E10.23292
G1 X-4.9 Y-7.301 E10.25243
G1 X-4.067 Y-6.949 E10.26747
G1 X-3.006 Y-6.336 E10.28785
G1 X-1.978 Y-5.469 E10.31021
G1 X-1.267 Y-4.604 E10.32883
G1 X-1.022 Y-4.248 E10.33602
G1 X6.115 Y-4.252 E10.45471
G1 X6.11 Y-9.746 E10.54607
G1 X1.48 Y-9.751 E10.62307
G1 X0.851 Y-9.885 E10.63377
G0 F3000 X0.975 Y-10.265
G1 F2100 X0.426 Y-10.506 E10.64374
G1 X-.258 Y-10.973 E10.65751
G1 X-.693 Y-11.246 E10.66605
G1 X-1.14 Y-11.507 E10.67466
G1 X-1.891 Y-11.898 E10.68874
G1 X-2.576 Y-12.189 E10.70112
G1 X-3.061 Y-12.375 E10.70975
G1 X-3.548 Y-12.541 E10.71831
G1 X-4.232 Y-12.742 E10.73017
G1 X-5.046 Y-12.916 E10.74401
G1 X-5.78 Y-13.041 E10.75639
G1 X-6.58 Y-13.115 E10.76975
G1 X-7.089 Y-13.144 E10.77823
G1 X-7.593 Y-13.147 E10.78661
G1 X-8.111 Y-13.133 E10.79523
G1 X-8.625 Y-13.1 E10.8038
G1 X-9.322 Y-13.028 E10.81545
G1 X-10.154 Y-12.876 E10.82951
G1 X-10.658 Y-12.764 E10.8381
G1 X-11.152 Y-12.63 E10.84661
G1 X-11.647 Y-12.478 E10.85522
G1 X-12.149 Y-12.299 E10.86409
G1 X-12.931 Y-11.981 E10.87812
G1 X-13.536 Y-11.68 E10.88936
G1 X-13.991 Y-11.434 E10.89796
G1 X-14.708 Y-11.005 E10.91186
G1 X-15.284 Y-10.597 E10.9236
G1 X-15.69 Y-10.284 E10.93212
G1 X-16.27 Y-9.804 E10.94464
G1 X-16.839 Y-9.253 E10.95782
G1 X-17.199 Y-8.877 E10.96647
G1 X-17.537 Y-8.496 E10.97494
G1 X-17.858 Y-8.096 E10.98347
G1 X-18.173 Y-7.679 E10.99216
G1 X-18.464 Y-7.258 E11.00067
G1 X-18.737 Y-6.827 E11.00916
G1 X-18.995 Y-6.381 E11.01773
G1 X-19.237 Y-5.925 E11.02631
G1 X-19.581 Y-5.2 E11.03966
G1 X-19.852 Y-4.512 E11.05195
G1 X-20.019 Y-4.016 E11.06066
G1 X-20.166 Y-3.528 E11.06913
G1 X-20.293 Y-3.034 E11.07761
G1 X-20.401 Y-2.532 E11.08615
G1 X-20.532 Y-1.782 E11.09882
G1 X-20.615 Y-.947 E11.11277
G1 X-20.64 Y-.439 E11.12123
G1 X-20.648 Y0.077 E11.12981
G1 X-20.633 Y0.587 E11.1383
G1 X-20.6 Y1.097 E11.14679
G1 X-20.516 Y1.888 E11.16002
G1 X-20.351 Y2.805 E11.17552
G1 X-20.152 Y3.578 E11.18879
G1 X-19.97 Y4.165 E11.19901
G1 X-19.745 Y4.814 E11.21044
G1 X-19.418 Y5.551 E11.22384
G1 X-19.192 Y6.012 E11.23238
G1 X-18.789 Y6.749 E11.24635
G1 X-18.406 Y7.341 E11.25808
G1 X-18.109 Y7.765 E11.26669
G1 X-17.799 Y8.173 E11.27521
G1 X-17.312 Y8.762 E11.28792
G1 X-16.772 Y9.322 E11.30085
G1 X-16.18 Y9.884 E11.31443
G1 X-15.618 Y10.344 E11.32651
G1 X-14.926 Y10.857 E11.34083
G1 X-14.067 Y11.4 E11.35773
G1 X-13.446 Y11.727 E11.3694
G1 X-12.987 Y11.951 E11.3779
G1 X-12.521 Y12.151 E11.38633
G1 X-11.83 Y12.42 E11.39866
G1 X-11.054 Y12.656 E11.41215
G1 X-10.555 Y12.786 E11.42073
G1 X-10.05 Y12.898 E11.42933
G1 X-9.296 Y13.031 E11.44206
G1 X-8.523 Y13.107 E11.45498
G1 X-7.883 Y13.148 E11.46564
G1 X21.1 Y13.148 E11.94763
G1 X21.1 Y1.849 E12.13553
G1 X-.389 Y1.851 E12.4929
G1 X-.607 Y2.611 E12.50605
G1 X-1.075 Y3.573 E12.52384
G1 X-1.535 Y4.295 E12.53807
G1 X-2.112 Y5.003 E12.55326
G1 X-2.77 Y5.631 E12.56839
G1 X-3.492 Y6.165 E12.58332
G1 X-4.258 Y6.6 E12.59797
G1 X-5.089 Y6.946 E12.61294
G1 X-5.952 Y7.188 E12.62785
G1 X-6.837 Y7.322 E12.64273
G1 X-7.772 Y7.342 E12.65829
G1 X-8.596 Y7.267 E12.67205
G1 X-9.521 Y7.064 E12.6878
G1 X-10.501 Y6.729 E12.70502
G1 X-11.483 Y6.176 E12.72376
G1 X-12.38 Y5.517 E12.74227
G1 X-13.116 Y4.739 E12.76008
G1 X-13.796 Y3.826 E12.77901
G1 X-14.291 Y2.809 E12.79782
G1 X-14.655 Y1.744 E12.81654
G1 X-14.822 Y0.634 E12.83521
G1 X-14.843 Y-.241 E12.84976
G1 X-14.756 Y-1.18 E12.86544
G1 X-14.533 Y-2.194 E12.88271
G1 X-14.073 Y-3.282 E12.90235
G1 X-13.64 Y-4.041 E12.91689
