;FLAVOR:Marlin
;TIME:6850
;Filament used: 9.41269m
;Layer height: 0.2
;MINX:-47.987
;MINY:-19.007
;MINZ:0.12
;MAXX:47.812
;MAXY:22.631
;MAXZ:32.195
;TARGET_MACHINE.NAME:Unknown
;Generated with Cura_SteamEngine 5.7.0
M82 ;absolute extrusion mode
G21 ; millimeter units
G90 ; absolute coordinates
M82 ; E absolute
M140 S60.0
M104 S250.0
M190 S60.0
M109 S220.0
G28 ; home axis
M420 S1 ; enable mesh leveling
; Lower nozzle and move to start position
G1 Z150
G1 X-130 Y0 Z0.4 F3000
; Extrude about 40 mm by printing a 90 degree arc
G3 X0 Y-130 I130 Z0.3 E40 F2700
; Retract and move nozzle up
G92 E0
G1 E-1.5 F1800
G0 Z0.5
G1 E0 F300

G92 E0
G92 E0
G1 F2700 E-6.5
;LAYER_COUNT:157
;LAYER:-5
M107
G0 F6000 X0.879 Y-12.506 Z0.12
;TYPE:SUPPORT-INTERFACE
G1 F2700 E0
G1 F3375 X1.09 Y-12.539 E0.00852
G1 X9.516 Y-13.536 E0.34717
G1 X10.688 Y-13.662 E0.39422
G1 X11.192 Y-13.735 E0.41454
G1 X12.709 Y-13.906 E0.47547
G1 X14.485 Y-14.122 E0.54688
G1 X15.18 Y-14.274 E0.57527
G1 X15.826 Y-14.507 E0.60268
G1 X16.407 Y-14.8 E0.62865
G1 X16.962 Y-15.176 E0.65541
G1 X17.507 Y-15.656 E0.68439
G1 X18.117 Y-16.329 E0.72065
G1 X18.766 Y-16.926 E0.75584
G1 X19.558 Y-17.503 E0.79495
G1 X20.103 Y-17.814 E0.82
G1 X20.743 Y-18.125 E0.8484
G1 X21.591 Y-18.464 E0.88485
G1 X22.22 Y-18.676 E0.91134
G1 X22.905 Y-18.859 E0.93964
G1 X23.747 Y-18.98 E0.97359
G1 X24.661 Y-19.007 E1.01008
G1 X25.369 Y-18.936 E1.03848
G1 X26.371 Y-18.719 E1.0794
G1 X27.248 Y-18.375 E1.117
G1 X27.963 Y-17.952 E1.15016
G1 X28.191 Y-17.802 E1.16105
G1 X28.764 Y-17.454 E1.18781
G1 X29.301 Y-17.214 E1.21129
G1 X30.022 Y-16.91 E1.24252
G1 X30.852 Y-16.461 E1.28018
G1 X31.068 Y-16.33 E1.29026
G1 X31.673 Y-16.01 E1.31758
G1 X32.308 Y-15.772 E1.34464
G1 X32.955 Y-15.576 E1.37163
G1 X33.615 Y-15.278 E1.40053
G1 X34.231 Y-14.931 E1.42875
G1 X34.852 Y-14.618 E1.4565
G1 X36.291 Y-14.12 E1.51728
G1 X37.017 Y-13.841 E1.54832
G1 X37.764 Y-13.522 E1.58074
G1 X38.7 Y-13.086 E1.62195
G1 X39.625 Y-12.586 E1.66392
G1 X40.788 Y-11.858 E1.71868
G1 X41.348 Y-11.485 E1.74554
G1 X42.11 Y-10.911 E1.78361
G1 X42.759 Y-10.363 E1.81751
G1 X43.31 Y-9.855 E1.84743
G1 X43.779 Y-9.386 E1.8739
G1 X44.126 Y-9.012 E1.89426
G1 X44.643 Y-8.417 E1.92572
G1 X45.081 Y-7.858 E1.95407
G1 X45.757 Y-6.881 E2.00148
G1 X46.216 Y-6.088 E2.03805
G1 X46.524 Y-5.489 E2.06494
G1 X46.904 Y-4.79 E2.09669
G1 X47.143 Y-4.182 E2.12277
G1 X47.299 Y-3.599 E2.14685
G1 X47.4 Y-2.905 E2.17484
G1 X47.416 Y-2.329 E2.19784
G1 X47.461 Y-1.579 E2.22783
G1 X47.653 Y-.679 E2.26456
G1 X47.722 Y-.16 E2.28546
G1 X47.812 Y0.697 E2.31985
G1 X47.812 Y1.399 E2.34787
G1 X47.759 Y2.023 E2.37286
G1 X47.622 Y2.693 E2.40016
G1 X47.533 Y3.203 E2.42082
G1 X47.442 Y3.825 E2.44591
G1 X47.207 Y4.933 E2.49111
G1 X47.005 Y5.662 E2.52131
G1 X46.637 Y6.509 E2.55817
G1 X46.321 Y7.131 E2.58601
G1 X45.954 Y7.755 E2.6149
G1 X45.623 Y8.276 E2.63954
G1 X44.968 Y9.198 E2.68468
G1 X44.175 Y10.131 E2.73355
G1 X43.621 Y10.705 E2.76539
G1 X43.016 Y11.29 E2.79898
G1 X42.479 Y11.764 E2.82757
G1 X41.565 Y12.442 E2.87299
G1 X41.053 Y12.873 E2.8997
G1 X40.598 Y13.357 E2.92621
G1 X40.049 Y14.158 E2.96497
G1 X39.798 Y14.614 E2.98575
G1 X39.344 Y15.278 E3.01785
G1 X38.814 Y15.827 E3.04831
G1 X38.25 Y16.303 E3.07776
G1 X37.459 Y16.868 E3.11656
G1 X36.702 Y17.356 E3.15251
G1 X36.225 Y17.621 E3.17429
G1 X35.429 Y17.974 E3.20904
G1 X34.138 Y18.327 E3.26246
G1 X33.209 Y18.54 E3.3005
G1 X32.197 Y18.737 E3.34165
G1 X31.683 Y18.811 E3.36237
G1 X30.521 Y18.953 E3.4091
G1 X29.595 Y19 E3.4461
G1 X28.786 Y19.064 E3.47849
G1 X27.68 Y19.075 E3.52264
G1 X26.733 Y19.028 E3.56048
G1 X26.402 Y18.997 E3.57375
G1 X25.552 Y18.953 E3.60772
G1 X24.481 Y18.838 E3.65071
G1 X13.147 Y17.498 E4.10623
G1 X12.409 Y17.46 E4.13572
G1 X11.779 Y17.502 E4.16092
G1 X11.056 Y17.652 E4.19039
G1 X10.44 Y17.861 E4.21636
G1 X9.811 Y18.166 E4.24426
G1 X9.252 Y18.534 E4.27097
G1 X8.731 Y18.978 E4.29829
G1 X8.114 Y19.655 E4.33485
G1 X7.651 Y20.095 E4.36034
G1 X6.878 Y20.69 E4.39927
G1 X5.945 Y21.189 E4.4415
G1 X5.158 Y21.47 E4.47486
G1 X4.396 Y21.682 E4.50642
G1 X3.755 Y21.875 E4.53314
G1 X2.919 Y22.214 E4.56915
G1 X2.083 Y22.461 E4.60394
G1 X1.248 Y22.593 E4.63768
G1 X0.683 Y22.628 E4.66028
G1 X-.185 Y22.631 E4.69492
G1 X-1.085 Y22.582 E4.73089
G1 X-2.041 Y22.39 E4.76981
G1 X-2.67 Y22.223 E4.79579
G1 X-3.401 Y21.933 E4.82717
G1 X-4.214 Y21.486 E4.8642
G1 X-4.73 Y21.169 E4.88837
G1 X-5.346 Y20.702 E4.91923
G1 X-5.836 Y20.202 E4.94717
G1 X-6.471 Y19.452 E4.98639
G1 X-6.954 Y18.669 E5.02311
G1 X-7.281 Y17.879 E5.05723
G1 X-7.587 Y17.257 E5.0849
G1 X-7.95 Y16.708 E5.11117
G1 X-8.406 Y16.171 E5.13929
G1 X-8.905 Y15.721 E5.16611
G1 X-9.489 Y15.317 E5.19445
G1 X-10.12 Y14.992 E5.22278
G1 X-10.692 Y14.78 E5.24712
G1 X-11.38 Y14.617 E5.27534
G1 X-12.025 Y14.548 E5.30123
G1 X-12.842 Y14.512 E5.33387
G1 X-15.058 Y14.484 E5.42233
G1 X-40.317 Y14.476 E6.43047
G1 X-40.907 Y14.445 E6.45405
G1 X-41.621 Y14.338 E6.48286
G1 X-42.122 Y14.224 E6.50337
G1 X-42.826 Y14.016 E6.53267
G1 X-43.536 Y13.688 E6.56388
G1 X-44.192 Y13.314 E6.59402
G1 X-44.855 Y12.841 E6.62653
G1 X-45.482 Y12.294 E6.65974
G1 X-46.2 Y11.452 E6.7039
G1 X-46.562 Y10.977 E6.72774
G1 X-46.899 Y10.433 E6.75328
G1 X-47.167 Y9.859 E6.77857
G1 X-47.373 Y9.243 E6.80449
G1 X-47.515 Y8.558 E6.83241
G1 X-47.568 Y7.938 E6.85725
G1 X-47.576 Y7.602 E6.87066
G1 X-47.636 Y6.86 E6.90037
G1 X-47.842 Y5.913 E6.93905
G1 X-47.914 Y5.399 E6.95977
G1 X-47.987 Y4.688 E6.98829
G1 X-47.953 Y3.93 E7.01858
G1 X-47.911 Y3.594 E7.03209
G1 X-47.864 Y2.816 E7.0632
G1 X-47.863 Y-3.703 E7.32339
G1 X-47.806 Y-4.58 E7.35847
G1 X-47.674 Y-5.267 E7.38639
G1 X-47.515 Y-5.827 E7.40962
G1 X-47.28 Y-6.456 E7.43642
G1 X-46.846 Y-7.324 E7.47515
G1 X-46.427 Y-7.938 E7.50482
G1 X-45.957 Y-8.472 E7.53321
G1 X-45.345 Y-9.073 E7.56745
G1 X-44.76 Y-9.522 E7.59688
G1 X-44.195 Y-9.873 E7.62343
G1 X-43.135 Y-10.385 E7.67041
G1 X-42.369 Y-10.646 E7.70271
G1 X-41.597 Y-10.826 E7.73435
G1 X-40.675 Y-10.884 E7.77122
G1 X-13.107 Y-10.916 E8.87152
G1 X-12.441 Y-10.965 E8.89818
G1 X-11.264 Y-11.069 E8.94534
G1 X-10.837 Y-11.127 E8.96253
G1 X0.879 Y-12.506 E9.43337
G0 F6000 X1.404 Y-12.173
G1 F3375 X31.945 Y18.369 E11.15727
G0 F6000 X33.827 Y17.988
G1 F3375 X3.427 Y-12.413 E12.8732
G0 F6000 X5.45 Y-12.652
G1 F3375 X35.574 Y17.472 E14.57353
G0 F6000 X37.032 Y16.667
G1 F3375 X7.473 Y-12.891 E16.24194
G0 F6000 X9.498 Y-13.13
G1 F3375 X38.335 Y15.708 E17.86965
G0 F6000 X39.391 Y14.501
G1 F3375 X11.522 Y-13.369 E19.44273
G0 F6000 X13.547 Y-13.605
G1 F3375 X40.276 Y13.123 E20.9514
G0 F6000 X41.446 Y12.031
G1 F3375 X15.464 Y-13.951 E22.41794
G0 F6000 X16.976 Y-14.702
G1 F3375 X42.706 Y11.028 E23.87025
G0 F6000 X43.841 Y9.9
G1 F3375 X18.16 Y-15.781 E25.3198
G0 F6000 X19.349 Y-16.855
G1 F3375 X44.862 Y8.658 E26.75986
G0 F6000 X45.761 Y7.295
G1 F3375 X20.773 Y-17.694 E28.17032
G0 F6000 X22.416 Y-18.313
G1 F3375 X46.516 Y5.786 E29.5306
G0 F6000 X46.995 Y4.003
G1 F3375 X24.394 Y-18.598 E30.8063
G0 F6000 X27.485 Y-17.77
G1 F3375 X47.339 Y2.084 E31.92694
G0 F6000 X47.313 Y-.204
G1 F3375 X32.093 Y-15.425 E32.78605
G0 F6000 X35.975 Y-13.805
G1 F3375 X47.004 Y-2.776 E33.40858
G0 F6000 X45.478 Y-6.565
G1 F3375 X40.439 Y-11.604 E33.693
G1 F2700 E27.193
G0 F6000 X29.898 Y18.584
G1 F2700 E33.693
G1 F3375 X-.614 Y-11.927 E35.4152
G0 F6000 X-2.638 Y-11.689
G1 F3375 X27.726 Y18.675 E37.12908
G0 F6000 X25.313 Y18.525
G1 F3375 X-4.663 Y-11.451 E38.82105
G0 F6000 X-6.687 Y-11.213
G1 F3375 X22.757 Y18.231 E40.483
G0 F6000 X20.191 Y17.928
G1 F3375 X-8.712 Y-10.974 E42.11438
G0 F6000 X-10.736 Y-10.736
G1 F3375 X17.625 Y17.625 E43.7152
G0 F6000 X15.059 Y17.321
G1 F3375 X-12.799 Y-10.537 E45.28762
G0 F6000 X-15.039 Y-10.513
G1 F3375 X12.538 Y17.064 E46.84419
G0 F6000 X10.597 Y17.386
G1 F3375 X-17.299 Y-10.511 E48.41879
G0 F6000 X-19.559 Y-10.508
G1 F3375 X9.103 Y18.154 E50.0366
G0 F6000 X7.939 Y19.253
G1 F3375 X-21.819 Y-10.505 E51.71627
G0 F6000 X-24.08 Y-10.503
G1 F3375 X6.725 Y20.302 E53.45503
G0 F6000 X5.193 Y21.032
G1 F3375 X-26.34 Y-10.501 E55.23489
G0 F6000 X-28.6 Y-10.498
G1 F3375 X3.461 Y21.563 E57.04455
G0 F6000 X1.744 Y22.109
G1 F3375 X-30.86 Y-10.495 E58.88486
G0 F6000 X-33.12 Y-10.493
G1 F3375 X-.41 Y22.217 E60.73116
G0 F6000 X-3.431 Y21.459
G1 F3375 X-6.733 Y18.157 E60.91754
G1 F2700 E54.41754
G0 F6000 X-10.445 Y14.445
G1 F2700 E60.91754
G1 F3375 X-35.38 Y-10.49 E62.32498
G0 F6000 X-37.64 Y-10.487
G1 F3375 X-13.043 Y14.11 E63.71334
G0 F6000 X-15.332 Y14.083
M104 S220
G1 F3375 X-39.901 Y-10.485 E65.10009
G0 F6000 X-41.999 Y-10.321
G1 F3375 X-17.596 Y14.083 E66.47753
G0 F6000 X-19.859 Y14.082
G1 F3375 X-43.638 Y-9.697 E67.81972
G0 F6000 X-45.021 Y-8.817
G1 F3375 X-22.123 Y14.081 E69.11218
G0 F6000 X-24.386 Y14.081
G1 F3375 X-46.13 Y-7.664 E70.33953
G0 F6000 X-46.943 Y-6.214
G1 F3375 X-26.649 Y14.08 E71.48501
G0 F6000 X-28.913 Y14.079
G1 F3375 X-47.415 Y-4.423 E72.52935
G0 F6000 X-47.464 Y-2.209
G1 F3375 X-31.176 Y14.078 E73.44868
G0 F6000 X-33.44 Y14.078
G1 F3375 X-47.465 Y0.053 E74.24032
G0 F6000 X-47.465 Y2.316
G1 F3375 X-35.703 Y14.078 E74.90421
G0 F6000 X-37.966 Y14.077
G1 F3375 X-47.577 Y4.466 E75.4467
G0 F6000 X-47.216 Y7.089
G1 F3375 X-40.229 Y14.076 E75.84108
G0 F6000 X-43.137 Y13.431
G1 F3375 X-46.74 Y9.828 E76.04445
G1 F2700 E69.54445
G0 F3000 X-46.74 Y9.828 Z0.42
G0 F6000 X-44.947 Y-8.91
;TIME_ELAPSED:39.651448
;LAYER:-4
;TYPE:SUPPORT
G1 F2700 E76.04445
G1 F3375 X-45.684 Y-8.183 E76.14774
G1 X-46.208 Y-7.586 E76.227
G1 X-46.289 Y-7.451 E76.24271
G1 X-44.587 Y-9.153 E76.48288
G1 X-44.111 Y-9.473 E76.54011
G1 X-43.103 Y-9.961 E76.65186
G1 X-42.628 Y-10.143 E76.70261
G1 X-41.992 Y-10.334 E76.76887
G1 X-47.321 Y-5.005 E77.52085
G1 X-47.404 Y-4.569 E77.56514
G1 X-47.464 Y-3.693 E77.65275
G1 X-47.463 Y-3.449 E77.6771
G1 X-40.425 Y-10.487 E78.67023
G1 X-39.009 Y-10.489 E78.81152
G1 X-47.462 Y-2.035 E80.0044
G1 X-47.461 Y-.622 E80.14539
G1 X-37.593 Y-10.491 E81.53795
G1 X-36.177 Y-10.492 E81.67923
G1 X-47.462 Y0.793 E83.27167
G1 X-47.466 Y2.211 E83.41316
G1 X-34.761 Y-10.493 E85.2059
G1 X-33.346 Y-10.495 E85.34709
G1 X-47.516 Y3.676 E87.3467
G1 X-47.575 Y4.216 E87.4009
G1 X-47.574 Y4.825 E87.46167
G1 X-47.544 Y5.117 E87.49096
G1 X-31.929 Y-10.497 E89.69433
G1 X-30.514 Y-10.498 E89.83552
G1 X-47.342 Y6.33 E92.21014
G1 X-47.242 Y6.781 E92.25623
G1 X-47.178 Y7.58 E92.33621
G1 X-29.098 Y-10.5 E94.88749
G1 X-27.682 Y-10.502 E95.02878
G1 X-47.054 Y8.87 E97.76238
G1 X-46.891 Y9.463 E97.82374
G1 X-46.699 Y9.93 E97.87413
G1 X-26.266 Y-10.503 E100.75744
G1 X-24.851 Y-10.505 E100.89863
G1 X-46.179 Y10.824 E103.90831
G1 X-45.906 Y11.184 E103.9534
G1 X-45.544 Y11.603 E104.00865
G1 X-23.434 Y-10.507 E107.12861
G1 X-22.019 Y-10.508 E107.2698
G1 X-44.851 Y12.324 E110.49164
G1 X-44.698 Y12.468 E110.5126
G1 X-44.042 Y12.93 E110.59266
G1 X-20.603 Y-10.51 E113.90023
G1 X-19.187 Y-10.512 E114.04152
G1 X-43.136 Y13.437 E117.42098
G1 X-42.693 Y13.641 E117.46964
G1 X-42.1 Y13.815 E117.53131
G1 X-17.771 Y-10.513 E120.96432
G1 X-16.355 Y-10.515 E121.10561
G1 X-40.915 Y14.045 E124.57129
G1 X-40.317 Y14.079 E124.63106
G1 X-39.536 Y14.08 E124.70899
G1 X-14.939 Y-10.517 E128.17989
G1 X-13.523 Y-10.518 E128.32118
G1 X-38.122 Y14.08 E131.79229
G1 X-36.708 Y14.081 E131.93338
G1 X-12.027 Y-10.6 E135.41614
G1 X-11.205 Y-10.677 E135.49852
G1 X-10.446 Y-10.767 E135.57478
G1 X-35.294 Y14.081 E139.0811
G1 X-33.88 Y14.081 E139.22219
G1 X-8.842 Y-10.957 E142.75532
G1 X-7.239 Y-11.145 E142.91637
G1 X-32.466 Y14.081 E146.4761
G1 X-31.052 Y14.081 E146.61719
G1 X-5.627 Y-11.343 E150.20486
G1 X-4.024 Y-11.532 E150.36592
G1 X-29.638 Y14.081 E153.98026
G1 X-28.224 Y14.082 E154.12135
G1 X-2.423 Y-11.719 E157.76215
G1 X-.822 Y-11.906 E157.92298
G1 X-26.81 Y14.082 E161.59017
G1 X-25.396 Y14.083 E161.73126
G1 X0.787 Y-12.101 E165.42603
G1 X2.386 Y-12.285 E165.58663
G1 X-23.982 Y14.083 E169.30744
G1 X-22.568 Y14.083 E169.44853
G1 X3.993 Y-12.478 E173.19658
G1 X5.196 Y-12.618 E173.31742
G1 X5.197 Y-12.354 E173.34377
G1 X5.337 Y-12.408 E173.35874
G1 X-21.155 Y14.083 E177.09698
G1 X-19.74 Y14.083 E177.23816
G1 X7.142 Y-12.799 E181.03151
G1 X7.312 Y-12.871 E181.04993
G1 X8.58 Y-13.021 E181.17733
G1 X8.58 Y-12.823 E181.19709
G1 X-18.327 Y14.084 E184.99396
G1 X-16.913 Y14.084 E185.13504
G1 X10.406 Y-13.234 E188.98998
G1 X12.01 Y-13.424 E189.15115
G1 X-15.498 Y14.084 E193.03282
G1 X-14.098 Y14.098 E193.17252
G1 X13.617 Y-13.617 E197.08341
G1 X14.581 Y-13.733 E197.18029
G1 X15.313 Y-13.899 E197.25518
G1 X-12.706 Y14.12 E201.20897
G1 X-11.99 Y14.15 E201.28047
G1 X-11.385 Y14.214 E201.34118
G1 X20.283 Y-17.454 E205.80987
G1 X20.897 Y-17.758 E205.87824
G1 X21.688 Y-18.078 E205.96338
G1 X21.759 Y-17.938 E205.97904
G1 X22.404 Y-18.304 E206.05304
G1 X22.563 Y-18.32 E206.06898
G1 X-10.27 Y14.513 E210.70207
G1 X-9.943 Y14.634 E210.73686
G1 X-9.306 Y14.963 E210.8084
G1 X24.14 Y-18.483 E215.52799
G1 X24.411 Y-18.445 E215.5553
G1 X24.411 Y-18.603 E215.57106
G1 X24.658 Y-18.609 E215.59572
G1 X25.348 Y-18.534 E215.66497
G1 X25.56 Y-18.489 E215.6866
G1 X-8.492 Y15.563 E220.4917
G1 X-8.107 Y15.909 E220.54335
G1 X-7.791 Y16.276 E220.59167
G1 X26.664 Y-18.178 E225.45358
G1 X27.065 Y-18.02 E225.49658
G1 X27.603 Y-17.704 E225.55884
G1 X-7.216 Y17.116 E230.47225
G1 X-6.928 Y17.698 E230.53704
G1 X-6.768 Y18.081 E230.57846
G1 X28.467 Y-17.153 E235.55042
G1 X29.436 Y-16.708 E235.65682
G1 X-6.288 Y19.015 E240.69779
G1 X-5.672 Y19.814 E240.79846
G1 X30.382 Y-16.24 E245.88607
G1 X31.31 Y-15.754 E245.99059
G1 X-4.946 Y20.502 E251.10671
G1 X-4.743 Y20.673 E251.13319
G1 X-4.113 Y21.084 E251.20825
G1 X32.323 Y-15.352 E256.34976
G1 X32.815 Y-15.203 E256.40105
G1 X33.253 Y-15.004 E256.44906
G1 X33.253 Y-14.923 E256.45714
G1 X33.295 Y-14.91 E256.46153
G1 X-3.199 Y21.584 E261.61122
G1 X-2.467 Y21.874 E261.68979
G1 X-2.151 Y21.95 E261.72222
G1 X34.269 Y-14.47 E266.86147
G1 X34.768 Y-14.224 E266.91698
G1 X35.266 Y-14.053 E266.96952
G1 X-.979 Y22.192 E272.08408
G1 X-.186 Y22.234 E272.16332
G1 X0.396 Y22.231 E272.22139
G1 X36.313 Y-13.686 E277.28967
G1 X37.333 Y-13.291 E277.39881
G1 X2.167 Y21.874 E282.36104
G1 X2.308 Y21.81 E282.37649
G1 X2.338 Y21.901 E282.38605
G1 X2.609 Y21.778 E282.41575
G1 X2.653 Y21.868 E282.42574
G1 X3.118 Y21.708 E282.47481
G1 X3.805 Y21.27 E282.55611
G1 X3.876 Y21.411 E282.57186
G1 X4.109 Y21.347 E282.59597
G1 X38.288 Y-12.832 E287.419
G1 X38.442 Y-12.764 E287.43579
G1 X38.929 Y-12.36 E287.49893
G1 X39.028 Y-12.459 E287.5129
G1 X39.224 Y-12.354 E287.53509
G1 X6.347 Y20.523 E292.17439
G1 X6.67 Y20.35 E292.21095
G1 X7.399 Y19.791 E292.30261
G1 X7.838 Y19.369 E292.36337
G1 X8.459 Y18.69 E292.45518
G1 X9.01 Y18.216 E292.52771
G1 X9.616 Y17.821 E292.59989
G1 X10.277 Y17.497 E292.67334
G1 X11.04 Y17.244 E292.75355
G1 X40.099 Y-11.815 E296.85409
G1 X40.98 Y-11.281 E296.95688
G1 X12.628 Y17.07 E300.95758
G1 X13.171 Y17.099 E301.01184
G1 X13.929 Y17.184 E301.08795
G1 X41.721 Y-10.609 E305.00977
G1 X42.001 Y-10.274 E305.05333
G1 X42.129 Y-10.402 E305.0714
G1 X42.546 Y-10.019 E305.12789
G1 X15.192 Y17.335 E308.98784
G1 X16.454 Y17.487 E309.11467
G1 X43.28 Y-9.339 E312.90011
G1 X43.958 Y-8.603 E312.99996
G1 X17.722 Y17.634 E316.70221
G1 X18.985 Y17.784 E316.82912
G1 X44.595 Y-7.826 E320.44297
G1 X45.199 Y-7.016 E320.54379
G1 X20.248 Y17.936 E324.06471
G1 X21.511 Y18.087 E324.19163
G1 X45.7 Y-6.102 E327.60496
G1 X45.962 Y-5.548 E327.66611
G1 X46.02 Y-5.606 E327.67429
G1 X46.231 Y-5.218 E327.71836
G1 X22.774 Y18.238 E331.02833
G1 X23.314 Y18.302 E331.08259
G1 X23.314 Y18.045 E331.10823
G1 X24.093 Y18.333 E331.1911
G1 X46.708 Y-4.281 E334.38225
G1 X46.912 Y-3.5 E334.46279
G1 X46.966 Y-3.125 E334.5006
G1 X25.342 Y18.499 E337.55198
G1 X25.517 Y18.551 E337.57019
G1 X26.636 Y18.619 E337.68205
G1 X47.054 Y-1.799 E340.56326
G1 X47.12 Y-1.344 E340.60913
G1 X47.105 Y-.436 E340.69974
G1 X28.105 Y18.564 E343.38085
G1 X28.187 Y18.552 E343.38912
G1 X28.187 Y18.507 E343.39361
G1 X28.987 Y18.638 E343.4745
G1 X29.666 Y18.417 E343.54574
G1 X47.413 Y0.673 E346.04983
G1 X47.414 Y1.375 E346.11987
G1 X47.349 Y2.148 E346.19727
G1 X31.002 Y18.495 E348.50401
G1 X31.917 Y18.385 E348.59597
G1 X32.675 Y18.236 E348.67305
