;FLAVOR:Marlin
;TIME:796
;Filament used: 0.830311m
;Layer height: 0.2
;MINX:-11.091
;MINY:-11.091
;MINZ:0.12
;MAXX:11.091
;MAXY:11.091
;MAXZ:31.995
;TARGET_MACHINE.NAME:Unknown
;Generated with Cura_SteamEngine 5.7.0
M82 ;absolute extrusion mode
G21 ; millimeter units
G90 ; absolute coordinates
M82 ; E absolute
M140 S60.0
M104 S230.0
M190 S60.0
M109 S220.0
G28 ; home axis
M420 S1 ; enable mesh leveling
; Lower nozzle and move to start position
G1 Z150
G1 X-130 Y0 Z0.4 F3000
; Extrude about 40 mm by printing a 90 degree arc
G3 X0 Y-130 I130 Z0.3 E40 F2700
; Retract and move nozzle up
G92 E0
G1 E-1.5 F1800
G0 Z0.5
G1 E0 F300

G92 E0
G92 E0
G1 F2700 E-6.5
;LAYER_COUNT:156
;LAYER:-5
M106 S183.7
G0 F9000 X7.466 Y8.2 Z0.12
;TYPE:SUPPORT-INTERFACE
G1 F2700 E0
G1 F3375 X7.02 Y8.587 E0.02357
G1 X6.434 Y9.049 E0.05335
G1 X5.508 Y9.628 E0.09694
G1 X4.719 Y10.042 E0.1325
G1 X3.897 Y10.397 E0.16824
G1 X3.026 Y10.671 E0.20468
G1 X2.451 Y10.817 E0.22836
G1 X1.714 Y10.964 E0.25835
G1 X0.882 Y11.057 E0.29177
G1 X0.354 Y11.088 E0.31288
G1 X-.212 Y11.091 E0.33547
G1 X-.789 Y11.064 E0.35852
G1 X-1.499 Y10.991 E0.38701
G1 X-2.186 Y10.879 E0.41479
G1 X-2.929 Y10.706 E0.44524
G1 X-3.698 Y10.458 E0.47749
G1 X-4.234 Y10.25 E0.50044
G1 X-4.726 Y10.033 E0.5219
G1 X-5.192 Y9.802 E0.54266
G1 X-5.83 Y9.443 E0.57188
G1 X-6.579 Y8.941 E0.60786
G1 X-7.078 Y8.541 E0.63339
G1 X-7.579 Y8.099 E0.66005
G1 X-8.13 Y7.559 E0.69085
G1 X-8.771 Y6.802 E0.73044
G1 X-9.307 Y6.05 E0.76729
G1 X-9.698 Y5.381 E0.79822
G1 X-9.965 Y4.874 E0.82109
G1 X-10.191 Y4.387 E0.84252
G1 X-10.544 Y3.473 E0.88162
G1 X-10.748 Y2.748 E0.91168
G1 X-10.876 Y2.191 E0.9345
G1 X-10.975 Y1.638 E0.95692
G1 X-11.08 Y0.679 E0.99542
G1 X-11.091 Y-0.065 E1.02512
G1 X-11.068 Y-.849 E1.05642
G1 X-10.948 Y-1.8 E1.09468
G1 X-10.787 Y-2.626 E1.12827
G1 X-10.571 Y-3.373 E1.15931
G1 X-10.389 Y-3.886 E1.18103
G1 X-10.134 Y-4.516 E1.20816
G1 X-9.713 Y-5.37 E1.24616
G1 X-9.242 Y-6.137 E1.28208
G1 X-8.705 Y-6.88 E1.31867
G1 X-8.122 Y-7.567 E1.35463
G1 X-7.502 Y-8.171 E1.38918
G1 X-6.739 Y-8.819 E1.42913
G1 X-5.952 Y-9.371 E1.4675
G1 X-5.153 Y-9.822 E1.50412
G1 X-4.636 Y-10.076 E1.52711
G1 X-3.929 Y-10.381 E1.55784
G1 X-3.116 Y-10.651 E1.59203
G1 X-2.138 Y-10.895 E1.63226
G1 X-1.324 Y-11.014 E1.6651
G1 X-.768 Y-11.064 E1.68738
G1 X-.2 Y-11.091 E1.71007
G1 X0.563 Y-11.084 E1.74053
G1 X1.451 Y-11.003 E1.77612
G1 X2.229 Y-10.867 E1.80764
G1 X2.953 Y-10.702 E1.83728
G1 X3.697 Y-10.459 E1.86852
G1 X4.473 Y-10.157 E1.90175
G1 X5.319 Y-9.734 E1.9395
G1 X5.769 Y-9.479 E1.96015
G1 X6.482 Y-9.002 E1.99438
G1 X7.034 Y-8.578 E2.02217
G1 X7.57 Y-8.111 E2.05054
G1 X7.98 Y-7.701 E2.07368
G1 X8.323 Y-7.335 E2.0937
G1 X8.725 Y-6.848 E2.11891
G1 X9.057 Y-6.405 E2.141
G1 X9.471 Y-5.782 E2.17086
G1 X9.829 Y-5.151 E2.19981
G1 X10.187 Y-4.398 E2.23309
G1 X10.556 Y-3.426 E2.27458
G1 X10.74 Y-2.779 E2.30143
G1 X10.875 Y-2.204 E2.32501
G1 X10.975 Y-1.628 E2.34834
G1 X11.068 Y-.776 E2.38255
G1 X11.091 Y0.065 E2.41612
G1 X11.076 Y0.629 E2.43864
G1 X11.007 Y1.467 E2.4722
G1 X10.848 Y2.324 E2.50699
G1 X10.709 Y2.899 E2.5306
G1 X10.471 Y3.688 E2.56349
G1 X10.196 Y4.369 E2.59281
G1 X9.949 Y4.906 E2.6164
G1 X9.631 Y5.502 E2.64336
G1 X9.328 Y6.006 E2.66683
G1 X8.996 Y6.485 E2.69009
G1 X8.509 Y7.126 E2.72222
G1 X7.89 Y7.795 E2.7586
G1 X7.466 Y8.2 E2.782
G0 F9000 X7.558 Y7.558
G1 F3375 X-7.558 Y-7.558 E3.63521
G0 F9000 X-6.344 Y-8.607
G1 F3375 X8.603 Y6.341 E4.47892
G0 F9000 X9.473 Y4.948
G1 F3375 X-4.95 Y-9.475 E5.29301
G0 F9000 X-3.36 Y-10.148
G1 F3375 X10.151 Y3.363 E6.05563
G0 F9000 X10.588 Y1.537
G1 F3375 X-1.528 Y-10.579 E6.73951
G0 F9000 X0.639 Y-10.675
G1 F3375 X10.672 Y-.641 E7.30584
G0 F9000 X10.115 Y-3.461
G1 F3375 X3.462 Y-10.114 E7.68137
G1 F2700 E1.18137
G0 F9000 X-8.603 Y-6.34
M104 S220
G1 F2700 E7.68137
G1 F3375 X6.344 Y8.607 E8.52504
G0 F9000 X4.946 Y9.472
G1 F3375 X-9.475 Y-4.95 E9.33905
G0 F9000 X-10.151 Y-3.362
G1 F3375 X3.359 Y10.147 E10.10159
G0 F9000 X1.531 Y10.582
G1 F3375 X-10.58 Y-1.529 E10.78519
G0 F9000 X-10.68 Y0.634
G1 F3375 X-.643 Y10.67 E11.35169
G0 F9000 X-3.464 Y10.112
G1 F3375 X-10.124 Y3.453 E11.72758
G1 F2700 E5.22758
G0 F3000 X-10.124 Y3.453 Z0.42
G0 F9000 X-5.325 Y-9.292
;TIME_ELAPSED:8.588018
;LAYER:-4
M106 S118.4
;TYPE:SUPPORT
G1 F2700 E11.72758
G1 F3375 X-5.865 Y-8.752 E11.80378
G1 X-5.98 Y-8.866 E11.81994
G1 X-6.442 Y-8.54 E11.87636
G1 X-7.116 Y-7.988 E11.96328
G1 X-7.562 Y-7.559 E12.02503
G1 X-7.457 Y-7.454 E12.03985
G1 X-8.21 Y-6.89 E12.13372
G1 X-8.914 Y-5.914 E12.2538
G1 X-9.364 Y-5.177 E12.33996
G1 X-9.752 Y-4.39 E12.42751
G1 X-4.362 Y-9.78 E13.1881
G1 X-3.547 Y-10.089 E13.27507
G1 X-2.972 Y-10.276 E13.3354
G1 X-2.283 Y-10.445 E13.40619
G1 X-10.344 Y-2.384 E14.54368
G1 X-10.431 Y-2.188 E14.56508
G1 X-10.431 Y-1.641 E14.61966
G1 X-10.569 Y-1.641 E14.63343
G1 X-10.634 Y-1.141 E14.68374
G1 X-10.674 Y-.639 E14.73399
G1 X-.829 Y-10.485 E16.12329
G1 X-.774 Y-10.478 E16.12883
G1 X-.774 Y-10.54 E16.13501
G1 X-.618 Y-10.695 E16.15696
G1 X0.555 Y-10.687 E16.274
G1 X0.767 Y-10.667 E16.29525
G1 X-10.665 Y0.765 E17.90843
G1 X-10.604 Y1.42 E17.97407
G1 X-10.502 Y2.017 E18.0345
G1 X2.018 Y-10.503 E19.80121
G1 X2.7 Y-10.347 E19.87101
G1 X2.604 Y-10.153 E19.89261
G1 X3.038 Y-10.11 E19.93613
G1 X-10.154 Y3.083 E21.79773
G1 X-9.892 Y3.662 E21.86114
G1 X-10.048 Y3.661 E21.87671
G1 X-10.001 Y3.787 E21.89013
G1 X-9.88 Y3.666 E21.9072
G1 X-9.751 Y4.094 E21.95181
G1 X4.136 Y-9.793 E23.91141
G1 X4.558 Y-9.511 E23.96206
G1 X4.624 Y-9.642 E23.97669
G1 X5.137 Y-9.38 E24.03417
G1 X-9.387 Y5.144 E26.08366
G1 X-8.849 Y6.021 E26.18632
G1 X6.027 Y-8.856 E28.28556
G1 X6.821 Y-8.236 E28.38608
G1 X-8.243 Y6.828 E30.51177
G1 X-7.568 Y7.568 E30.61171
G1 X7.561 Y-7.561 E32.74658
G1 X8.245 Y-6.83 E32.84647
G1 X-6.822 Y8.236 E34.97251
G1 X-6.026 Y8.854 E35.07307
G1 X8.841 Y-6.013 E37.17096
G1 X9.037 Y-5.725 E37.20572
G1 X9.377 Y-5.134 E37.27375
G1 X-5.136 Y9.378 E39.32162
G1 X-4.201 Y9.858 E39.42649
G1 X9.849 Y-4.192 E41.4091
G1 X10.257 Y-3.085 E41.52682
G1 X10.033 Y-3.085 E41.54917
G1 X10.071 Y-3 E41.55846
G1 X-3.144 Y10.215 E43.42324
G1 X-2.777 Y10.33 E43.46162
G1 X-2.017 Y10.503 E43.53939
G1 X10.503 Y-2.018 E45.30617
G1 X10.596 Y-1.481 E45.36055
G1 X10.669 Y-.769 E45.43196
G1 X-.767 Y10.667 E47.04571
G1 X-.196 Y10.692 E47.10273
G1 X0.627 Y10.686 E47.18486
G1 X10.674 Y0.639 E48.6026
G1 X10.608 Y1.459 E48.68468
G1 X10.47 Y1.46 E48.69845
G1 X10.47 Y2.258 E48.77808
G1 X2.28 Y10.448 E49.93377
G1 X2.911 Y10.291 E49.99865
G1 X3.466 Y10.118 E50.05666
G1 X4.353 Y9.789 E50.15106
G1 X9.745 Y4.397 E50.91193
G1 X9.588 Y4.738 E50.94939
G1 X9.1 Y5.654 E51.05295
G1 X8.309 Y6.448 E51.16478
G1 X8.469 Y6.527 E51.18258
G1 X8.074 Y7.014 E51.24515
G1 X7.62 Y7.503 E51.31173
G1 X7.204 Y7.903 E51.36931
G1 X6.792 Y8.261 E51.42377
G1 X6.126 Y8.784 E51.50827
G1 X5.052 Y9.263 E51.62561
G1 X5.155 Y9.366 E51.64014
G1 X4.554 Y9.68 E51.7078
G1 F2700 E45.2078
G0 F3000 X4.554 Y9.68 Z0.62
G0 F9000 X-6.65 Y8.623
;TIME_ELAPSED:16.659891
;LAYER:-3
M107
;TYPE:SUPPORT-INTERFACE
G1 F2700 E51.7078
G1 F4500 X-8.665 Y6.609 E51.80256
G0 F9000 X-8.254 Y7.111
G1 F4500 X-7.842 Y7.563 E51.8229
G1 X-7.434 Y7.964 E51.84193
G1 X-6.954 Y8.387 E51.86321
G1 X-6.383 Y8.831 E51.88726
G1 X-5.811 Y9.219 E51.91025
G1 X-5.06 Y9.648 E51.93902
G1 X-9.68 Y5.028 E52.15633
G1 X-9.924 Y4.218 E52.18447
G1 X-3.984 Y10.159 E52.46389
G1 X-3.157 Y10.419 E52.49272
G1 X-10.277 Y3.299 E52.82762
G1 X-10.566 Y2.66 E52.85095
G1 X-10.631 Y2.38 E52.86051
G1 X-2.383 Y10.628 E53.24847
G1 X-1.686 Y10.759 E53.27206
G1 X-10.763 Y1.682 E53.69901
G1 X-10.841 Y1.039 E53.72056
G1 X-1.038 Y10.841 E54.18164
G1 X-.431 Y10.882 E54.20187
G1 X-10.885 Y0.429 E54.69357
G1 X-10.892 Y-.144 E54.71263
G1 X0.141 Y10.889 E55.23159
G1 X0.685 Y10.868 E55.2497
G1 X-10.872 Y-.69 E55.79333
G1 X-10.827 Y-1.211 E55.81072
G1 X1.208 Y10.824 E56.37681
G1 X1.71 Y10.761 E56.39364
G1 X-10.762 Y-1.711 E56.98028
G1 X-10.745 Y-1.841 E56.98464
G1 X-10.631 Y-1.841 E56.98843
G1 X-10.631 Y-2.145 E56.99854
G1 X2.184 Y10.669 E57.6013
G1 X2.645 Y10.564 E57.61702
G1 X-10.483 Y-2.563 E58.2345
G1 X-10.34 Y-2.883 E58.24616
G1 X-10.501 Y-2.883 E58.25151
G1 X-10.444 Y-3.09 E58.25866
G1 X3.09 Y10.444 E58.89525
G1 X3.522 Y10.31 E58.9103
G1 X-10.218 Y-3.429 E59.55656
G1 X-10.201 Y-3.628 E59.5632
G1 X-10.076 Y-3.854 E59.57179
G1 X3.934 Y10.157 E60.23081
G1 X4.335 Y9.992 E60.24523
G1 X-9.995 Y-4.338 E60.91927
G1 X-9.813 Y-4.722 E60.9334
G1 X4.726 Y9.817 E61.61727
G1 X5.098 Y9.623 E61.63122
G1 X-9.626 Y-5.1 E62.32377
G1 X-9.424 Y-5.464 E62.33762
G1 X5.377 Y9.337 E63.03381
G1 X5.768 Y9.162 E63.04806
G1 X-9.209 Y-5.815 E63.75253
G1 X-8.986 Y-6.157 E63.76611
G1 X6.159 Y8.987 E64.47846
G1 X6.49 Y8.753 E64.49195
G1 X-8.748 Y-6.486 E65.20872
G1 X-8.511 Y-6.814 E65.22218
G1 X6.807 Y8.504 E65.94269
G1 X7.114 Y8.246 E65.95603
G1 X-8.244 Y-7.113 E66.67844
G1 X-7.92 Y-7.355 E66.69189
G1 X7.413 Y7.979 E67.41313
G1 X7.702 Y7.702 E67.42645
G1 X-7.701 Y-7.701 E68.15096
G1 X-7.413 Y-7.978 E68.16425
G1 X7.978 Y7.412 E68.88817
G1 X8.248 Y7.117 E68.90147
G1 X-7.115 Y-8.246 E69.6241
G1 X-6.804 Y-8.501 E69.63748
G1 X8.503 Y6.806 E70.35747
G1 X8.758 Y6.495 E70.37085
G1 X-6.489 Y-8.752 E71.08802
G1 X-6.157 Y-8.986 E71.10153
G1 X8.934 Y6.105 E71.81136
G1 X9.211 Y5.817 E71.82465
G1 X-5.754 Y-9.148 E72.52856
G1 X-5.471 Y-9.431 E72.54187
G1 X9.424 Y5.465 E73.24251
G1 X9.623 Y5.098 E73.2564
G1 X-5.101 Y-9.627 E73.94899
G1 X-4.723 Y-9.814 E73.96302
G1 X9.815 Y4.723 E74.64682
G1 X9.994 Y4.337 E74.66097
G1 X-4.344 Y-10.001 E75.33539
G1 X-3.934 Y-10.156 E75.34996
G1 X10.17 Y3.947 E76.01335
G1 X10.21 Y3.422 E76.03086
G1 X-3.52 Y-10.308 E76.67668
G1 X-3.094 Y-10.448 E76.69159
G1 X10.444 Y3.09 E77.32838
G1 X10.566 Y2.646 E77.34369
G1 X-2.644 Y-10.563 E77.96503
G1 X-2.189 Y-10.674 E77.98061
G1 X10.67 Y2.185 E78.58545
G1 X10.67 Y1.66 E78.60292
G1 X10.711 Y1.66 E78.60428
G1 X-1.705 Y-10.756 E79.18829
G1 X-1.572 Y-10.778 E79.19277
G1 X-1.104 Y-10.72 E79.20846
G1 X10.827 Y1.211 E79.76966
G1 X10.872 Y0.69 E79.78705
G1 X-.687 Y-10.87 E80.33077
G1 X-.144 Y-10.892 E80.34885
G1 X10.892 Y0.144 E80.86795
G1 X10.882 Y-.432 E80.88711
G1 X0.427 Y-10.887 E81.37888
G1 X1.039 Y-10.84 E81.39929
G1 X10.843 Y-1.036 E81.86044
G1 X10.765 Y-1.68 E81.88202
G1 X1.686 Y-10.759 E82.30907
G1 X2.388 Y-10.623 E82.33285
G1 X10.513 Y-2.498 E82.71503
G1 X10.341 Y-2.885 E82.72911
G1 X10.501 Y-2.885 E82.73443
G1 X10.428 Y-3.148 E82.74351
G1 X3.292 Y-10.284 E83.07917
G1 X3.71 Y-10.242 E83.09314
G1 X4.06 Y-10.083 E83.10593
G1 X10.127 Y-4.015 E83.39132
G1 X10.033 Y-4.269 E83.40033
G1 X9.658 Y-5.05 E83.42915
G1 X5.067 Y-9.641 E83.64509
G1 X5.654 Y-9.315 E83.66743
G1 X6.382 Y-8.831 E83.6965
G1 X6.902 Y-8.429 E83.71836
G1 X7.426 Y-7.972 E83.74149
G1 X7.814 Y-7.592 E83.75955
G1 X8.223 Y-7.148 E83.77963
G1 X8.639 Y-6.635 E83.8016
G1 X6.648 Y-8.625 E83.89522
G1 F2700 E77.39522
G0 F9000 X-9.924 Y4.218
G1 F2700 E83.89522
G1 F4500 X-9.977 Y4.044 E83.90127
G1 X-10.037 Y4.105 E83.90412
G1 X-10.13 Y4.012 E83.90849
G1 F2700 E77.40849
G0 F3000 X-10.13 Y4.012 Z0.82
G0 F9000 X-10.312 Y3.524
;TIME_ELAPSED:31.631262
;LAYER:-2
;TYPE:SUPPORT-INTERFACE
G1 F2700 E83.90849
G1 F4500 X-10.204 Y3.462 E83.91264
G1 X-10.336 Y3.462 E83.91703
G1 X-10.312 Y3.524 E83.91924
G1 F2700 E77.41924
G0 F9000 X-10.246 Y-3.075
G1 F2700 E83.91924
G1 F4500 X-10.426 Y-3.15 E83.92572
G0 F9000 X-8.644 Y-6.629
G1 F4500 X-7.911 Y-7.362 E83.9602
G1 X-7.76 Y-7.475 E83.96647
G1 X-7.847 Y-7.561 E83.97054
G1 X-7.247 Y-8.138 E83.99823
G0 F9000 X-6.625 Y-8.649
G1 F4500 X-7.78 Y-7.494 E84.05256
G0 F9000 X-8.354 Y-7.031
G1 F4500 X-9.078 Y-6.029 E84.09367
G1 X-9.54 Y-5.273 E84.12314
G1 X-9.642 Y-5.066 E84.13082
G1 X-5.061 Y-9.647 E84.34629
G1 X-4.359 Y-9.995 E84.37235
G1 X-4.017 Y-10.125 E84.38452
G1 X-10.002 Y-4.14 E84.66604
G1 X-9.916 Y-4.14 E84.6689
G1 X-10.201 Y-3.628 E84.68839
G1 X-10.223 Y-3.353 E84.69756
G1 X-3.133 Y-10.444 E85.03108
G1 X-2.383 Y-10.628 E85.05676
G1 X-10.509 Y-2.502 E85.43899
G1 X-10.631 Y-2.229 E85.44893
G1 X-10.631 Y-1.841 E85.46184
G1 X-10.745 Y-1.841 E85.46563
G1 X-10.766 Y-1.679 E85.47106
G1 X-1.685 Y-10.76 E85.8982
G1 X-1.152 Y-10.728 E85.91596
G1 X-10.843 Y-1.036 E86.37182
G1 X-10.884 Y-.43 E86.39202
G1 X-.432 Y-10.882 E86.88365
G1 X0.142 Y-10.89 E86.90275
G1 X-10.89 Y0.142 E87.42166
G1 X-10.872 Y0.69 E87.43989
G1 X0.692 Y-10.874 E87.98383
G1 X1.208 Y-10.825 E88.00107
G1 X-10.824 Y1.208 E88.56704
G1 X-10.758 Y1.707 E88.58378
G1 X1.706 Y-10.757 E89.17005
G1 X2.185 Y-10.67 E89.18624
G1 X-10.674 Y2.188 E89.79107
G1 X-10.568 Y2.648 E89.80677
G1 X2.645 Y-10.565 E90.42827
G1 X2.991 Y-10.485 E90.44008
G1 X2.913 Y-10.323 E90.44606
G1 X2.964 Y-10.318 E90.44776
G1 X-10.394 Y3.04 E91.07608
G1 X-10.218 Y3.429 E91.09028
G1 X3.478 Y-10.266 E91.73448
G1 X3.71 Y-10.242 E91.74223
G1 X3.936 Y-10.158 E91.75025
G1 X-10.158 Y3.936 E92.41319
G1 X-10.079 Y4.146 E92.42066
G1 X-9.977 Y4.044 E92.42545
G1 X-9.912 Y4.255 E92.4328
G1 X4.28 Y-9.937 E93.10034
G1 X4.481 Y-9.803 E93.10838
G1 X4.536 Y-9.912 E93.11244
G1 X4.725 Y-9.816 E93.11949
G1 X-9.781 Y4.69 E93.80181
G1 X-9.624 Y5.099 E93.81638
G1 X5.1 Y-9.625 E94.50895
G1 X5.464 Y-9.424 E94.52278
G1 X-9.424 Y5.465 E95.22309
G1 X-9.21 Y5.816 E95.23676
G1 X5.815 Y-9.209 E95.94349
G1 X6.155 Y-8.983 E95.95707
G1 X-8.987 Y6.158 E96.66928
G1 X-8.752 Y6.489 E96.68278
G1 X6.488 Y-8.75 E97.3996
G1 X6.807 Y-8.504 E97.413
G1 X-8.503 Y6.806 E98.13314
G1 X-8.248 Y7.117 E98.14651
G1 X7.113 Y-8.245 E98.86907
G1 X7.416 Y-7.982 E98.88242
G1 X-7.978 Y7.413 E99.60653
G1 X-7.702 Y7.702 E99.61982
G1 X7.703 Y-7.703 E100.34442
G1 X7.978 Y-7.413 E100.35771
G1 X-7.415 Y7.981 E101.08178
G1 X-7.115 Y8.246 E101.09509
G1 X8.248 Y-7.117 E101.81772
G1 X8.504 Y-6.807 E101.83109
G1 X-6.806 Y8.503 E102.55123
G1 X-6.488 Y8.75 E102.56462
G1 X8.749 Y-6.486 E103.2813
G1 X8.985 Y-6.157 E103.29476
G1 X-6.157 Y8.985 E104.007
G1 X-5.819 Y9.214 E104.02058
G1 X9.214 Y-5.819 E104.72768
G1 X9.421 Y-5.461 E104.74144
G1 X-5.461 Y9.421 E105.44144
G1 X-5.102 Y9.627 E105.45521
G1 X9.627 Y-5.102 E106.14801
G1 X9.814 Y-4.723 E106.16207
G1 X-4.725 Y9.816 E106.84594
G1 X-4.335 Y9.992 E106.86017
G1 X9.998 Y-4.341 E107.53435
G1 X10.156 Y-3.934 E107.54887
G1 X-3.933 Y10.155 E108.21158
G1 X-3.518 Y10.306 E108.22626
G1 X10.309 Y-3.521 E108.87664
G1 X10.444 Y-3.09 E108.89167
G1 X-3.088 Y10.442 E109.52817
G1 X-2.647 Y10.566 E109.54341
G1 X10.484 Y-2.564 E110.16102
G1 X10.658 Y-2.172 E110.17529
G1 X-2.189 Y10.674 E110.77955
G1 X-1.706 Y10.757 E110.79585
G1 X10.759 Y-1.708 E111.38216
G1 X10.825 Y-1.208 E111.39894
G1 X-1.208 Y10.825 E111.96493
G1 X-.689 Y10.872 E111.98227
G1 X10.874 Y-.692 E112.52618
G1 X10.889 Y-.141 E112.54451
G1 X-.144 Y10.892 E113.06347
G1 X0.431 Y10.883 E113.0826
G1 X10.883 Y0.431 E113.57423
G1 X10.843 Y1.036 E113.59439
G1 X1.032 Y10.847 E114.05587
G1 X1.68 Y10.765 E114.0776
G1 X10.67 Y1.775 E114.50046
G1 X10.67 Y2.205 E114.51476
G1 X10.627 Y2.384 E114.52088
G1 X2.379 Y10.631 E114.90882
G1 X3.137 Y10.439 E114.93483
G1 X10.214 Y3.362 E115.26771
G1 X10.168 Y3.974 E115.28812
G1 X4.014 Y10.129 E115.57761
G1 X4.651 Y9.856 E115.60066
G1 X5.071 Y9.637 E115.61642
G1 X9.636 Y5.071 E115.83116
G1 X9.461 Y5.402 E115.84362
G1 X9.198 Y5.839 E115.86058
G1 X8.647 Y6.392 E115.88654
G1 X8.785 Y6.46 E115.89166
G1 X8.227 Y7.142 E115.92097
G1 X7.751 Y7.656 E115.94427
G1 X7.336 Y8.054 E115.96339
G1 X6.919 Y8.417 E115.98178
G1 X6.629 Y8.644 E115.99403
G1 X8.658 Y6.616 E116.08945
G0 F9000 X10.332 Y3.245
G1 F4500 X10.39 Y3.264 E116.09148
G1 X10.424 Y3.152 E116.09537
G1 X10.332 Y3.245 E116.09972
G1 F2700 E109.59972
G0 F3000 X10.332 Y3.245 Z0.97
G0 F9000 X-5.006 Y-1.738
;TIME_ELAPSED:46.805823
;LAYER:-1
M106 S255
;TYPE:SUPPORT
G1 F2700 E116.09972
G1 F1146.3 X-4.74 Y-2.381 E116.11708
G1 X-4.32 Y-3.079 E116.1374
G1 X-3.884 Y-3.604 E116.15442
G1 X-3.404 Y-4.073 E116.17116
G1 X-2.832 Y-4.474 E116.18859
G1 X-2.366 Y-4.74 E116.20197
G1 X-1.865 Y-4.956 E116.21558
G1 X-1.209 Y-5.168 E116.23278
G1 X-.577 Y-5.265 E116.24873
G1 X-0.024 Y-5.295 E116.26254
G1 X0.551 Y-5.268 E116.2769
G1 X1.217 Y-5.164 E116.29372
G1 X1.869 Y-4.956 E116.31079
G1 X2.378 Y-4.736 E116.32462
G1 X2.967 Y-4.401 E116.34153
